
(Makerbot Industries)
(This file contains digital fabrication directives in gcode format)
(For your 3D printer)
(http://wiki.makerbot.com/gcode)
(* Generated by Miracle-Grue v0.0.1.0)
(* 2012-3-1 16:6:46)
(* machine name: Dub dub dub)
(* firmware revision:v0.0)
(* 3D model filename: ./test_cases/slicerCupTestCase/stls/3D_Knot.stl)
(* 1 extruder)
(* Extrude infills: 1)
(* first operation: Insets)
(* Extrude insets: 1)
(* Extrude outlines: 0)

G21 (set units to mm)
G90 (absolute positioning mode)

(setup extruder)
M103 T0 (Make sure motor for extruder 0 is stopped)
M104 S220 T0 (set temperature of extruder 0 to 220 degrees Celsius)


M109 S110 T0 (heat the build-platform to 110 Celsius)


(go to home position)
G162 X Y F2500 (home XY axes maximum)
G161 Z F800 (home Z axis minimum)
G92 Z5 (set Z to 5)
G1 Z0.0 (move Z down 0)
G161 Z F100 (home Z axis minimum)
M132 X Y Z A B (Recall stored home offsets for XYZAB axis)

G1 X52 Y-57 Z10 F5000 (go to waiting position)

M6 T0 (wait for tool 0 to reach temperature)
(note: the heated build platform temperature is tied to tool 0 for now)


(Create Anchor)
G1 Z0.6 F300    (Position Height)
M108 R4.0   (Set Extruder Speed)
M101        (Start Extruder)
G4 P1600
G1 X52 Y-57 Z0.6 F5000
G1 X49 Y-57 Z0.6 F600

(Slice 0, 1 Extruder)
G1 Z0.1 F500 (move Z)
(   Extruder 0)
( extruder 0 )
( GSWITCH T0 )
( TODO: add offset management to Gantry )

(inset 0/2 )
(  path 0/1, 9 points,  )
G1 X-26.0112 Y20.362 Z0.1 F600
M108 R35 (squirt)
M101
G1 X-25.9112 Y20.362 Z0.1 F2400
M108 R0.7 (good to go)
G1 X-25.5355 Y20.362 Z0.1 F600
G1 X24.7028 Y20.362 Z0.1 F600
G1 X24.7028 Y-21.8227 Z0.1 F600
G1 X24.7028 Y-22.05 Z0.1 F600
G1 X24.3271 Y-22.05 Z0.1 F600
G1 X-25.9112 Y-22.05 Z0.1 F600
G1 X-25.9112 Y20.1346 Z0.1 F600
G1 X-25.9112 Y20.362 Z0.1 F600
M108 R35  (snort)
M102
G1 X-25.9112 Y20.462 Z0.1 F2400
M103

(inset 1/2 )
(  path 0/1, 9 points,  )
G1 X-26.3712 Y20.722 Z0.1 F600
M108 R35 (squirt)
M101
G1 X-26.2712 Y20.722 Z0.1 F2400
M108 R0.7 (good to go)
G1 X-25.5355 Y20.722 Z0.1 F600
G1 X25.0628 Y20.722 Z0.1 F600
G1 X25.0628 Y-21.8227 Z0.1 F600
G1 X25.0628 Y-22.41 Z0.1 F600
G1 X24.3271 Y-22.41 Z0.1 F600
G1 X-26.2712 Y-22.41 Z0.1 F600
G1 X-26.2712 Y20.1346 Z0.1 F600
G1 X-26.2712 Y20.722 Z0.1 F600
M108 R35  (snort)
M102
G1 X-26.2712 Y20.822 Z0.1 F2400
M103

(  path 0/44, 2 points,  )
G1 X22.8628 Y-22.1477 Z0.1 F600
M108 R35 (squirt)
M101
G1 X22.7628 Y-22.1477 Z0.1 F2400
M108 R0.7 (good to go)
G1 X-23.9712 Y-22.1477 Z0.1 F600
M108 R35  (snort)
M102
G1 X-24.0712 Y-22.1477 Z0.1 F2400
M103

(  path 1/44, 2 points,  )
G1 X-24.0712 Y-21.1477 Z0.1 F600
M108 R35 (squirt)
M101
G1 X-23.9712 Y-21.1477 Z0.1 F2400
M108 R0.7 (good to go)
G1 X22.7628 Y-21.1477 Z0.1 F600
M108 R35  (snort)
M102
G1 X22.8628 Y-21.1477 Z0.1 F2400
M103

(  path 2/44, 2 points,  )
G1 X22.8628 Y-20.1477 Z0.1 F600
M108 R35 (squirt)
M101
G1 X22.7628 Y-20.1477 Z0.1 F2400
M108 R0.7 (good to go)
G1 X-23.9712 Y-20.1477 Z0.1 F600
M108 R35  (snort)
M102
G1 X-24.0712 Y-20.1477 Z0.1 F2400
M103

(  path 3/44, 2 points,  )
G1 X-24.0712 Y-19.1477 Z0.1 F600
M108 R35 (squirt)
M101
G1 X-23.9712 Y-19.1477 Z0.1 F2400
M108 R0.7 (good to go)
G1 X22.7628 Y-19.1477 Z0.1 F600
M108 R35  (snort)
M102
G1 X22.8628 Y-19.1477 Z0.1 F2400
M103

(  path 4/44, 2 points,  )
G1 X22.8628 Y-18.1477 Z0.1 F600
M108 R35 (squirt)
M101
G1 X22.7628 Y-18.1477 Z0.1 F2400
M108 R0.7 (good to go)
G1 X-23.9712 Y-18.1477 Z0.1 F600
M108 R35  (snort)
M102
G1 X-24.0712 Y-18.1477 Z0.1 F2400
M103

(  path 5/44, 2 points,  )
G1 X-24.0712 Y-17.1477 Z0.1 F600
M108 R35 (squirt)
M101
G1 X-23.9712 Y-17.1477 Z0.1 F2400
M108 R0.7 (good to go)
G1 X22.7628 Y-17.1477 Z0.1 F600
M108 R35  (snort)
M102
G1 X22.8628 Y-17.1477 Z0.1 F2400
M103

(  path 6/44, 2 points,  )
G1 X22.8628 Y-16.1477 Z0.1 F600
M108 R35 (squirt)
M101
G1 X22.7628 Y-16.1477 Z0.1 F2400
M108 R0.7 (good to go)
G1 X-23.9712 Y-16.1477 Z0.1 F600
M108 R35  (snort)
M102
G1 X-24.0712 Y-16.1477 Z0.1 F2400
M103

(  path 7/44, 2 points,  )
G1 X-24.0712 Y-15.1477 Z0.1 F600
M108 R35 (squirt)
M101
G1 X-23.9712 Y-15.1477 Z0.1 F2400
M108 R0.7 (good to go)
G1 X22.7628 Y-15.1477 Z0.1 F600
M108 R35  (snort)
M102
G1 X22.8628 Y-15.1477 Z0.1 F2400
M103

(  path 8/44, 2 points,  )
G1 X22.8628 Y-14.1477 Z0.1 F600
M108 R35 (squirt)
M101
G1 X22.7628 Y-14.1477 Z0.1 F2400
M108 R0.7 (good to go)
G1 X-23.9712 Y-14.1477 Z0.1 F600
M108 R35  (snort)
M102
G1 X-24.0712 Y-14.1477 Z0.1 F2400
M103

(  path 9/44, 2 points,  )
G1 X-24.0712 Y-13.1477 Z0.1 F600
M108 R35 (squirt)
M101
G1 X-23.9712 Y-13.1477 Z0.1 F2400
M108 R0.7 (good to go)
G1 X22.7628 Y-13.1477 Z0.1 F600
M108 R35  (snort)
M102
G1 X22.8628 Y-13.1477 Z0.1 F2400
M103

(  path 10/44, 2 points,  )
G1 X22.8628 Y-12.1477 Z0.1 F600
M108 R35 (squirt)
M101
G1 X22.7628 Y-12.1477 Z0.1 F2400
M108 R0.7 (good to go)
G1 X-23.9712 Y-12.1477 Z0.1 F600
M108 R35  (snort)
M102
G1 X-24.0712 Y-12.1477 Z0.1 F2400
M103

(  path 11/44, 2 points,  )
G1 X-24.0712 Y-11.1477 Z0.1 F600
M108 R35 (squirt)
M101
G1 X-23.9712 Y-11.1477 Z0.1 F2400
M108 R0.7 (good to go)
G1 X22.7628 Y-11.1477 Z0.1 F600
M108 R35  (snort)
M102
G1 X22.8628 Y-11.1477 Z0.1 F2400
M103

(  path 12/44, 2 points,  )
G1 X22.8628 Y-10.1477 Z0.1 F600
M108 R35 (squirt)
M101
G1 X22.7628 Y-10.1477 Z0.1 F2400
M108 R0.7 (good to go)
G1 X-23.9712 Y-10.1477 Z0.1 F600
M108 R35  (snort)
M102
G1 X-24.0712 Y-10.1477 Z0.1 F2400
M103

(  path 13/44, 2 points,  )
G1 X-24.0712 Y-9.14773 Z0.1 F600
M108 R35 (squirt)
M101
G1 X-23.9712 Y-9.14773 Z0.1 F2400
M108 R0.7 (good to go)
G1 X22.7628 Y-9.14773 Z0.1 F600
M108 R35  (snort)
M102
G1 X22.8628 Y-9.14773 Z0.1 F2400
M103

(  path 14/44, 2 points,  )
G1 X22.8628 Y-8.14773 Z0.1 F600
M108 R35 (squirt)
M101
G1 X22.7628 Y-8.14773 Z0.1 F2400
M108 R0.7 (good to go)
G1 X-23.9712 Y-8.14773 Z0.1 F600
M108 R35  (snort)
M102
G1 X-24.0712 Y-8.14773 Z0.1 F2400
M103

(  path 15/44, 2 points,  )
G1 X-24.0712 Y-7.14773 Z0.1 F600
M108 R35 (squirt)
M101
G1 X-23.9712 Y-7.14773 Z0.1 F2400
M108 R0.7 (good to go)
G1 X22.7628 Y-7.14773 Z0.1 F600
M108 R35  (snort)
M102
G1 X22.8628 Y-7.14773 Z0.1 F2400
M103

(  path 16/44, 2 points,  )
G1 X22.8628 Y-6.14773 Z0.1 F600
M108 R35 (squirt)
M101
G1 X22.7628 Y-6.14773 Z0.1 F2400
M108 R0.7 (good to go)
G1 X-23.9712 Y-6.14773 Z0.1 F600
M108 R35  (snort)
M102
G1 X-24.0712 Y-6.14773 Z0.1 F2400
M103

(  path 17/44, 2 points,  )
G1 X-24.0712 Y-5.14773 Z0.1 F600
M108 R35 (squirt)
M101
G1 X-23.9712 Y-5.14773 Z0.1 F2400
M108 R0.7 (good to go)
G1 X22.7628 Y-5.14773 Z0.1 F600
M108 R35  (snort)
M102
G1 X22.8628 Y-5.14773 Z0.1 F2400
M103

(  path 18/44, 2 points,  )
G1 X22.8628 Y-4.14773 Z0.1 F600
M108 R35 (squirt)
M101
G1 X22.7628 Y-4.14773 Z0.1 F2400
M108 R0.7 (good to go)
G1 X-23.9712 Y-4.14773 Z0.1 F600
M108 R35  (snort)
M102
G1 X-24.0712 Y-4.14773 Z0.1 F2400
M103

(  path 19/44, 2 points,  )
G1 X-24.0712 Y-3.14773 Z0.1 F600
M108 R35 (squirt)
M101
G1 X-23.9712 Y-3.14773 Z0.1 F2400
M108 R0.7 (good to go)
G1 X22.7628 Y-3.14773 Z0.1 F600
M108 R35  (snort)
M102
G1 X22.8628 Y-3.14773 Z0.1 F2400
M103

(  path 20/44, 2 points,  )
G1 X22.8628 Y-2.14773 Z0.1 F600
M108 R35 (squirt)
M101
G1 X22.7628 Y-2.14773 Z0.1 F2400
M108 R0.7 (good to go)
G1 X-23.9712 Y-2.14773 Z0.1 F600
M108 R35  (snort)
M102
G1 X-24.0712 Y-2.14773 Z0.1 F2400
M103

(  path 21/44, 2 points,  )
G1 X-24.0712 Y-1.14773 Z0.1 F600
M108 R35 (squirt)
M101
G1 X-23.9712 Y-1.14773 Z0.1 F2400
M108 R0.7 (good to go)
G1 X22.7628 Y-1.14773 Z0.1 F600
M108 R35  (snort)
M102
G1 X22.8628 Y-1.14773 Z0.1 F2400
M103

(  path 22/44, 2 points,  )
G1 X22.8628 Y-0.147735 Z0.1 F600
M108 R35 (squirt)
M101
G1 X22.7628 Y-0.147735 Z0.1 F2400
M108 R0.7 (good to go)
G1 X-23.9712 Y-0.147735 Z0.1 F600
M108 R35  (snort)
M102
G1 X-24.0712 Y-0.147735 Z0.1 F2400
M103

(  path 23/44, 2 points,  )
G1 X-24.0712 Y0.852265 Z0.1 F600
M108 R35 (squirt)
M101
G1 X-23.9712 Y0.852265 Z0.1 F2400
M108 R0.7 (good to go)
G1 X22.7628 Y0.852265 Z0.1 F600
M108 R35  (snort)
M102
G1 X22.8628 Y0.852265 Z0.1 F2400
M103

(  path 24/44, 2 points,  )
G1 X22.8628 Y1.85227 Z0.1 F600
M108 R35 (squirt)
M101
G1 X22.7628 Y1.85227 Z0.1 F2400
M108 R0.7 (good to go)
G1 X-23.9712 Y1.85227 Z0.1 F600
M108 R35  (snort)
M102
G1 X-24.0712 Y1.85227 Z0.1 F2400
M103

(  path 25/44, 2 points,  )
G1 X-24.0712 Y2.85227 Z0.1 F600
M108 R35 (squirt)
M101
G1 X-23.9712 Y2.85227 Z0.1 F2400
M108 R0.7 (good to go)
G1 X22.7628 Y2.85227 Z0.1 F600
M108 R35  (snort)
M102
G1 X22.8628 Y2.85227 Z0.1 F2400
M103

(  path 26/44, 2 points,  )
G1 X22.8628 Y3.85227 Z0.1 F600
M108 R35 (squirt)
M101
G1 X22.7628 Y3.85227 Z0.1 F2400
M108 R0.7 (good to go)
G1 X-23.9712 Y3.85227 Z0.1 F600
M108 R35  (snort)
M102
G1 X-24.0712 Y3.85227 Z0.1 F2400
M103

(  path 27/44, 2 points,  )
G1 X-24.0712 Y4.85227 Z0.1 F600
M108 R35 (squirt)
M101
G1 X-23.9712 Y4.85227 Z0.1 F2400
M108 R0.7 (good to go)
G1 X22.7628 Y4.85227 Z0.1 F600
M108 R35  (snort)
M102
G1 X22.8628 Y4.85227 Z0.1 F2400
M103

(  path 28/44, 2 points,  )
G1 X22.8628 Y5.85227 Z0.1 F600
M108 R35 (squirt)
M101
G1 X22.7628 Y5.85227 Z0.1 F2400
M108 R0.7 (good to go)
G1 X-23.9712 Y5.85227 Z0.1 F600
M108 R35  (snort)
M102
G1 X-24.0712 Y5.85227 Z0.1 F2400
M103

(  path 29/44, 2 points,  )
G1 X-24.0712 Y6.85227 Z0.1 F600
M108 R35 (squirt)
M101
G1 X-23.9712 Y6.85227 Z0.1 F2400
M108 R0.7 (good to go)
G1 X22.7628 Y6.85227 Z0.1 F600
M108 R35  (snort)
M102
G1 X22.8628 Y6.85227 Z0.1 F2400
M103

(  path 30/44, 2 points,  )
G1 X22.8628 Y7.85227 Z0.1 F600
M108 R35 (squirt)
M101
G1 X22.7628 Y7.85227 Z0.1 F2400
M108 R0.7 (good to go)
G1 X-23.9712 Y7.85227 Z0.1 F600
M108 R35  (snort)
M102
G1 X-24.0712 Y7.85227 Z0.1 F2400
M103

(  path 31/44, 2 points,  )
G1 X-24.0712 Y8.85227 Z0.1 F600
M108 R35 (squirt)
M101
G1 X-23.9712 Y8.85227 Z0.1 F2400
M108 R0.7 (good to go)
G1 X22.7628 Y8.85227 Z0.1 F600
M108 R35  (snort)
M102
G1 X22.8628 Y8.85227 Z0.1 F2400
M103

(  path 32/44, 2 points,  )
G1 X22.8628 Y9.85227 Z0.1 F600
M108 R35 (squirt)
M101
G1 X22.7628 Y9.85227 Z0.1 F2400
M108 R0.7 (good to go)
G1 X-23.9712 Y9.85227 Z0.1 F600
M108 R35  (snort)
M102
G1 X-24.0712 Y9.85227 Z0.1 F2400
M103

(  path 33/44, 2 points,  )
G1 X-24.0712 Y10.8523 Z0.1 F600
M108 R35 (squirt)
M101
G1 X-23.9712 Y10.8523 Z0.1 F2400
M108 R0.7 (good to go)
G1 X22.7628 Y10.8523 Z0.1 F600
M108 R35  (snort)
M102
G1 X22.8628 Y10.8523 Z0.1 F2400
M103

(  path 34/44, 2 points,  )
G1 X22.8628 Y11.8523 Z0.1 F600
M108 R35 (squirt)
M101
G1 X22.7628 Y11.8523 Z0.1 F2400
M108 R0.7 (good to go)
G1 X-23.9712 Y11.8523 Z0.1 F600
M108 R35  (snort)
M102
G1 X-24.0712 Y11.8523 Z0.1 F2400
M103

(  path 35/44, 2 points,  )
G1 X-24.0712 Y12.8523 Z0.1 F600
M108 R35 (squirt)
M101
G1 X-23.9712 Y12.8523 Z0.1 F2400
M108 R0.7 (good to go)
G1 X22.7628 Y12.8523 Z0.1 F600
M108 R35  (snort)
M102
G1 X22.8628 Y12.8523 Z0.1 F2400
M103

(  path 36/44, 2 points,  )
G1 X22.8628 Y13.8523 Z0.1 F600
M108 R35 (squirt)
M101
G1 X22.7628 Y13.8523 Z0.1 F2400
M108 R0.7 (good to go)
G1 X-23.9712 Y13.8523 Z0.1 F600
M108 R35  (snort)
M102
G1 X-24.0712 Y13.8523 Z0.1 F2400
M103

(  path 37/44, 2 points,  )
G1 X-24.0712 Y14.8523 Z0.1 F600
M108 R35 (squirt)
M101
G1 X-23.9712 Y14.8523 Z0.1 F2400
M108 R0.7 (good to go)
G1 X22.7628 Y14.8523 Z0.1 F600
M108 R35  (snort)
M102
G1 X22.8628 Y14.8523 Z0.1 F2400
M103

(  path 38/44, 2 points,  )
G1 X22.8628 Y15.8523 Z0.1 F600
M108 R35 (squirt)
M101
G1 X22.7628 Y15.8523 Z0.1 F2400
M108 R0.7 (good to go)
G1 X-23.9712 Y15.8523 Z0.1 F600
M108 R35  (snort)
M102
G1 X-24.0712 Y15.8523 Z0.1 F2400
M103

(  path 39/44, 2 points,  )
G1 X-24.0712 Y16.8523 Z0.1 F600
M108 R35 (squirt)
M101
G1 X-23.9712 Y16.8523 Z0.1 F2400
M108 R0.7 (good to go)
G1 X22.7628 Y16.8523 Z0.1 F600
M108 R35  (snort)
M102
G1 X22.8628 Y16.8523 Z0.1 F2400
M103

(  path 40/44, 2 points,  )
G1 X22.8628 Y17.8523 Z0.1 F600
M108 R35 (squirt)
M101
G1 X22.7628 Y17.8523 Z0.1 F2400
M108 R0.7 (good to go)
G1 X-23.9712 Y17.8523 Z0.1 F600
M108 R35  (snort)
M102
G1 X-24.0712 Y17.8523 Z0.1 F2400
M103

(  path 41/44, 2 points,  )
G1 X-24.0712 Y18.8523 Z0.1 F600
M108 R35 (squirt)
M101
G1 X-23.9712 Y18.8523 Z0.1 F2400
M108 R0.7 (good to go)
G1 X22.7628 Y18.8523 Z0.1 F600
M108 R35  (snort)
M102
G1 X22.8628 Y18.8523 Z0.1 F2400
M103

(  path 42/44, 2 points,  )
G1 X22.8628 Y19.8523 Z0.1 F600
M108 R35 (squirt)
M101
G1 X22.7628 Y19.8523 Z0.1 F2400
M108 R0.7 (good to go)
G1 X-23.9712 Y19.8523 Z0.1 F600
M108 R35  (snort)
M102
G1 X-24.0712 Y19.8523 Z0.1 F2400
M103

(  path 43/44, 2 points,  )
G1 X-24.0712 Y20.8523 Z0.1 F600
M108 R35 (squirt)
M101
G1 X-23.9712 Y20.8523 Z0.1 F2400
M108 R0.7 (good to go)
G1 X22.7628 Y20.8523 Z0.1 F600
M108 R35  (snort)
M102
G1 X22.8628 Y20.8523 Z0.1 F2400
M103

(Slice 1, 1 Extruder)
G1 Z0.37 F500 (move Z)
(   Extruder 0)
( extruder 0 )
( GSWITCH T0 )
( TODO: add offset management to Gantry )

(inset 0/2 )
(  path 0/1, 9 points,  )
G1 X-26.0112 Y20.362 Z0.37 F2400
M108 R35 (squirt)
M101
G1 X-25.9112 Y20.362 Z0.37 F2400
M108 R2.8 (good to go)
G1 X-23.0092 Y20.362 Z0.37 F2400
G1 X24.7028 Y20.362 Z0.37 F2400
G1 X24.7028 Y-19.6969 Z0.37 F2400
G1 X24.7028 Y-22.05 Z0.37 F2400
G1 X21.8007 Y-22.05 Z0.37 F2400
G1 X-25.9112 Y-22.05 Z0.37 F2400
G1 X-25.9112 Y18.0088 Z0.37 F2400
G1 X-25.9112 Y20.362 Z0.37 F2400
M108 R35  (snort)
M102
G1 X-25.9112 Y20.462 Z0.37 F2400
M103

(inset 1/2 )
(  path 0/1, 9 points,  )
G1 X-26.3712 Y20.722 Z0.37 F2400
M108 R35 (squirt)
M101
G1 X-26.2712 Y20.722 Z0.37 F2400
M108 R2.8 (good to go)
G1 X-23.0092 Y20.722 Z0.37 F2400
G1 X25.0628 Y20.722 Z0.37 F2400
G1 X25.0628 Y-19.6969 Z0.37 F2400
G1 X25.0628 Y-22.41 Z0.37 F2400
G1 X21.8007 Y-22.41 Z0.37 F2400
G1 X-26.2712 Y-22.41 Z0.37 F2400
G1 X-26.2712 Y18.0088 Z0.37 F2400
G1 X-26.2712 Y20.722 Z0.37 F2400
M108 R35  (snort)
M102
G1 X-26.2712 Y20.822 Z0.37 F2400
M103

(  path 0/52, 2 points,  )
G1 X-25.9444 Y18.522 Z0.37 F2400
M108 R35 (squirt)
M101
G1 X-25.9444 Y18.422 Z0.37 F2400
M108 R2.8 (good to go)
G1 X-25.9444 Y-20.11 Z0.37 F2400
M108 R35  (snort)
M102
G1 X-25.9444 Y-20.21 Z0.37 F2400
M103

(  path 1/52, 2 points,  )
G1 X-24.9444 Y-20.21 Z0.37 F2400
M108 R35 (squirt)
M101
G1 X-24.9444 Y-20.11 Z0.37 F2400
M108 R2.8 (good to go)
G1 X-24.9444 Y18.422 Z0.37 F2400
M108 R35  (snort)
M102
G1 X-24.9444 Y18.522 Z0.37 F2400
M103

(  path 2/52, 2 points,  )
G1 X-23.9444 Y18.522 Z0.37 F2400
M108 R35 (squirt)
M101
G1 X-23.9444 Y18.422 Z0.37 F2400
M108 R2.8 (good to go)
G1 X-23.9444 Y-20.11 Z0.37 F2400
M108 R35  (snort)
M102
G1 X-23.9444 Y-20.21 Z0.37 F2400
M103

(  path 3/52, 2 points,  )
G1 X-22.9444 Y-20.21 Z0.37 F2400
M108 R35 (squirt)
M101
G1 X-22.9444 Y-20.11 Z0.37 F2400
M108 R2.8 (good to go)
G1 X-22.9444 Y18.422 Z0.37 F2400
M108 R35  (snort)
M102
G1 X-22.9444 Y18.522 Z0.37 F2400
M103

(  path 4/52, 2 points,  )
G1 X-21.9444 Y18.522 Z0.37 F2400
M108 R35 (squirt)
M101
G1 X-21.9444 Y18.422 Z0.37 F2400
M108 R2.8 (good to go)
G1 X-21.9444 Y-20.11 Z0.37 F2400
M108 R35  (snort)
M102
G1 X-21.9444 Y-20.21 Z0.37 F2400
M103

(  path 5/52, 2 points,  )
G1 X-20.9444 Y-20.21 Z0.37 F2400
M108 R35 (squirt)
M101
G1 X-20.9444 Y-20.11 Z0.37 F2400
M108 R2.8 (good to go)
G1 X-20.9444 Y18.422 Z0.37 F2400
M108 R35  (snort)
M102
G1 X-20.9444 Y18.522 Z0.37 F2400
M103

(  path 6/52, 2 points,  )
G1 X-19.9444 Y18.522 Z0.37 F2400
M108 R35 (squirt)
M101
G1 X-19.9444 Y18.422 Z0.37 F2400
M108 R2.8 (good to go)
G1 X-19.9444 Y-20.11 Z0.37 F2400
M108 R35  (snort)
M102
G1 X-19.9444 Y-20.21 Z0.37 F2400
M103

(  path 7/52, 2 points,  )
G1 X-18.9444 Y-20.21 Z0.37 F2400
M108 R35 (squirt)
M101
G1 X-18.9444 Y-20.11 Z0.37 F2400
M108 R2.8 (good to go)
G1 X-18.9444 Y18.422 Z0.37 F2400
M108 R35  (snort)
M102
G1 X-18.9444 Y18.522 Z0.37 F2400
M103

(  path 8/52, 2 points,  )
G1 X-17.9444 Y18.522 Z0.37 F2400
M108 R35 (squirt)
M101
G1 X-17.9444 Y18.422 Z0.37 F2400
M108 R2.8 (good to go)
G1 X-17.9444 Y-20.11 Z0.37 F2400
M108 R35  (snort)
M102
G1 X-17.9444 Y-20.21 Z0.37 F2400
M103

(  path 9/52, 2 points,  )
G1 X-16.9444 Y-20.21 Z0.37 F2400
M108 R35 (squirt)
M101
G1 X-16.9444 Y-20.11 Z0.37 F2400
M108 R2.8 (good to go)
G1 X-16.9444 Y18.422 Z0.37 F2400
M108 R35  (snort)
M102
G1 X-16.9444 Y18.522 Z0.37 F2400
M103

(  path 10/52, 2 points,  )
G1 X-15.9444 Y18.522 Z0.37 F2400
M108 R35 (squirt)
M101
G1 X-15.9444 Y18.422 Z0.37 F2400
M108 R2.8 (good to go)
G1 X-15.9444 Y-20.11 Z0.37 F2400
M108 R35  (snort)
M102
G1 X-15.9444 Y-20.21 Z0.37 F2400
M103

(  path 11/52, 2 points,  )
G1 X-14.9444 Y-20.21 Z0.37 F2400
M108 R35 (squirt)
M101
G1 X-14.9444 Y-20.11 Z0.37 F2400
M108 R2.8 (good to go)
G1 X-14.9444 Y18.422 Z0.37 F2400
M108 R35  (snort)
M102
G1 X-14.9444 Y18.522 Z0.37 F2400
M103

(  path 12/52, 2 points,  )
G1 X-13.9444 Y18.522 Z0.37 F2400
M108 R35 (squirt)
M101
G1 X-13.9444 Y18.422 Z0.37 F2400
M108 R2.8 (good to go)
G1 X-13.9444 Y-20.11 Z0.37 F2400
M108 R35  (snort)
M102
G1 X-13.9444 Y-20.21 Z0.37 F2400
M103

(  path 13/52, 2 points,  )
G1 X-12.9444 Y-20.21 Z0.37 F2400
M108 R35 (squirt)
M101
G1 X-12.9444 Y-20.11 Z0.37 F2400
M108 R2.8 (good to go)
G1 X-12.9444 Y18.422 Z0.37 F2400
M108 R35  (snort)
M102
G1 X-12.9444 Y18.522 Z0.37 F2400
M103

(  path 14/52, 2 points,  )
G1 X-11.9444 Y18.522 Z0.37 F2400
M108 R35 (squirt)
M101
G1 X-11.9444 Y18.422 Z0.37 F2400
M108 R2.8 (good to go)
G1 X-11.9444 Y-20.11 Z0.37 F2400
M108 R35  (snort)
M102
G1 X-11.9444 Y-20.21 Z0.37 F2400
M103

(  path 15/52, 2 points,  )
G1 X-10.9444 Y-20.21 Z0.37 F2400
M108 R35 (squirt)
M101
G1 X-10.9444 Y-20.11 Z0.37 F2400
M108 R2.8 (good to go)
G1 X-10.9444 Y18.422 Z0.37 F2400
M108 R35  (snort)
M102
G1 X-10.9444 Y18.522 Z0.37 F2400
M103

(  path 16/52, 2 points,  )
G1 X-9.94442 Y18.522 Z0.37 F2400
M108 R35 (squirt)
M101
G1 X-9.94442 Y18.422 Z0.37 F2400
M108 R2.8 (good to go)
G1 X-9.94442 Y-20.11 Z0.37 F2400
M108 R35  (snort)
M102
G1 X-9.94442 Y-20.21 Z0.37 F2400
M103

(  path 17/52, 2 points,  )
G1 X-8.94442 Y-20.21 Z0.37 F2400
M108 R35 (squirt)
M101
G1 X-8.94442 Y-20.11 Z0.37 F2400
M108 R2.8 (good to go)
G1 X-8.94442 Y18.422 Z0.37 F2400
M108 R35  (snort)
M102
G1 X-8.94442 Y18.522 Z0.37 F2400
M103

(  path 18/52, 2 points,  )
G1 X-7.94442 Y18.522 Z0.37 F2400
M108 R35 (squirt)
M101
G1 X-7.94442 Y18.422 Z0.37 F2400
M108 R2.8 (good to go)
G1 X-7.94442 Y-20.11 Z0.37 F2400
M108 R35  (snort)
M102
G1 X-7.94442 Y-20.21 Z0.37 F2400
M103

(  path 19/52, 2 points,  )
G1 X-6.94442 Y-20.21 Z0.37 F2400
M108 R35 (squirt)
M101
G1 X-6.94442 Y-20.11 Z0.37 F2400
M108 R2.8 (good to go)
G1 X-6.94442 Y18.422 Z0.37 F2400
M108 R35  (snort)
M102
G1 X-6.94442 Y18.522 Z0.37 F2400
M103

(  path 20/52, 2 points,  )
G1 X-5.94442 Y18.522 Z0.37 F2400
M108 R35 (squirt)
M101
G1 X-5.94442 Y18.422 Z0.37 F2400
M108 R2.8 (good to go)
G1 X-5.94442 Y-20.11 Z0.37 F2400
M108 R35  (snort)
M102
G1 X-5.94442 Y-20.21 Z0.37 F2400
M103

(  path 21/52, 2 points,  )
G1 X-4.94442 Y-20.21 Z0.37 F2400
M108 R35 (squirt)
M101
G1 X-4.94442 Y-20.11 Z0.37 F2400
M108 R2.8 (good to go)
G1 X-4.94442 Y18.422 Z0.37 F2400
M108 R35  (snort)
M102
G1 X-4.94442 Y18.522 Z0.37 F2400
M103

(  path 22/52, 2 points,  )
G1 X-3.94442 Y18.522 Z0.37 F2400
M108 R35 (squirt)
M101
G1 X-3.94442 Y18.422 Z0.37 F2400
M108 R2.8 (good to go)
G1 X-3.94442 Y-20.11 Z0.37 F2400
M108 R35  (snort)
M102
G1 X-3.94442 Y-20.21 Z0.37 F2400
M103

(  path 23/52, 2 points,  )
G1 X-2.94442 Y-20.21 Z0.37 F2400
M108 R35 (squirt)
M101
G1 X-2.94442 Y-20.11 Z0.37 F2400
M108 R2.8 (good to go)
G1 X-2.94442 Y18.422 Z0.37 F2400
M108 R35  (snort)
M102
G1 X-2.94442 Y18.522 Z0.37 F2400
M103

(  path 24/52, 2 points,  )
G1 X-1.94442 Y18.522 Z0.37 F2400
M108 R35 (squirt)
M101
G1 X-1.94442 Y18.422 Z0.37 F2400
M108 R2.8 (good to go)
G1 X-1.94442 Y-20.11 Z0.37 F2400
M108 R35  (snort)
M102
G1 X-1.94442 Y-20.21 Z0.37 F2400
M103

(  path 25/52, 2 points,  )
G1 X-0.94442 Y-20.21 Z0.37 F2400
M108 R35 (squirt)
M101
G1 X-0.94442 Y-20.11 Z0.37 F2400
M108 R2.8 (good to go)
G1 X-0.94442 Y18.422 Z0.37 F2400
M108 R35  (snort)
M102
G1 X-0.94442 Y18.522 Z0.37 F2400
M103

(  path 26/52, 2 points,  )
G1 X0.0555803 Y18.522 Z0.37 F2400
M108 R35 (squirt)
M101
G1 X0.0555803 Y18.422 Z0.37 F2400
M108 R2.8 (good to go)
G1 X0.0555803 Y-20.11 Z0.37 F2400
M108 R35  (snort)
M102
G1 X0.0555803 Y-20.21 Z0.37 F2400
M103

(  path 27/52, 2 points,  )
G1 X1.05558 Y-20.21 Z0.37 F2400
M108 R35 (squirt)
M101
G1 X1.05558 Y-20.11 Z0.37 F2400
M108 R2.8 (good to go)
G1 X1.05558 Y18.422 Z0.37 F2400
M108 R35  (snort)
M102
G1 X1.05558 Y18.522 Z0.37 F2400
M103

(  path 28/52, 2 points,  )
G1 X2.05558 Y18.522 Z0.37 F2400
M108 R35 (squirt)
M101
G1 X2.05558 Y18.422 Z0.37 F2400
M108 R2.8 (good to go)
G1 X2.05558 Y-20.11 Z0.37 F2400
M108 R35  (snort)
M102
G1 X2.05558 Y-20.21 Z0.37 F2400
M103

(  path 29/52, 2 points,  )
G1 X3.05558 Y-20.21 Z0.37 F2400
M108 R35 (squirt)
M101
G1 X3.05558 Y-20.11 Z0.37 F2400
M108 R2.8 (good to go)
G1 X3.05558 Y18.422 Z0.37 F2400
M108 R35  (snort)
M102
G1 X3.05558 Y18.522 Z0.37 F2400
M103

(  path 30/52, 2 points,  )
G1 X4.05558 Y18.522 Z0.37 F2400
M108 R35 (squirt)
M101
G1 X4.05558 Y18.422 Z0.37 F2400
M108 R2.8 (good to go)
G1 X4.05558 Y-20.11 Z0.37 F2400
M108 R35  (snort)
M102
G1 X4.05558 Y-20.21 Z0.37 F2400
M103

(  path 31/52, 2 points,  )
G1 X5.05558 Y-20.21 Z0.37 F2400
M108 R35 (squirt)
M101
G1 X5.05558 Y-20.11 Z0.37 F2400
M108 R2.8 (good to go)
G1 X5.05558 Y18.422 Z0.37 F2400
M108 R35  (snort)
M102
G1 X5.05558 Y18.522 Z0.37 F2400
M103

(  path 32/52, 2 points,  )
G1 X6.05558 Y18.522 Z0.37 F2400
M108 R35 (squirt)
M101
G1 X6.05558 Y18.422 Z0.37 F2400
M108 R2.8 (good to go)
G1 X6.05558 Y-20.11 Z0.37 F2400
M108 R35  (snort)
M102
G1 X6.05558 Y-20.21 Z0.37 F2400
M103

(  path 33/52, 2 points,  )
G1 X7.05558 Y-20.21 Z0.37 F2400
M108 R35 (squirt)
M101
G1 X7.05558 Y-20.11 Z0.37 F2400
M108 R2.8 (good to go)
G1 X7.05558 Y18.422 Z0.37 F2400
M108 R35  (snort)
M102
G1 X7.05558 Y18.522 Z0.37 F2400
M103

(  path 34/52, 2 points,  )
G1 X8.05558 Y18.522 Z0.37 F2400
M108 R35 (squirt)
M101
G1 X8.05558 Y18.422 Z0.37 F2400
M108 R2.8 (good to go)
G1 X8.05558 Y-20.11 Z0.37 F2400
M108 R35  (snort)
M102
G1 X8.05558 Y-20.21 Z0.37 F2400
M103

(  path 35/52, 2 points,  )
G1 X9.05558 Y-20.21 Z0.37 F2400
M108 R35 (squirt)
M101
G1 X9.05558 Y-20.11 Z0.37 F2400
M108 R2.8 (good to go)
G1 X9.05558 Y18.422 Z0.37 F2400
M108 R35  (snort)
M102
G1 X9.05558 Y18.522 Z0.37 F2400
M103

(  path 36/52, 2 points,  )
G1 X10.0556 Y18.522 Z0.37 F2400
M108 R35 (squirt)
M101
G1 X10.0556 Y18.422 Z0.37 F2400
M108 R2.8 (good to go)
G1 X10.0556 Y-20.11 Z0.37 F2400
M108 R35  (snort)
M102
G1 X10.0556 Y-20.21 Z0.37 F2400
M103

(  path 37/52, 2 points,  )
G1 X11.0556 Y-20.21 Z0.37 F2400
M108 R35 (squirt)
M101
G1 X11.0556 Y-20.11 Z0.37 F2400
M108 R2.8 (good to go)
G1 X11.0556 Y18.422 Z0.37 F2400
M108 R35  (snort)
M102
G1 X11.0556 Y18.522 Z0.37 F2400
M103

(  path 38/52, 2 points,  )
G1 X12.0556 Y18.522 Z0.37 F2400
M108 R35 (squirt)
M101
G1 X12.0556 Y18.422 Z0.37 F2400
M108 R2.8 (good to go)
G1 X12.0556 Y-20.11 Z0.37 F2400
M108 R35  (snort)
M102
G1 X12.0556 Y-20.21 Z0.37 F2400
M103

(  path 39/52, 2 points,  )
G1 X13.0556 Y-20.21 Z0.37 F2400
M108 R35 (squirt)
M101
G1 X13.0556 Y-20.11 Z0.37 F2400
M108 R2.8 (good to go)
G1 X13.0556 Y18.422 Z0.37 F2400
M108 R35  (snort)
M102
G1 X13.0556 Y18.522 Z0.37 F2400
M103

(  path 40/52, 2 points,  )
G1 X14.0556 Y18.522 Z0.37 F2400
M108 R35 (squirt)
M101
G1 X14.0556 Y18.422 Z0.37 F2400
M108 R2.8 (good to go)
G1 X14.0556 Y-20.11 Z0.37 F2400
M108 R35  (snort)
M102
G1 X14.0556 Y-20.21 Z0.37 F2400
M103

(  path 41/52, 2 points,  )
G1 X15.0556 Y-20.21 Z0.37 F2400
M108 R35 (squirt)
M101
G1 X15.0556 Y-20.11 Z0.37 F2400
M108 R2.8 (good to go)
G1 X15.0556 Y18.422 Z0.37 F2400
M108 R35  (snort)
M102
G1 X15.0556 Y18.522 Z0.37 F2400
M103

(  path 42/52, 2 points,  )
G1 X16.0556 Y18.522 Z0.37 F2400
M108 R35 (squirt)
M101
G1 X16.0556 Y18.422 Z0.37 F2400
M108 R2.8 (good to go)
G1 X16.0556 Y-20.11 Z0.37 F2400
M108 R35  (snort)
M102
G1 X16.0556 Y-20.21 Z0.37 F2400
M103

(  path 43/52, 2 points,  )
G1 X17.0556 Y-20.21 Z0.37 F2400
M108 R35 (squirt)
M101
G1 X17.0556 Y-20.11 Z0.37 F2400
M108 R2.8 (good to go)
G1 X17.0556 Y18.422 Z0.37 F2400
M108 R35  (snort)
M102
G1 X17.0556 Y18.522 Z0.37 F2400
M103

(  path 44/52, 2 points,  )
G1 X18.0556 Y18.522 Z0.37 F2400
M108 R35 (squirt)
M101
G1 X18.0556 Y18.422 Z0.37 F2400
M108 R2.8 (good to go)
G1 X18.0556 Y-20.11 Z0.37 F2400
M108 R35  (snort)
M102
G1 X18.0556 Y-20.21 Z0.37 F2400
M103

(  path 45/52, 2 points,  )
G1 X19.0556 Y-20.21 Z0.37 F2400
M108 R35 (squirt)
M101
G1 X19.0556 Y-20.11 Z0.37 F2400
M108 R2.8 (good to go)
G1 X19.0556 Y18.422 Z0.37 F2400
M108 R35  (snort)
M102
G1 X19.0556 Y18.522 Z0.37 F2400
M103

(  path 46/52, 2 points,  )
G1 X20.0556 Y18.522 Z0.37 F2400
M108 R35 (squirt)
M101
G1 X20.0556 Y18.422 Z0.37 F2400
M108 R2.8 (good to go)
G1 X20.0556 Y-20.11 Z0.37 F2400
M108 R35  (snort)
M102
G1 X20.0556 Y-20.21 Z0.37 F2400
M103

(  path 47/52, 2 points,  )
G1 X21.0556 Y-20.21 Z0.37 F2400
M108 R35 (squirt)
M101
G1 X21.0556 Y-20.11 Z0.37 F2400
M108 R2.8 (good to go)
G1 X21.0556 Y18.422 Z0.37 F2400
M108 R35  (snort)
M102
G1 X21.0556 Y18.522 Z0.37 F2400
M103

(  path 48/52, 2 points,  )
G1 X22.0556 Y18.522 Z0.37 F2400
M108 R35 (squirt)
M101
G1 X22.0556 Y18.422 Z0.37 F2400
M108 R2.8 (good to go)
G1 X22.0556 Y-20.11 Z0.37 F2400
M108 R35  (snort)
M102
G1 X22.0556 Y-20.21 Z0.37 F2400
M103

(  path 49/52, 2 points,  )
G1 X23.0556 Y-20.21 Z0.37 F2400
M108 R35 (squirt)
M101
G1 X23.0556 Y-20.11 Z0.37 F2400
M108 R2.8 (good to go)
G1 X23.0556 Y18.422 Z0.37 F2400
M108 R35  (snort)
M102
G1 X23.0556 Y18.522 Z0.37 F2400
M103

(  path 50/52, 2 points,  )
G1 X24.0556 Y18.522 Z0.37 F2400
M108 R35 (squirt)
M101
G1 X24.0556 Y18.422 Z0.37 F2400
M108 R2.8 (good to go)
G1 X24.0556 Y-20.11 Z0.37 F2400
M108 R35  (snort)
M102
G1 X24.0556 Y-20.21 Z0.37 F2400
M103

(  path 51/52, 2 points,  )
G1 X25.0556 Y-20.21 Z0.37 F2400
M108 R35 (squirt)
M101
G1 X25.0556 Y-20.11 Z0.37 F2400
M108 R2.8 (good to go)
G1 X25.0556 Y18.422 Z0.37 F2400
M108 R35  (snort)
M102
G1 X25.0556 Y18.522 Z0.37 F2400
M103

(Slice 2, 1 Extruder)
G1 Z0.64 F500 (move Z)
(   Extruder 0)
( extruder 0 )
( GSWITCH T0 )
( TODO: add offset management to Gantry )

(inset 0/2 )
(  path 0/1, 9 points,  )
G1 X-26.0112 Y20.362 Z0.64 F2400
M108 R35 (squirt)
M101
G1 X-25.9112 Y20.362 Z0.64 F2400
M108 R2.8 (good to go)
G1 X-20.4828 Y20.362 Z0.64 F2400
G1 X24.7028 Y20.362 Z0.64 F2400
G1 X24.7028 Y-17.5711 Z0.64 F2400
G1 X24.7028 Y-22.05 Z0.64 F2400
G1 X19.2744 Y-22.05 Z0.64 F2400
G1 X-25.9112 Y-22.05 Z0.64 F2400
G1 X-25.9112 Y15.883 Z0.64 F2400
G1 X-25.9112 Y20.362 Z0.64 F2400
M108 R35  (snort)
M102
G1 X-25.9112 Y20.462 Z0.64 F2400
M103

(inset 1/2 )
(  path 0/1, 9 points,  )
G1 X-26.3712 Y20.722 Z0.64 F2400
M108 R35 (squirt)
M101
G1 X-26.2712 Y20.722 Z0.64 F2400
M108 R2.8 (good to go)
G1 X-20.4828 Y20.722 Z0.64 F2400
G1 X25.0628 Y20.722 Z0.64 F2400
G1 X25.0628 Y-17.5711 Z0.64 F2400
G1 X25.0628 Y-22.41 Z0.64 F2400
G1 X19.2744 Y-22.41 Z0.64 F2400
G1 X-26.2712 Y-22.41 Z0.64 F2400
G1 X-26.2712 Y15.883 Z0.64 F2400
G1 X-26.2712 Y20.722 Z0.64 F2400
M108 R35  (snort)
M102
G1 X-26.2712 Y20.822 Z0.64 F2400
M103

(  path 0/44, 2 points,  )
G1 X-24.0712 Y20.5327 Z0.64 F2400
M108 R35 (squirt)
M101
G1 X-23.9712 Y20.5327 Z0.64 F2400
M108 R2.8 (good to go)
G1 X22.7628 Y20.5327 Z0.64 F2400
M108 R35  (snort)
M102
G1 X22.8628 Y20.5327 Z0.64 F2400
M103

(  path 1/44, 2 points,  )
G1 X22.8628 Y19.5327 Z0.64 F2400
M108 R35 (squirt)
M101
G1 X22.7628 Y19.5327 Z0.64 F2400
M108 R2.8 (good to go)
G1 X-23.9712 Y19.5327 Z0.64 F2400
M108 R35  (snort)
M102
G1 X-24.0712 Y19.5327 Z0.64 F2400
M103

(  path 2/44, 2 points,  )
G1 X-24.0712 Y18.5327 Z0.64 F2400
M108 R35 (squirt)
M101
G1 X-23.9712 Y18.5327 Z0.64 F2400
M108 R2.8 (good to go)
G1 X22.7628 Y18.5327 Z0.64 F2400
M108 R35  (snort)
M102
G1 X22.8628 Y18.5327 Z0.64 F2400
M103

(  path 3/44, 2 points,  )
G1 X22.8628 Y17.5327 Z0.64 F2400
M108 R35 (squirt)
M101
G1 X22.7628 Y17.5327 Z0.64 F2400
M108 R2.8 (good to go)
G1 X-23.9712 Y17.5327 Z0.64 F2400
M108 R35  (snort)
M102
G1 X-24.0712 Y17.5327 Z0.64 F2400
M103

(  path 4/44, 2 points,  )
G1 X-24.0712 Y16.5327 Z0.64 F2400
M108 R35 (squirt)
M101
G1 X-23.9712 Y16.5327 Z0.64 F2400
M108 R2.8 (good to go)
G1 X22.7628 Y16.5327 Z0.64 F2400
M108 R35  (snort)
M102
G1 X22.8628 Y16.5327 Z0.64 F2400
M103

(  path 5/44, 2 points,  )
G1 X22.8628 Y15.5327 Z0.64 F2400
M108 R35 (squirt)
M101
G1 X22.7628 Y15.5327 Z0.64 F2400
M108 R2.8 (good to go)
G1 X-23.9712 Y15.5327 Z0.64 F2400
M108 R35  (snort)
M102
G1 X-24.0712 Y15.5327 Z0.64 F2400
M103

(  path 6/44, 2 points,  )
G1 X-24.0712 Y14.5327 Z0.64 F2400
M108 R35 (squirt)
M101
G1 X-23.9712 Y14.5327 Z0.64 F2400
M108 R2.8 (good to go)
G1 X22.7628 Y14.5327 Z0.64 F2400
M108 R35  (snort)
M102
G1 X22.8628 Y14.5327 Z0.64 F2400
M103

(  path 7/44, 2 points,  )
G1 X22.8628 Y13.5327 Z0.64 F2400
M108 R35 (squirt)
M101
G1 X22.7628 Y13.5327 Z0.64 F2400
M108 R2.8 (good to go)
G1 X-23.9712 Y13.5327 Z0.64 F2400
M108 R35  (snort)
M102
G1 X-24.0712 Y13.5327 Z0.64 F2400
M103

(  path 8/44, 2 points,  )
G1 X-24.0712 Y12.5327 Z0.64 F2400
M108 R35 (squirt)
M101
G1 X-23.9712 Y12.5327 Z0.64 F2400
M108 R2.8 (good to go)
G1 X22.7628 Y12.5327 Z0.64 F2400
M108 R35  (snort)
M102
G1 X22.8628 Y12.5327 Z0.64 F2400
M103

(  path 9/44, 2 points,  )
G1 X22.8628 Y11.5327 Z0.64 F2400
M108 R35 (squirt)
M101
G1 X22.7628 Y11.5327 Z0.64 F2400
M108 R2.8 (good to go)
G1 X-23.9712 Y11.5327 Z0.64 F2400
M108 R35  (snort)
M102
G1 X-24.0712 Y11.5327 Z0.64 F2400
M103

(  path 10/44, 2 points,  )
G1 X-24.0712 Y10.5327 Z0.64 F2400
M108 R35 (squirt)
M101
G1 X-23.9712 Y10.5327 Z0.64 F2400
M108 R2.8 (good to go)
G1 X22.7628 Y10.5327 Z0.64 F2400
M108 R35  (snort)
M102
G1 X22.8628 Y10.5327 Z0.64 F2400
M103

(  path 11/44, 2 points,  )
G1 X22.8628 Y9.53266 Z0.64 F2400
M108 R35 (squirt)
M101
G1 X22.7628 Y9.53266 Z0.64 F2400
M108 R2.8 (good to go)
G1 X-23.9712 Y9.53266 Z0.64 F2400
M108 R35  (snort)
M102
G1 X-24.0712 Y9.53266 Z0.64 F2400
M103

(  path 12/44, 2 points,  )
G1 X-24.0712 Y8.53266 Z0.64 F2400
M108 R35 (squirt)
M101
G1 X-23.9712 Y8.53266 Z0.64 F2400
M108 R2.8 (good to go)
G1 X22.7628 Y8.53266 Z0.64 F2400
M108 R35  (snort)
M102
G1 X22.8628 Y8.53266 Z0.64 F2400
M103

(  path 13/44, 2 points,  )
G1 X22.8628 Y7.53266 Z0.64 F2400
M108 R35 (squirt)
M101
G1 X22.7628 Y7.53266 Z0.64 F2400
M108 R2.8 (good to go)
G1 X-23.9712 Y7.53266 Z0.64 F2400
M108 R35  (snort)
M102
G1 X-24.0712 Y7.53266 Z0.64 F2400
M103

(  path 14/44, 2 points,  )
G1 X-24.0712 Y6.53266 Z0.64 F2400
M108 R35 (squirt)
M101
G1 X-23.9712 Y6.53266 Z0.64 F2400
M108 R2.8 (good to go)
G1 X22.7628 Y6.53266 Z0.64 F2400
M108 R35  (snort)
M102
G1 X22.8628 Y6.53266 Z0.64 F2400
M103

(  path 15/44, 2 points,  )
G1 X22.8628 Y5.53266 Z0.64 F2400
M108 R35 (squirt)
M101
G1 X22.7628 Y5.53266 Z0.64 F2400
M108 R2.8 (good to go)
G1 X-23.9712 Y5.53266 Z0.64 F2400
M108 R35  (snort)
M102
G1 X-24.0712 Y5.53266 Z0.64 F2400
M103

(  path 16/44, 2 points,  )
G1 X-24.0712 Y4.53266 Z0.64 F2400
M108 R35 (squirt)
M101
G1 X-23.9712 Y4.53266 Z0.64 F2400
M108 R2.8 (good to go)
G1 X22.7628 Y4.53266 Z0.64 F2400
M108 R35  (snort)
M102
G1 X22.8628 Y4.53266 Z0.64 F2400
M103

(  path 17/44, 2 points,  )
G1 X22.8628 Y3.53266 Z0.64 F2400
M108 R35 (squirt)
M101
G1 X22.7628 Y3.53266 Z0.64 F2400
M108 R2.8 (good to go)
G1 X-23.9712 Y3.53266 Z0.64 F2400
M108 R35  (snort)
M102
G1 X-24.0712 Y3.53266 Z0.64 F2400
M103

(  path 18/44, 2 points,  )
G1 X-24.0712 Y2.53266 Z0.64 F2400
M108 R35 (squirt)
M101
G1 X-23.9712 Y2.53266 Z0.64 F2400
M108 R2.8 (good to go)
G1 X22.7628 Y2.53266 Z0.64 F2400
M108 R35  (snort)
M102
G1 X22.8628 Y2.53266 Z0.64 F2400
M103

(  path 19/44, 2 points,  )
G1 X22.8628 Y1.53266 Z0.64 F2400
M108 R35 (squirt)
M101
G1 X22.7628 Y1.53266 Z0.64 F2400
M108 R2.8 (good to go)
G1 X-23.9712 Y1.53266 Z0.64 F2400
M108 R35  (snort)
M102
G1 X-24.0712 Y1.53266 Z0.64 F2400
M103

(  path 20/44, 2 points,  )
G1 X-24.0712 Y0.532664 Z0.64 F2400
M108 R35 (squirt)
M101
G1 X-23.9712 Y0.532664 Z0.64 F2400
M108 R2.8 (good to go)
G1 X22.7628 Y0.532664 Z0.64 F2400
M108 R35  (snort)
M102
G1 X22.8628 Y0.532664 Z0.64 F2400
M103

(  path 21/44, 2 points,  )
G1 X22.8628 Y-0.467336 Z0.64 F2400
M108 R35 (squirt)
M101
G1 X22.7628 Y-0.467336 Z0.64 F2400
M108 R2.8 (good to go)
G1 X-23.9712 Y-0.467336 Z0.64 F2400
M108 R35  (snort)
M102
G1 X-24.0712 Y-0.467336 Z0.64 F2400
M103

(  path 22/44, 2 points,  )
G1 X-24.0712 Y-1.46734 Z0.64 F2400
M108 R35 (squirt)
M101
G1 X-23.9712 Y-1.46734 Z0.64 F2400
M108 R2.8 (good to go)
G1 X22.7628 Y-1.46734 Z0.64 F2400
M108 R35  (snort)
M102
G1 X22.8628 Y-1.46734 Z0.64 F2400
M103

(  path 23/44, 2 points,  )
G1 X22.8628 Y-2.46734 Z0.64 F2400
M108 R35 (squirt)
M101
G1 X22.7628 Y-2.46734 Z0.64 F2400
M108 R2.8 (good to go)
G1 X-23.9712 Y-2.46734 Z0.64 F2400
M108 R35  (snort)
M102
G1 X-24.0712 Y-2.46734 Z0.64 F2400
M103

(  path 24/44, 2 points,  )
G1 X-24.0712 Y-3.46734 Z0.64 F2400
M108 R35 (squirt)
M101
G1 X-23.9712 Y-3.46734 Z0.64 F2400
M108 R2.8 (good to go)
G1 X22.7628 Y-3.46734 Z0.64 F2400
M108 R35  (snort)
M102
G1 X22.8628 Y-3.46734 Z0.64 F2400
M103

(  path 25/44, 2 points,  )
G1 X22.8628 Y-4.46734 Z0.64 F2400
M108 R35 (squirt)
M101
G1 X22.7628 Y-4.46734 Z0.64 F2400
M108 R2.8 (good to go)
G1 X-23.9712 Y-4.46734 Z0.64 F2400
M108 R35  (snort)
M102
G1 X-24.0712 Y-4.46734 Z0.64 F2400
M103

(  path 26/44, 2 points,  )
G1 X-24.0712 Y-5.46734 Z0.64 F2400
M108 R35 (squirt)
M101
G1 X-23.9712 Y-5.46734 Z0.64 F2400
M108 R2.8 (good to go)
G1 X22.7628 Y-5.46734 Z0.64 F2400
M108 R35  (snort)
M102
G1 X22.8628 Y-5.46734 Z0.64 F2400
M103

(  path 27/44, 2 points,  )
G1 X22.8628 Y-6.46734 Z0.64 F2400
M108 R35 (squirt)
M101
G1 X22.7628 Y-6.46734 Z0.64 F2400
M108 R2.8 (good to go)
G1 X-23.9712 Y-6.46734 Z0.64 F2400
M108 R35  (snort)
M102
G1 X-24.0712 Y-6.46734 Z0.64 F2400
M103

(  path 28/44, 2 points,  )
G1 X-24.0712 Y-7.46734 Z0.64 F2400
M108 R35 (squirt)
M101
G1 X-23.9712 Y-7.46734 Z0.64 F2400
M108 R2.8 (good to go)
G1 X22.7628 Y-7.46734 Z0.64 F2400
M108 R35  (snort)
M102
G1 X22.8628 Y-7.46734 Z0.64 F2400
M103

(  path 29/44, 2 points,  )
G1 X22.8628 Y-8.46734 Z0.64 F2400
M108 R35 (squirt)
M101
G1 X22.7628 Y-8.46734 Z0.64 F2400
M108 R2.8 (good to go)
G1 X-23.9712 Y-8.46734 Z0.64 F2400
M108 R35  (snort)
M102
G1 X-24.0712 Y-8.46734 Z0.64 F2400
M103

(  path 30/44, 2 points,  )
G1 X-24.0712 Y-9.46734 Z0.64 F2400
M108 R35 (squirt)
M101
G1 X-23.9712 Y-9.46734 Z0.64 F2400
M108 R2.8 (good to go)
G1 X22.7628 Y-9.46734 Z0.64 F2400
M108 R35  (snort)
M102
G1 X22.8628 Y-9.46734 Z0.64 F2400
M103

(  path 31/44, 2 points,  )
G1 X22.8628 Y-10.4673 Z0.64 F2400
M108 R35 (squirt)
M101
G1 X22.7628 Y-10.4673 Z0.64 F2400
M108 R2.8 (good to go)
G1 X-23.9712 Y-10.4673 Z0.64 F2400
M108 R35  (snort)
M102
G1 X-24.0712 Y-10.4673 Z0.64 F2400
M103

(  path 32/44, 2 points,  )
G1 X-24.0712 Y-11.4673 Z0.64 F2400
M108 R35 (squirt)
M101
G1 X-23.9712 Y-11.4673 Z0.64 F2400
M108 R2.8 (good to go)
G1 X22.7628 Y-11.4673 Z0.64 F2400
M108 R35  (snort)
M102
G1 X22.8628 Y-11.4673 Z0.64 F2400
M103

(  path 33/44, 2 points,  )
G1 X22.8628 Y-12.4673 Z0.64 F2400
M108 R35 (squirt)
M101
G1 X22.7628 Y-12.4673 Z0.64 F2400
M108 R2.8 (good to go)
G1 X-23.9712 Y-12.4673 Z0.64 F2400
M108 R35  (snort)
M102
G1 X-24.0712 Y-12.4673 Z0.64 F2400
M103

(  path 34/44, 2 points,  )
G1 X-24.0712 Y-13.4673 Z0.64 F2400
M108 R35 (squirt)
M101
G1 X-23.9712 Y-13.4673 Z0.64 F2400
M108 R2.8 (good to go)
G1 X22.7628 Y-13.4673 Z0.64 F2400
M108 R35  (snort)
M102
G1 X22.8628 Y-13.4673 Z0.64 F2400
M103

(  path 35/44, 2 points,  )
G1 X22.8628 Y-14.4673 Z0.64 F2400
M108 R35 (squirt)
M101
G1 X22.7628 Y-14.4673 Z0.64 F2400
M108 R2.8 (good to go)
G1 X-23.9712 Y-14.4673 Z0.64 F2400
M108 R35  (snort)
M102
G1 X-24.0712 Y-14.4673 Z0.64 F2400
M103

(  path 36/44, 2 points,  )
G1 X-24.0712 Y-15.4673 Z0.64 F2400
M108 R35 (squirt)
M101
G1 X-23.9712 Y-15.4673 Z0.64 F2400
M108 R2.8 (good to go)
G1 X22.7628 Y-15.4673 Z0.64 F2400
M108 R35  (snort)
M102
G1 X22.8628 Y-15.4673 Z0.64 F2400
M103

(  path 37/44, 2 points,  )
G1 X22.8628 Y-16.4673 Z0.64 F2400
M108 R35 (squirt)
M101
G1 X22.7628 Y-16.4673 Z0.64 F2400
M108 R2.8 (good to go)
G1 X-23.9712 Y-16.4673 Z0.64 F2400
M108 R35  (snort)
M102
G1 X-24.0712 Y-16.4673 Z0.64 F2400
M103

(  path 38/44, 2 points,  )
G1 X-24.0712 Y-17.4673 Z0.64 F2400
M108 R35 (squirt)
M101
G1 X-23.9712 Y-17.4673 Z0.64 F2400
M108 R2.8 (good to go)
G1 X22.7628 Y-17.4673 Z0.64 F2400
M108 R35  (snort)
M102
G1 X22.8628 Y-17.4673 Z0.64 F2400
M103

(  path 39/44, 2 points,  )
G1 X22.8628 Y-18.4673 Z0.64 F2400
M108 R35 (squirt)
M101
G1 X22.7628 Y-18.4673 Z0.64 F2400
M108 R2.8 (good to go)
G1 X-23.9712 Y-18.4673 Z0.64 F2400
M108 R35  (snort)
M102
G1 X-24.0712 Y-18.4673 Z0.64 F2400
M103

(  path 40/44, 2 points,  )
G1 X-24.0712 Y-19.4673 Z0.64 F2400
M108 R35 (squirt)
M101
G1 X-23.9712 Y-19.4673 Z0.64 F2400
M108 R2.8 (good to go)
G1 X22.7628 Y-19.4673 Z0.64 F2400
M108 R35  (snort)
M102
G1 X22.8628 Y-19.4673 Z0.64 F2400
M103

(  path 41/44, 2 points,  )
G1 X22.8628 Y-20.4673 Z0.64 F2400
M108 R35 (squirt)
M101
G1 X22.7628 Y-20.4673 Z0.64 F2400
M108 R2.8 (good to go)
G1 X-23.9712 Y-20.4673 Z0.64 F2400
M108 R35  (snort)
M102
G1 X-24.0712 Y-20.4673 Z0.64 F2400
M103

(  path 42/44, 2 points,  )
G1 X-24.0712 Y-21.4673 Z0.64 F2400
M108 R35 (squirt)
M101
G1 X-23.9712 Y-21.4673 Z0.64 F2400
M108 R2.8 (good to go)
G1 X22.7628 Y-21.4673 Z0.64 F2400
M108 R35  (snort)
M102
G1 X22.8628 Y-21.4673 Z0.64 F2400
M103

(  path 43/44, 2 points,  )
G1 X22.8628 Y-22.4673 Z0.64 F2400
M108 R35 (squirt)
M101
G1 X22.7628 Y-22.4673 Z0.64 F2400
M108 R2.8 (good to go)
G1 X-23.9712 Y-22.4673 Z0.64 F2400
M108 R35  (snort)
M102
G1 X-24.0712 Y-22.4673 Z0.64 F2400
M103

(Slice 3, 1 Extruder)
G1 Z0.91 F500 (move Z)
(   Extruder 0)
( extruder 0 )
( GSWITCH T0 )
( TODO: add offset management to Gantry )

(inset 0/2 )
(  path 0/1, 9 points,  )
G1 X-26.0112 Y20.362 Z0.91 F2400
M108 R35 (squirt)
M101
G1 X-25.9112 Y20.362 Z0.91 F2400
M108 R2.8 (good to go)
G1 X-17.9565 Y20.362 Z0.91 F2400
G1 X24.7028 Y20.362 Z0.91 F2400
G1 X24.7028 Y-15.4452 Z0.91 F2400
G1 X24.7028 Y-22.05 Z0.91 F2400
G1 X16.748 Y-22.05 Z0.91 F2400
G1 X-25.9112 Y-22.05 Z0.91 F2400
G1 X-25.9112 Y13.7572 Z0.91 F2400
G1 X-25.9112 Y20.362 Z0.91 F2400
M108 R35  (snort)
M102
G1 X-25.9112 Y20.462 Z0.91 F2400
M103

(inset 1/2 )
(  path 0/1, 9 points,  )
G1 X-26.3712 Y20.722 Z0.91 F2400
M108 R35 (squirt)
M101
G1 X-26.2712 Y20.722 Z0.91 F2400
M108 R2.8 (good to go)
G1 X-17.9565 Y20.722 Z0.91 F2400
G1 X25.0628 Y20.722 Z0.91 F2400
G1 X25.0628 Y-15.4452 Z0.91 F2400
G1 X25.0628 Y-22.41 Z0.91 F2400
G1 X16.748 Y-22.41 Z0.91 F2400
G1 X-26.2712 Y-22.41 Z0.91 F2400
G1 X-26.2712 Y13.7572 Z0.91 F2400
G1 X-26.2712 Y20.722 Z0.91 F2400
M108 R35  (snort)
M102
G1 X-26.2712 Y20.822 Z0.91 F2400
M103

(  path 0/52, 2 points,  )
G1 X24.736 Y-20.21 Z0.91 F2400
M108 R35 (squirt)
M101
G1 X24.736 Y-20.11 Z0.91 F2400
M108 R2.8 (good to go)
G1 X24.736 Y18.422 Z0.91 F2400
M108 R35  (snort)
M102
G1 X24.736 Y18.522 Z0.91 F2400
M103

(  path 1/52, 2 points,  )
G1 X23.736 Y18.522 Z0.91 F2400
M108 R35 (squirt)
M101
G1 X23.736 Y18.422 Z0.91 F2400
M108 R2.8 (good to go)
G1 X23.736 Y-20.11 Z0.91 F2400
M108 R35  (snort)
M102
G1 X23.736 Y-20.21 Z0.91 F2400
M103

(  path 2/52, 2 points,  )
G1 X22.736 Y-20.21 Z0.91 F2400
M108 R35 (squirt)
M101
G1 X22.736 Y-20.11 Z0.91 F2400
M108 R2.8 (good to go)
G1 X22.736 Y18.422 Z0.91 F2400
M108 R35  (snort)
M102
G1 X22.736 Y18.522 Z0.91 F2400
M103

(  path 3/52, 2 points,  )
G1 X21.736 Y18.522 Z0.91 F2400
M108 R35 (squirt)
M101
G1 X21.736 Y18.422 Z0.91 F2400
M108 R2.8 (good to go)
G1 X21.736 Y-20.11 Z0.91 F2400
M108 R35  (snort)
M102
G1 X21.736 Y-20.21 Z0.91 F2400
M103

(  path 4/52, 2 points,  )
G1 X20.736 Y-20.21 Z0.91 F2400
M108 R35 (squirt)
M101
G1 X20.736 Y-20.11 Z0.91 F2400
M108 R2.8 (good to go)
G1 X20.736 Y18.422 Z0.91 F2400
M108 R35  (snort)
M102
G1 X20.736 Y18.522 Z0.91 F2400
M103

(  path 5/52, 2 points,  )
G1 X19.736 Y18.522 Z0.91 F2400
M108 R35 (squirt)
M101
G1 X19.736 Y18.422 Z0.91 F2400
M108 R2.8 (good to go)
G1 X19.736 Y-20.11 Z0.91 F2400
M108 R35  (snort)
M102
G1 X19.736 Y-20.21 Z0.91 F2400
M103

(  path 6/52, 2 points,  )
G1 X18.736 Y-20.21 Z0.91 F2400
M108 R35 (squirt)
M101
G1 X18.736 Y-20.11 Z0.91 F2400
M108 R2.8 (good to go)
G1 X18.736 Y18.422 Z0.91 F2400
M108 R35  (snort)
M102
G1 X18.736 Y18.522 Z0.91 F2400
M103

(  path 7/52, 2 points,  )
G1 X17.736 Y18.522 Z0.91 F2400
M108 R35 (squirt)
M101
G1 X17.736 Y18.422 Z0.91 F2400
M108 R2.8 (good to go)
G1 X17.736 Y-20.11 Z0.91 F2400
M108 R35  (snort)
M102
G1 X17.736 Y-20.21 Z0.91 F2400
M103

(  path 8/52, 2 points,  )
G1 X16.736 Y-20.21 Z0.91 F2400
M108 R35 (squirt)
M101
G1 X16.736 Y-20.11 Z0.91 F2400
M108 R2.8 (good to go)
G1 X16.736 Y18.422 Z0.91 F2400
M108 R35  (snort)
M102
G1 X16.736 Y18.522 Z0.91 F2400
M103

(  path 9/52, 2 points,  )
G1 X15.736 Y18.522 Z0.91 F2400
M108 R35 (squirt)
M101
G1 X15.736 Y18.422 Z0.91 F2400
M108 R2.8 (good to go)
G1 X15.736 Y-20.11 Z0.91 F2400
M108 R35  (snort)
M102
G1 X15.736 Y-20.21 Z0.91 F2400
M103

(  path 10/52, 2 points,  )
G1 X14.736 Y-20.21 Z0.91 F2400
M108 R35 (squirt)
M101
G1 X14.736 Y-20.11 Z0.91 F2400
M108 R2.8 (good to go)
G1 X14.736 Y18.422 Z0.91 F2400
M108 R35  (snort)
M102
G1 X14.736 Y18.522 Z0.91 F2400
M103

(  path 11/52, 2 points,  )
G1 X13.736 Y18.522 Z0.91 F2400
M108 R35 (squirt)
M101
G1 X13.736 Y18.422 Z0.91 F2400
M108 R2.8 (good to go)
G1 X13.736 Y-20.11 Z0.91 F2400
M108 R35  (snort)
M102
G1 X13.736 Y-20.21 Z0.91 F2400
M103

(  path 12/52, 2 points,  )
G1 X12.736 Y-20.21 Z0.91 F2400
M108 R35 (squirt)
M101
G1 X12.736 Y-20.11 Z0.91 F2400
M108 R2.8 (good to go)
G1 X12.736 Y18.422 Z0.91 F2400
M108 R35  (snort)
M102
G1 X12.736 Y18.522 Z0.91 F2400
M103

(  path 13/52, 2 points,  )
G1 X11.736 Y18.522 Z0.91 F2400
M108 R35 (squirt)
M101
G1 X11.736 Y18.422 Z0.91 F2400
M108 R2.8 (good to go)
G1 X11.736 Y-20.11 Z0.91 F2400
M108 R35  (snort)
M102
G1 X11.736 Y-20.21 Z0.91 F2400
M103

(  path 14/52, 2 points,  )
G1 X10.736 Y-20.21 Z0.91 F2400
M108 R35 (squirt)
M101
G1 X10.736 Y-20.11 Z0.91 F2400
M108 R2.8 (good to go)
G1 X10.736 Y18.422 Z0.91 F2400
M108 R35  (snort)
M102
G1 X10.736 Y18.522 Z0.91 F2400
M103

(  path 15/52, 2 points,  )
G1 X9.73598 Y18.522 Z0.91 F2400
M108 R35 (squirt)
M101
G1 X9.73598 Y18.422 Z0.91 F2400
M108 R2.8 (good to go)
G1 X9.73598 Y-20.11 Z0.91 F2400
M108 R35  (snort)
M102
G1 X9.73598 Y-20.21 Z0.91 F2400
M103

(  path 16/52, 2 points,  )
G1 X8.73598 Y-20.21 Z0.91 F2400
M108 R35 (squirt)
M101
G1 X8.73598 Y-20.11 Z0.91 F2400
M108 R2.8 (good to go)
G1 X8.73598 Y18.422 Z0.91 F2400
M108 R35  (snort)
M102
G1 X8.73598 Y18.522 Z0.91 F2400
M103

(  path 17/52, 2 points,  )
G1 X7.73598 Y18.522 Z0.91 F2400
M108 R35 (squirt)
M101
G1 X7.73598 Y18.422 Z0.91 F2400
M108 R2.8 (good to go)
G1 X7.73598 Y-20.11 Z0.91 F2400
M108 R35  (snort)
M102
G1 X7.73598 Y-20.21 Z0.91 F2400
M103

(  path 18/52, 2 points,  )
G1 X6.73598 Y-20.21 Z0.91 F2400
M108 R35 (squirt)
M101
G1 X6.73598 Y-20.11 Z0.91 F2400
M108 R2.8 (good to go)
G1 X6.73598 Y18.422 Z0.91 F2400
M108 R35  (snort)
M102
G1 X6.73598 Y18.522 Z0.91 F2400
M103

(  path 19/52, 2 points,  )
G1 X5.73598 Y18.522 Z0.91 F2400
M108 R35 (squirt)
M101
G1 X5.73598 Y18.422 Z0.91 F2400
M108 R2.8 (good to go)
G1 X5.73598 Y-20.11 Z0.91 F2400
M108 R35  (snort)
M102
G1 X5.73598 Y-20.21 Z0.91 F2400
M103

(  path 20/52, 2 points,  )
G1 X4.73598 Y-20.21 Z0.91 F2400
M108 R35 (squirt)
M101
G1 X4.73598 Y-20.11 Z0.91 F2400
M108 R2.8 (good to go)
G1 X4.73598 Y18.422 Z0.91 F2400
M108 R35  (snort)
M102
G1 X4.73598 Y18.522 Z0.91 F2400
M103

(  path 21/52, 2 points,  )
G1 X3.73598 Y18.522 Z0.91 F2400
M108 R35 (squirt)
M101
G1 X3.73598 Y18.422 Z0.91 F2400
M108 R2.8 (good to go)
G1 X3.73598 Y-20.11 Z0.91 F2400
M108 R35  (snort)
M102
G1 X3.73598 Y-20.21 Z0.91 F2400
M103

(  path 22/52, 2 points,  )
G1 X2.73598 Y-20.21 Z0.91 F2400
M108 R35 (squirt)
M101
G1 X2.73598 Y-20.11 Z0.91 F2400
M108 R2.8 (good to go)
G1 X2.73598 Y18.422 Z0.91 F2400
M108 R35  (snort)
M102
G1 X2.73598 Y18.522 Z0.91 F2400
M103

(  path 23/52, 2 points,  )
G1 X1.73598 Y18.522 Z0.91 F2400
M108 R35 (squirt)
M101
G1 X1.73598 Y18.422 Z0.91 F2400
M108 R2.8 (good to go)
G1 X1.73598 Y-20.11 Z0.91 F2400
M108 R35  (snort)
M102
G1 X1.73598 Y-20.21 Z0.91 F2400
M103

(  path 24/52, 2 points,  )
G1 X0.735979 Y-20.21 Z0.91 F2400
M108 R35 (squirt)
M101
G1 X0.735979 Y-20.11 Z0.91 F2400
M108 R2.8 (good to go)
G1 X0.735979 Y18.422 Z0.91 F2400
M108 R35  (snort)
M102
G1 X0.735979 Y18.522 Z0.91 F2400
M103

(  path 25/52, 2 points,  )
G1 X-0.264021 Y18.522 Z0.91 F2400
M108 R35 (squirt)
M101
G1 X-0.264021 Y18.422 Z0.91 F2400
M108 R2.8 (good to go)
G1 X-0.264021 Y-20.11 Z0.91 F2400
M108 R35  (snort)
M102
G1 X-0.264021 Y-20.21 Z0.91 F2400
M103

(  path 26/52, 2 points,  )
G1 X-1.26402 Y-20.21 Z0.91 F2400
M108 R35 (squirt)
M101
G1 X-1.26402 Y-20.11 Z0.91 F2400
M108 R2.8 (good to go)
G1 X-1.26402 Y18.422 Z0.91 F2400
M108 R35  (snort)
M102
G1 X-1.26402 Y18.522 Z0.91 F2400
M103

(  path 27/52, 2 points,  )
G1 X-2.26402 Y18.522 Z0.91 F2400
M108 R35 (squirt)
M101
G1 X-2.26402 Y18.422 Z0.91 F2400
M108 R2.8 (good to go)
G1 X-2.26402 Y-20.11 Z0.91 F2400
M108 R35  (snort)
M102
G1 X-2.26402 Y-20.21 Z0.91 F2400
M103

(  path 28/52, 2 points,  )
G1 X-3.26402 Y-20.21 Z0.91 F2400
M108 R35 (squirt)
M101
G1 X-3.26402 Y-20.11 Z0.91 F2400
M108 R2.8 (good to go)
G1 X-3.26402 Y18.422 Z0.91 F2400
M108 R35  (snort)
M102
G1 X-3.26402 Y18.522 Z0.91 F2400
M103

(  path 29/52, 2 points,  )
G1 X-4.26402 Y18.522 Z0.91 F2400
M108 R35 (squirt)
M101
G1 X-4.26402 Y18.422 Z0.91 F2400
M108 R2.8 (good to go)
G1 X-4.26402 Y-20.11 Z0.91 F2400
M108 R35  (snort)
M102
G1 X-4.26402 Y-20.21 Z0.91 F2400
M103

(  path 30/52, 2 points,  )
G1 X-5.26402 Y-20.21 Z0.91 F2400
M108 R35 (squirt)
M101
G1 X-5.26402 Y-20.11 Z0.91 F2400
M108 R2.8 (good to go)
G1 X-5.26402 Y18.422 Z0.91 F2400
M108 R35  (snort)
M102
G1 X-5.26402 Y18.522 Z0.91 F2400
M103

(  path 31/52, 2 points,  )
G1 X-6.26402 Y18.522 Z0.91 F2400
M108 R35 (squirt)
M101
G1 X-6.26402 Y18.422 Z0.91 F2400
M108 R2.8 (good to go)
G1 X-6.26402 Y-20.11 Z0.91 F2400
M108 R35  (snort)
M102
G1 X-6.26402 Y-20.21 Z0.91 F2400
M103

(  path 32/52, 2 points,  )
G1 X-7.26402 Y-20.21 Z0.91 F2400
M108 R35 (squirt)
M101
G1 X-7.26402 Y-20.11 Z0.91 F2400
M108 R2.8 (good to go)
G1 X-7.26402 Y18.422 Z0.91 F2400
M108 R35  (snort)
M102
G1 X-7.26402 Y18.522 Z0.91 F2400
M103

(  path 33/52, 2 points,  )
G1 X-8.26402 Y18.522 Z0.91 F2400
M108 R35 (squirt)
M101
G1 X-8.26402 Y18.422 Z0.91 F2400
M108 R2.8 (good to go)
G1 X-8.26402 Y-20.11 Z0.91 F2400
M108 R35  (snort)
M102
G1 X-8.26402 Y-20.21 Z0.91 F2400
M103

(  path 34/52, 2 points,  )
G1 X-9.26402 Y-20.21 Z0.91 F2400
M108 R35 (squirt)
M101
G1 X-9.26402 Y-20.11 Z0.91 F2400
M108 R2.8 (good to go)
G1 X-9.26402 Y18.422 Z0.91 F2400
M108 R35  (snort)
M102
G1 X-9.26402 Y18.522 Z0.91 F2400
M103

(  path 35/52, 2 points,  )
G1 X-10.264 Y18.522 Z0.91 F2400
M108 R35 (squirt)
M101
G1 X-10.264 Y18.422 Z0.91 F2400
M108 R2.8 (good to go)
G1 X-10.264 Y-20.11 Z0.91 F2400
M108 R35  (snort)
M102
G1 X-10.264 Y-20.21 Z0.91 F2400
M103

(  path 36/52, 2 points,  )
G1 X-11.264 Y-20.21 Z0.91 F2400
M108 R35 (squirt)
M101
G1 X-11.264 Y-20.11 Z0.91 F2400
M108 R2.8 (good to go)
G1 X-11.264 Y18.422 Z0.91 F2400
M108 R35  (snort)
M102
G1 X-11.264 Y18.522 Z0.91 F2400
M103

(  path 37/52, 2 points,  )
G1 X-12.264 Y18.522 Z0.91 F2400
M108 R35 (squirt)
M101
G1 X-12.264 Y18.422 Z0.91 F2400
M108 R2.8 (good to go)
G1 X-12.264 Y-20.11 Z0.91 F2400
M108 R35  (snort)
M102
G1 X-12.264 Y-20.21 Z0.91 F2400
M103

(  path 38/52, 2 points,  )
G1 X-13.264 Y-20.21 Z0.91 F2400
M108 R35 (squirt)
M101
G1 X-13.264 Y-20.11 Z0.91 F2400
M108 R2.8 (good to go)
G1 X-13.264 Y18.422 Z0.91 F2400
M108 R35  (snort)
M102
G1 X-13.264 Y18.522 Z0.91 F2400
M103

(  path 39/52, 2 points,  )
G1 X-14.264 Y18.522 Z0.91 F2400
M108 R35 (squirt)
M101
G1 X-14.264 Y18.422 Z0.91 F2400
M108 R2.8 (good to go)
G1 X-14.264 Y-20.11 Z0.91 F2400
M108 R35  (snort)
M102
G1 X-14.264 Y-20.21 Z0.91 F2400
M103

(  path 40/52, 2 points,  )
G1 X-15.264 Y-20.21 Z0.91 F2400
M108 R35 (squirt)
M101
G1 X-15.264 Y-20.11 Z0.91 F2400
M108 R2.8 (good to go)
G1 X-15.264 Y18.422 Z0.91 F2400
M108 R35  (snort)
M102
G1 X-15.264 Y18.522 Z0.91 F2400
M103

(  path 41/52, 2 points,  )
G1 X-16.264 Y18.522 Z0.91 F2400
M108 R35 (squirt)
M101
G1 X-16.264 Y18.422 Z0.91 F2400
M108 R2.8 (good to go)
G1 X-16.264 Y-20.11 Z0.91 F2400
M108 R35  (snort)
M102
G1 X-16.264 Y-20.21 Z0.91 F2400
M103

(  path 42/52, 2 points,  )
G1 X-17.264 Y-20.21 Z0.91 F2400
M108 R35 (squirt)
M101
G1 X-17.264 Y-20.11 Z0.91 F2400
M108 R2.8 (good to go)
G1 X-17.264 Y18.422 Z0.91 F2400
M108 R35  (snort)
M102
G1 X-17.264 Y18.522 Z0.91 F2400
M103

(  path 43/52, 2 points,  )
G1 X-18.264 Y18.522 Z0.91 F2400
M108 R35 (squirt)
M101
G1 X-18.264 Y18.422 Z0.91 F2400
M108 R2.8 (good to go)
G1 X-18.264 Y-20.11 Z0.91 F2400
M108 R35  (snort)
M102
G1 X-18.264 Y-20.21 Z0.91 F2400
M103

(  path 44/52, 2 points,  )
G1 X-19.264 Y-20.21 Z0.91 F2400
M108 R35 (squirt)
M101
G1 X-19.264 Y-20.11 Z0.91 F2400
M108 R2.8 (good to go)
G1 X-19.264 Y18.422 Z0.91 F2400
M108 R35  (snort)
M102
G1 X-19.264 Y18.522 Z0.91 F2400
M103

(  path 45/52, 2 points,  )
G1 X-20.264 Y18.522 Z0.91 F2400
M108 R35 (squirt)
M101
G1 X-20.264 Y18.422 Z0.91 F2400
M108 R2.8 (good to go)
G1 X-20.264 Y-20.11 Z0.91 F2400
M108 R35  (snort)
M102
G1 X-20.264 Y-20.21 Z0.91 F2400
M103

(  path 46/52, 2 points,  )
G1 X-21.264 Y-20.21 Z0.91 F2400
M108 R35 (squirt)
M101
G1 X-21.264 Y-20.11 Z0.91 F2400
M108 R2.8 (good to go)
G1 X-21.264 Y18.422 Z0.91 F2400
M108 R35  (snort)
M102
G1 X-21.264 Y18.522 Z0.91 F2400
M103

(  path 47/52, 2 points,  )
G1 X-22.264 Y18.522 Z0.91 F2400
M108 R35 (squirt)
M101
G1 X-22.264 Y18.422 Z0.91 F2400
M108 R2.8 (good to go)
G1 X-22.264 Y-20.11 Z0.91 F2400
M108 R35  (snort)
M102
G1 X-22.264 Y-20.21 Z0.91 F2400
M103

(  path 48/52, 2 points,  )
G1 X-23.264 Y-20.21 Z0.91 F2400
M108 R35 (squirt)
M101
G1 X-23.264 Y-20.11 Z0.91 F2400
M108 R2.8 (good to go)
G1 X-23.264 Y18.422 Z0.91 F2400
M108 R35  (snort)
M102
G1 X-23.264 Y18.522 Z0.91 F2400
M103

(  path 49/52, 2 points,  )
G1 X-24.264 Y18.522 Z0.91 F2400
M108 R35 (squirt)
M101
G1 X-24.264 Y18.422 Z0.91 F2400
M108 R2.8 (good to go)
G1 X-24.264 Y-20.11 Z0.91 F2400
M108 R35  (snort)
M102
G1 X-24.264 Y-20.21 Z0.91 F2400
M103

(  path 50/52, 2 points,  )
G1 X-25.264 Y-20.21 Z0.91 F2400
M108 R35 (squirt)
M101
G1 X-25.264 Y-20.11 Z0.91 F2400
M108 R2.8 (good to go)
G1 X-25.264 Y18.422 Z0.91 F2400
M108 R35  (snort)
M102
G1 X-25.264 Y18.522 Z0.91 F2400
M103

(  path 51/52, 2 points,  )
G1 X-26.264 Y18.522 Z0.91 F2400
M108 R35 (squirt)
M101
G1 X-26.264 Y18.422 Z0.91 F2400
M108 R2.8 (good to go)
G1 X-26.264 Y-20.11 Z0.91 F2400
M108 R35  (snort)
M102
G1 X-26.264 Y-20.21 Z0.91 F2400
M103

(Slice 4, 1 Extruder)
G1 Z1.18 F500 (move Z)
(   Extruder 0)
( extruder 0 )
( GSWITCH T0 )
( TODO: add offset management to Gantry )

(inset 0/2 )
(  path 0/1, 9 points,  )
G1 X-26.0112 Y20.362 Z1.18 F2400
M108 R35 (squirt)
M101
G1 X-25.9112 Y20.362 Z1.18 F2400
M108 R2.8 (good to go)
G1 X-15.4301 Y20.362 Z1.18 F2400
G1 X24.7028 Y20.362 Z1.18 F2400
G1 X24.7028 Y-13.3194 Z1.18 F2400
G1 X24.7028 Y-22.05 Z1.18 F2400
G1 X14.2217 Y-22.05 Z1.18 F2400
G1 X-25.9112 Y-22.05 Z1.18 F2400
G1 X-25.9112 Y11.6314 Z1.18 F2400
G1 X-25.9112 Y20.362 Z1.18 F2400
M108 R35  (snort)
M102
G1 X-25.9112 Y20.462 Z1.18 F2400
M103

(inset 1/2 )
(  path 0/1, 9 points,  )
G1 X-26.3712 Y20.722 Z1.18 F2400
M108 R35 (squirt)
M101
G1 X-26.2712 Y20.722 Z1.18 F2400
M108 R2.8 (good to go)
G1 X-15.4301 Y20.722 Z1.18 F2400
G1 X25.0628 Y20.722 Z1.18 F2400
G1 X25.0628 Y-13.3194 Z1.18 F2400
G1 X25.0628 Y-22.41 Z1.18 F2400
G1 X14.2217 Y-22.41 Z1.18 F2400
G1 X-26.2712 Y-22.41 Z1.18 F2400
G1 X-26.2712 Y11.6314 Z1.18 F2400
G1 X-26.2712 Y20.722 Z1.18 F2400
M108 R35  (snort)
M102
G1 X-26.2712 Y20.822 Z1.18 F2400
M103

(  path 0/44, 2 points,  )
G1 X22.8628 Y-22.1477 Z1.18 F2400
M108 R35 (squirt)
M101
G1 X22.7628 Y-22.1477 Z1.18 F2400
M108 R2.8 (good to go)
G1 X-23.9712 Y-22.1477 Z1.18 F2400
M108 R35  (snort)
M102
G1 X-24.0712 Y-22.1477 Z1.18 F2400
M103

(  path 1/44, 2 points,  )
G1 X-24.0712 Y-21.1477 Z1.18 F2400
M108 R35 (squirt)
M101
G1 X-23.9712 Y-21.1477 Z1.18 F2400
M108 R2.8 (good to go)
G1 X22.7628 Y-21.1477 Z1.18 F2400
M108 R35  (snort)
M102
G1 X22.8628 Y-21.1477 Z1.18 F2400
M103

(  path 2/44, 2 points,  )
G1 X22.8628 Y-20.1477 Z1.18 F2400
M108 R35 (squirt)
M101
G1 X22.7628 Y-20.1477 Z1.18 F2400
M108 R2.8 (good to go)
G1 X-23.9712 Y-20.1477 Z1.18 F2400
M108 R35  (snort)
M102
G1 X-24.0712 Y-20.1477 Z1.18 F2400
M103

(  path 3/44, 2 points,  )
G1 X-24.0712 Y-19.1477 Z1.18 F2400
M108 R35 (squirt)
M101
G1 X-23.9712 Y-19.1477 Z1.18 F2400
M108 R2.8 (good to go)
G1 X22.7628 Y-19.1477 Z1.18 F2400
M108 R35  (snort)
M102
G1 X22.8628 Y-19.1477 Z1.18 F2400
M103

(  path 4/44, 2 points,  )
G1 X22.8628 Y-18.1477 Z1.18 F2400
M108 R35 (squirt)
M101
G1 X22.7628 Y-18.1477 Z1.18 F2400
M108 R2.8 (good to go)
G1 X-23.9712 Y-18.1477 Z1.18 F2400
M108 R35  (snort)
M102
G1 X-24.0712 Y-18.1477 Z1.18 F2400
M103

(  path 5/44, 2 points,  )
G1 X-24.0712 Y-17.1477 Z1.18 F2400
M108 R35 (squirt)
M101
G1 X-23.9712 Y-17.1477 Z1.18 F2400
M108 R2.8 (good to go)
G1 X22.7628 Y-17.1477 Z1.18 F2400
M108 R35  (snort)
M102
G1 X22.8628 Y-17.1477 Z1.18 F2400
M103

(  path 6/44, 2 points,  )
G1 X22.8628 Y-16.1477 Z1.18 F2400
M108 R35 (squirt)
M101
G1 X22.7628 Y-16.1477 Z1.18 F2400
M108 R2.8 (good to go)
G1 X-23.9712 Y-16.1477 Z1.18 F2400
M108 R35  (snort)
M102
G1 X-24.0712 Y-16.1477 Z1.18 F2400
M103

(  path 7/44, 2 points,  )
G1 X-24.0712 Y-15.1477 Z1.18 F2400
M108 R35 (squirt)
M101
G1 X-23.9712 Y-15.1477 Z1.18 F2400
M108 R2.8 (good to go)
G1 X22.7628 Y-15.1477 Z1.18 F2400
M108 R35  (snort)
M102
G1 X22.8628 Y-15.1477 Z1.18 F2400
M103

(  path 8/44, 2 points,  )
G1 X22.8628 Y-14.1477 Z1.18 F2400
M108 R35 (squirt)
M101
G1 X22.7628 Y-14.1477 Z1.18 F2400
M108 R2.8 (good to go)
G1 X-23.9712 Y-14.1477 Z1.18 F2400
M108 R35  (snort)
M102
G1 X-24.0712 Y-14.1477 Z1.18 F2400
M103

(  path 9/44, 2 points,  )
G1 X-24.0712 Y-13.1477 Z1.18 F2400
M108 R35 (squirt)
M101
G1 X-23.9712 Y-13.1477 Z1.18 F2400
M108 R2.8 (good to go)
G1 X22.7628 Y-13.1477 Z1.18 F2400
M108 R35  (snort)
M102
G1 X22.8628 Y-13.1477 Z1.18 F2400
M103

(  path 10/44, 2 points,  )
G1 X22.8628 Y-12.1477 Z1.18 F2400
M108 R35 (squirt)
M101
G1 X22.7628 Y-12.1477 Z1.18 F2400
M108 R2.8 (good to go)
G1 X-23.9712 Y-12.1477 Z1.18 F2400
M108 R35  (snort)
M102
G1 X-24.0712 Y-12.1477 Z1.18 F2400
M103

(  path 11/44, 2 points,  )
G1 X-24.0712 Y-11.1477 Z1.18 F2400
M108 R35 (squirt)
M101
G1 X-23.9712 Y-11.1477 Z1.18 F2400
M108 R2.8 (good to go)
G1 X22.7628 Y-11.1477 Z1.18 F2400
M108 R35  (snort)
M102
G1 X22.8628 Y-11.1477 Z1.18 F2400
M103

(  path 12/44, 2 points,  )
G1 X22.8628 Y-10.1477 Z1.18 F2400
M108 R35 (squirt)
M101
G1 X22.7628 Y-10.1477 Z1.18 F2400
M108 R2.8 (good to go)
G1 X-23.9712 Y-10.1477 Z1.18 F2400
M108 R35  (snort)
M102
G1 X-24.0712 Y-10.1477 Z1.18 F2400
M103

(  path 13/44, 2 points,  )
G1 X-24.0712 Y-9.14773 Z1.18 F2400
M108 R35 (squirt)
M101
G1 X-23.9712 Y-9.14773 Z1.18 F2400
M108 R2.8 (good to go)
G1 X22.7628 Y-9.14773 Z1.18 F2400
M108 R35  (snort)
M102
G1 X22.8628 Y-9.14773 Z1.18 F2400
M103

(  path 14/44, 2 points,  )
G1 X22.8628 Y-8.14773 Z1.18 F2400
M108 R35 (squirt)
M101
G1 X22.7628 Y-8.14773 Z1.18 F2400
M108 R2.8 (good to go)
G1 X-23.9712 Y-8.14773 Z1.18 F2400
M108 R35  (snort)
M102
G1 X-24.0712 Y-8.14773 Z1.18 F2400
M103

(  path 15/44, 2 points,  )
G1 X-24.0712 Y-7.14773 Z1.18 F2400
M108 R35 (squirt)
M101
G1 X-23.9712 Y-7.14773 Z1.18 F2400
M108 R2.8 (good to go)
G1 X22.7628 Y-7.14773 Z1.18 F2400
M108 R35  (snort)
M102
G1 X22.8628 Y-7.14773 Z1.18 F2400
M103

(  path 16/44, 2 points,  )
G1 X22.8628 Y-6.14773 Z1.18 F2400
M108 R35 (squirt)
M101
G1 X22.7628 Y-6.14773 Z1.18 F2400
M108 R2.8 (good to go)
G1 X-23.9712 Y-6.14773 Z1.18 F2400
M108 R35  (snort)
M102
G1 X-24.0712 Y-6.14773 Z1.18 F2400
M103

(  path 17/44, 2 points,  )
G1 X-24.0712 Y-5.14773 Z1.18 F2400
M108 R35 (squirt)
M101
G1 X-23.9712 Y-5.14773 Z1.18 F2400
M108 R2.8 (good to go)
G1 X22.7628 Y-5.14773 Z1.18 F2400
M108 R35  (snort)
M102
G1 X22.8628 Y-5.14773 Z1.18 F2400
M103

(  path 18/44, 2 points,  )
G1 X22.8628 Y-4.14773 Z1.18 F2400
M108 R35 (squirt)
M101
G1 X22.7628 Y-4.14773 Z1.18 F2400
M108 R2.8 (good to go)
G1 X-23.9712 Y-4.14773 Z1.18 F2400
M108 R35  (snort)
M102
G1 X-24.0712 Y-4.14773 Z1.18 F2400
M103

(  path 19/44, 2 points,  )
G1 X-24.0712 Y-3.14773 Z1.18 F2400
M108 R35 (squirt)
M101
G1 X-23.9712 Y-3.14773 Z1.18 F2400
M108 R2.8 (good to go)
G1 X22.7628 Y-3.14773 Z1.18 F2400
M108 R35  (snort)
M102
G1 X22.8628 Y-3.14773 Z1.18 F2400
M103

(  path 20/44, 2 points,  )
G1 X22.8628 Y-2.14773 Z1.18 F2400
M108 R35 (squirt)
M101
G1 X22.7628 Y-2.14773 Z1.18 F2400
M108 R2.8 (good to go)
G1 X-23.9712 Y-2.14773 Z1.18 F2400
M108 R35  (snort)
M102
G1 X-24.0712 Y-2.14773 Z1.18 F2400
M103

(  path 21/44, 2 points,  )
G1 X-24.0712 Y-1.14773 Z1.18 F2400
M108 R35 (squirt)
M101
G1 X-23.9712 Y-1.14773 Z1.18 F2400
M108 R2.8 (good to go)
G1 X22.7628 Y-1.14773 Z1.18 F2400
M108 R35  (snort)
M102
G1 X22.8628 Y-1.14773 Z1.18 F2400
M103

(  path 22/44, 2 points,  )
G1 X22.8628 Y-0.147735 Z1.18 F2400
M108 R35 (squirt)
M101
G1 X22.7628 Y-0.147735 Z1.18 F2400
M108 R2.8 (good to go)
G1 X-23.9712 Y-0.147735 Z1.18 F2400
M108 R35  (snort)
M102
G1 X-24.0712 Y-0.147735 Z1.18 F2400
M103

(  path 23/44, 2 points,  )
G1 X-24.0712 Y0.852265 Z1.18 F2400
M108 R35 (squirt)
M101
G1 X-23.9712 Y0.852265 Z1.18 F2400
M108 R2.8 (good to go)
G1 X22.7628 Y0.852265 Z1.18 F2400
M108 R35  (snort)
M102
G1 X22.8628 Y0.852265 Z1.18 F2400
M103

(  path 24/44, 2 points,  )
G1 X22.8628 Y1.85227 Z1.18 F2400
M108 R35 (squirt)
M101
G1 X22.7628 Y1.85227 Z1.18 F2400
M108 R2.8 (good to go)
G1 X-23.9712 Y1.85227 Z1.18 F2400
M108 R35  (snort)
M102
G1 X-24.0712 Y1.85227 Z1.18 F2400
M103

(  path 25/44, 2 points,  )
G1 X-24.0712 Y2.85227 Z1.18 F2400
M108 R35 (squirt)
M101
G1 X-23.9712 Y2.85227 Z1.18 F2400
M108 R2.8 (good to go)
G1 X22.7628 Y2.85227 Z1.18 F2400
M108 R35  (snort)
M102
G1 X22.8628 Y2.85227 Z1.18 F2400
M103

(  path 26/44, 2 points,  )
G1 X22.8628 Y3.85227 Z1.18 F2400
M108 R35 (squirt)
M101
G1 X22.7628 Y3.85227 Z1.18 F2400
M108 R2.8 (good to go)
G1 X-23.9712 Y3.85227 Z1.18 F2400
M108 R35  (snort)
M102
G1 X-24.0712 Y3.85227 Z1.18 F2400
M103

(  path 27/44, 2 points,  )
G1 X-24.0712 Y4.85227 Z1.18 F2400
M108 R35 (squirt)
M101
G1 X-23.9712 Y4.85227 Z1.18 F2400
M108 R2.8 (good to go)
G1 X22.7628 Y4.85227 Z1.18 F2400
M108 R35  (snort)
M102
G1 X22.8628 Y4.85227 Z1.18 F2400
M103

(  path 28/44, 2 points,  )
G1 X22.8628 Y5.85227 Z1.18 F2400
M108 R35 (squirt)
M101
G1 X22.7628 Y5.85227 Z1.18 F2400
M108 R2.8 (good to go)
G1 X-23.9712 Y5.85227 Z1.18 F2400
M108 R35  (snort)
M102
G1 X-24.0712 Y5.85227 Z1.18 F2400
M103

(  path 29/44, 2 points,  )
G1 X-24.0712 Y6.85227 Z1.18 F2400
M108 R35 (squirt)
M101
G1 X-23.9712 Y6.85227 Z1.18 F2400
M108 R2.8 (good to go)
G1 X22.7628 Y6.85227 Z1.18 F2400
M108 R35  (snort)
M102
G1 X22.8628 Y6.85227 Z1.18 F2400
M103

(  path 30/44, 2 points,  )
G1 X22.8628 Y7.85227 Z1.18 F2400
M108 R35 (squirt)
M101
G1 X22.7628 Y7.85227 Z1.18 F2400
M108 R2.8 (good to go)
G1 X-23.9712 Y7.85227 Z1.18 F2400
M108 R35  (snort)
M102
G1 X-24.0712 Y7.85227 Z1.18 F2400
M103

(  path 31/44, 2 points,  )
G1 X-24.0712 Y8.85227 Z1.18 F2400
M108 R35 (squirt)
M101
G1 X-23.9712 Y8.85227 Z1.18 F2400
M108 R2.8 (good to go)
G1 X22.7628 Y8.85227 Z1.18 F2400
M108 R35  (snort)
M102
G1 X22.8628 Y8.85227 Z1.18 F2400
M103

(  path 32/44, 2 points,  )
G1 X22.8628 Y9.85227 Z1.18 F2400
M108 R35 (squirt)
M101
G1 X22.7628 Y9.85227 Z1.18 F2400
M108 R2.8 (good to go)
G1 X-23.9712 Y9.85227 Z1.18 F2400
M108 R35  (snort)
M102
G1 X-24.0712 Y9.85227 Z1.18 F2400
M103

(  path 33/44, 2 points,  )
G1 X-24.0712 Y10.8523 Z1.18 F2400
M108 R35 (squirt)
M101
G1 X-23.9712 Y10.8523 Z1.18 F2400
M108 R2.8 (good to go)
G1 X22.7628 Y10.8523 Z1.18 F2400
M108 R35  (snort)
M102
G1 X22.8628 Y10.8523 Z1.18 F2400
M103

(  path 34/44, 2 points,  )
G1 X22.8628 Y11.8523 Z1.18 F2400
M108 R35 (squirt)
M101
G1 X22.7628 Y11.8523 Z1.18 F2400
M108 R2.8 (good to go)
G1 X-23.9712 Y11.8523 Z1.18 F2400
M108 R35  (snort)
M102
G1 X-24.0712 Y11.8523 Z1.18 F2400
M103

(  path 35/44, 2 points,  )
G1 X-24.0712 Y12.8523 Z1.18 F2400
M108 R35 (squirt)
M101
G1 X-23.9712 Y12.8523 Z1.18 F2400
M108 R2.8 (good to go)
G1 X22.7628 Y12.8523 Z1.18 F2400
M108 R35  (snort)
M102
G1 X22.8628 Y12.8523 Z1.18 F2400
M103

(  path 36/44, 2 points,  )
G1 X22.8628 Y13.8523 Z1.18 F2400
M108 R35 (squirt)
M101
G1 X22.7628 Y13.8523 Z1.18 F2400
M108 R2.8 (good to go)
G1 X-23.9712 Y13.8523 Z1.18 F2400
M108 R35  (snort)
M102
G1 X-24.0712 Y13.8523 Z1.18 F2400
M103

(  path 37/44, 2 points,  )
G1 X-24.0712 Y14.8523 Z1.18 F2400
M108 R35 (squirt)
M101
G1 X-23.9712 Y14.8523 Z1.18 F2400
M108 R2.8 (good to go)
G1 X22.7628 Y14.8523 Z1.18 F2400
M108 R35  (snort)
M102
G1 X22.8628 Y14.8523 Z1.18 F2400
M103

(  path 38/44, 2 points,  )
G1 X22.8628 Y15.8523 Z1.18 F2400
M108 R35 (squirt)
M101
G1 X22.7628 Y15.8523 Z1.18 F2400
M108 R2.8 (good to go)
G1 X-23.9712 Y15.8523 Z1.18 F2400
M108 R35  (snort)
M102
G1 X-24.0712 Y15.8523 Z1.18 F2400
M103

(  path 39/44, 2 points,  )
G1 X-24.0712 Y16.8523 Z1.18 F2400
M108 R35 (squirt)
M101
G1 X-23.9712 Y16.8523 Z1.18 F2400
M108 R2.8 (good to go)
G1 X22.7628 Y16.8523 Z1.18 F2400
M108 R35  (snort)
M102
G1 X22.8628 Y16.8523 Z1.18 F2400
M103

(  path 40/44, 2 points,  )
G1 X22.8628 Y17.8523 Z1.18 F2400
M108 R35 (squirt)
M101
G1 X22.7628 Y17.8523 Z1.18 F2400
M108 R2.8 (good to go)
G1 X-23.9712 Y17.8523 Z1.18 F2400
M108 R35  (snort)
M102
G1 X-24.0712 Y17.8523 Z1.18 F2400
M103

(  path 41/44, 2 points,  )
G1 X-24.0712 Y18.8523 Z1.18 F2400
M108 R35 (squirt)
M101
G1 X-23.9712 Y18.8523 Z1.18 F2400
M108 R2.8 (good to go)
G1 X22.7628 Y18.8523 Z1.18 F2400
M108 R35  (snort)
M102
G1 X22.8628 Y18.8523 Z1.18 F2400
M103

(  path 42/44, 2 points,  )
G1 X22.8628 Y19.8523 Z1.18 F2400
M108 R35 (squirt)
M101
G1 X22.7628 Y19.8523 Z1.18 F2400
M108 R2.8 (good to go)
G1 X-23.9712 Y19.8523 Z1.18 F2400
M108 R35  (snort)
M102
G1 X-24.0712 Y19.8523 Z1.18 F2400
M103

(  path 43/44, 2 points,  )
G1 X-24.0712 Y20.8523 Z1.18 F2400
M108 R35 (squirt)
M101
G1 X-23.9712 Y20.8523 Z1.18 F2400
M108 R2.8 (good to go)
G1 X22.7628 Y20.8523 Z1.18 F2400
M108 R35  (snort)
M102
G1 X22.8628 Y20.8523 Z1.18 F2400
M103

(Slice 5, 1 Extruder)
G1 Z1.45 F500 (move Z)
(   Extruder 0)
( extruder 0 )
( GSWITCH T0 )
( TODO: add offset management to Gantry )

(inset 0/2 )
(  path 0/1, 9 points,  )
G1 X-26.0112 Y20.362 Z1.45 F2400
M108 R35 (squirt)
M101
G1 X-25.9112 Y20.362 Z1.45 F2400
M108 R2.8 (good to go)
G1 X-12.9038 Y20.362 Z1.45 F2400
G1 X24.7028 Y20.362 Z1.45 F2400
G1 X24.7028 Y-11.1936 Z1.45 F2400
G1 X24.7028 Y-22.05 Z1.45 F2400
G1 X11.6954 Y-22.05 Z1.45 F2400
G1 X-25.9112 Y-22.05 Z1.45 F2400
G1 X-25.9112 Y9.50555 Z1.45 F2400
G1 X-25.9112 Y20.362 Z1.45 F2400
M108 R35  (snort)
M102
G1 X-25.9112 Y20.462 Z1.45 F2400
M103

(inset 1/2 )
(  path 0/1, 9 points,  )
G1 X-26.3712 Y20.722 Z1.45 F2400
M108 R35 (squirt)
M101
G1 X-26.2712 Y20.722 Z1.45 F2400
M108 R2.8 (good to go)
G1 X-12.9038 Y20.722 Z1.45 F2400
G1 X25.0628 Y20.722 Z1.45 F2400
G1 X25.0628 Y-11.1936 Z1.45 F2400
G1 X25.0628 Y-22.41 Z1.45 F2400
G1 X11.6954 Y-22.41 Z1.45 F2400
G1 X-26.2712 Y-22.41 Z1.45 F2400
G1 X-26.2712 Y9.50555 Z1.45 F2400
G1 X-26.2712 Y20.722 Z1.45 F2400
M108 R35  (snort)
M102
G1 X-26.2712 Y20.822 Z1.45 F2400
M103

(  path 0/52, 2 points,  )
G1 X-25.9444 Y18.522 Z1.45 F2400
M108 R35 (squirt)
M101
G1 X-25.9444 Y18.422 Z1.45 F2400
M108 R2.8 (good to go)
G1 X-25.9444 Y-20.11 Z1.45 F2400
M108 R35  (snort)
M102
G1 X-25.9444 Y-20.21 Z1.45 F2400
M103

(  path 1/52, 2 points,  )
G1 X-24.9444 Y-20.21 Z1.45 F2400
M108 R35 (squirt)
M101
G1 X-24.9444 Y-20.11 Z1.45 F2400
M108 R2.8 (good to go)
G1 X-24.9444 Y18.422 Z1.45 F2400
M108 R35  (snort)
M102
G1 X-24.9444 Y18.522 Z1.45 F2400
M103

(  path 2/52, 2 points,  )
G1 X-23.9444 Y18.522 Z1.45 F2400
M108 R35 (squirt)
M101
G1 X-23.9444 Y18.422 Z1.45 F2400
M108 R2.8 (good to go)
G1 X-23.9444 Y-20.11 Z1.45 F2400
M108 R35  (snort)
M102
G1 X-23.9444 Y-20.21 Z1.45 F2400
M103

(  path 3/52, 2 points,  )
G1 X-22.9444 Y-20.21 Z1.45 F2400
M108 R35 (squirt)
M101
G1 X-22.9444 Y-20.11 Z1.45 F2400
M108 R2.8 (good to go)
G1 X-22.9444 Y18.422 Z1.45 F2400
M108 R35  (snort)
M102
G1 X-22.9444 Y18.522 Z1.45 F2400
M103

(  path 4/52, 2 points,  )
G1 X-21.9444 Y18.522 Z1.45 F2400
M108 R35 (squirt)
M101
G1 X-21.9444 Y18.422 Z1.45 F2400
M108 R2.8 (good to go)
G1 X-21.9444 Y-20.11 Z1.45 F2400
M108 R35  (snort)
M102
G1 X-21.9444 Y-20.21 Z1.45 F2400
M103

(  path 5/52, 2 points,  )
G1 X-20.9444 Y-20.21 Z1.45 F2400
M108 R35 (squirt)
M101
G1 X-20.9444 Y-20.11 Z1.45 F2400
M108 R2.8 (good to go)
G1 X-20.9444 Y18.422 Z1.45 F2400
M108 R35  (snort)
M102
G1 X-20.9444 Y18.522 Z1.45 F2400
M103

(  path 6/52, 2 points,  )
G1 X-19.9444 Y18.522 Z1.45 F2400
M108 R35 (squirt)
M101
G1 X-19.9444 Y18.422 Z1.45 F2400
M108 R2.8 (good to go)
G1 X-19.9444 Y-20.11 Z1.45 F2400
M108 R35  (snort)
M102
G1 X-19.9444 Y-20.21 Z1.45 F2400
M103

(  path 7/52, 2 points,  )
G1 X-18.9444 Y-20.21 Z1.45 F2400
M108 R35 (squirt)
M101
G1 X-18.9444 Y-20.11 Z1.45 F2400
M108 R2.8 (good to go)
G1 X-18.9444 Y18.422 Z1.45 F2400
M108 R35  (snort)
M102
G1 X-18.9444 Y18.522 Z1.45 F2400
M103

(  path 8/52, 2 points,  )
G1 X-17.9444 Y18.522 Z1.45 F2400
M108 R35 (squirt)
M101
G1 X-17.9444 Y18.422 Z1.45 F2400
M108 R2.8 (good to go)
G1 X-17.9444 Y-20.11 Z1.45 F2400
M108 R35  (snort)
M102
G1 X-17.9444 Y-20.21 Z1.45 F2400
M103

(  path 9/52, 2 points,  )
G1 X-16.9444 Y-20.21 Z1.45 F2400
M108 R35 (squirt)
M101
G1 X-16.9444 Y-20.11 Z1.45 F2400
M108 R2.8 (good to go)
G1 X-16.9444 Y18.422 Z1.45 F2400
M108 R35  (snort)
M102
G1 X-16.9444 Y18.522 Z1.45 F2400
M103

(  path 10/52, 2 points,  )
G1 X-15.9444 Y18.522 Z1.45 F2400
M108 R35 (squirt)
M101
G1 X-15.9444 Y18.422 Z1.45 F2400
M108 R2.8 (good to go)
G1 X-15.9444 Y-20.11 Z1.45 F2400
M108 R35  (snort)
M102
G1 X-15.9444 Y-20.21 Z1.45 F2400
M103

(  path 11/52, 2 points,  )
G1 X-14.9444 Y-20.21 Z1.45 F2400
M108 R35 (squirt)
M101
G1 X-14.9444 Y-20.11 Z1.45 F2400
M108 R2.8 (good to go)
G1 X-14.9444 Y18.422 Z1.45 F2400
M108 R35  (snort)
M102
G1 X-14.9444 Y18.522 Z1.45 F2400
M103

(  path 12/52, 2 points,  )
G1 X-13.9444 Y18.522 Z1.45 F2400
M108 R35 (squirt)
M101
G1 X-13.9444 Y18.422 Z1.45 F2400
M108 R2.8 (good to go)
G1 X-13.9444 Y-20.11 Z1.45 F2400
M108 R35  (snort)
M102
G1 X-13.9444 Y-20.21 Z1.45 F2400
M103

(  path 13/52, 2 points,  )
G1 X-12.9444 Y-20.21 Z1.45 F2400
M108 R35 (squirt)
M101
G1 X-12.9444 Y-20.11 Z1.45 F2400
M108 R2.8 (good to go)
G1 X-12.9444 Y18.422 Z1.45 F2400
M108 R35  (snort)
M102
G1 X-12.9444 Y18.522 Z1.45 F2400
M103

(  path 14/52, 2 points,  )
G1 X-11.9444 Y18.522 Z1.45 F2400
M108 R35 (squirt)
M101
G1 X-11.9444 Y18.422 Z1.45 F2400
M108 R2.8 (good to go)
G1 X-11.9444 Y-20.11 Z1.45 F2400
M108 R35  (snort)
M102
G1 X-11.9444 Y-20.21 Z1.45 F2400
M103

(  path 15/52, 2 points,  )
G1 X-10.9444 Y-20.21 Z1.45 F2400
M108 R35 (squirt)
M101
G1 X-10.9444 Y-20.11 Z1.45 F2400
M108 R2.8 (good to go)
G1 X-10.9444 Y18.422 Z1.45 F2400
M108 R35  (snort)
M102
G1 X-10.9444 Y18.522 Z1.45 F2400
M103

(  path 16/52, 2 points,  )
G1 X-9.94442 Y18.522 Z1.45 F2400
M108 R35 (squirt)
M101
G1 X-9.94442 Y18.422 Z1.45 F2400
M108 R2.8 (good to go)
G1 X-9.94442 Y-20.11 Z1.45 F2400
M108 R35  (snort)
M102
G1 X-9.94442 Y-20.21 Z1.45 F2400
M103

(  path 17/52, 2 points,  )
G1 X-8.94442 Y-20.21 Z1.45 F2400
M108 R35 (squirt)
M101
G1 X-8.94442 Y-20.11 Z1.45 F2400
M108 R2.8 (good to go)
G1 X-8.94442 Y18.422 Z1.45 F2400
M108 R35  (snort)
M102
G1 X-8.94442 Y18.522 Z1.45 F2400
M103

(  path 18/52, 2 points,  )
G1 X-7.94442 Y18.522 Z1.45 F2400
M108 R35 (squirt)
M101
G1 X-7.94442 Y18.422 Z1.45 F2400
M108 R2.8 (good to go)
G1 X-7.94442 Y-20.11 Z1.45 F2400
M108 R35  (snort)
M102
G1 X-7.94442 Y-20.21 Z1.45 F2400
M103

(  path 19/52, 2 points,  )
G1 X-6.94442 Y-20.21 Z1.45 F2400
M108 R35 (squirt)
M101
G1 X-6.94442 Y-20.11 Z1.45 F2400
M108 R2.8 (good to go)
G1 X-6.94442 Y18.422 Z1.45 F2400
M108 R35  (snort)
M102
G1 X-6.94442 Y18.522 Z1.45 F2400
M103

(  path 20/52, 2 points,  )
G1 X-5.94442 Y18.522 Z1.45 F2400
M108 R35 (squirt)
M101
G1 X-5.94442 Y18.422 Z1.45 F2400
M108 R2.8 (good to go)
G1 X-5.94442 Y-20.11 Z1.45 F2400
M108 R35  (snort)
M102
G1 X-5.94442 Y-20.21 Z1.45 F2400
M103

(  path 21/52, 2 points,  )
G1 X-4.94442 Y-20.21 Z1.45 F2400
M108 R35 (squirt)
M101
G1 X-4.94442 Y-20.11 Z1.45 F2400
M108 R2.8 (good to go)
G1 X-4.94442 Y18.422 Z1.45 F2400
M108 R35  (snort)
M102
G1 X-4.94442 Y18.522 Z1.45 F2400
M103

(  path 22/52, 2 points,  )
G1 X-3.94442 Y18.522 Z1.45 F2400
M108 R35 (squirt)
M101
G1 X-3.94442 Y18.422 Z1.45 F2400
M108 R2.8 (good to go)
G1 X-3.94442 Y-20.11 Z1.45 F2400
M108 R35  (snort)
M102
G1 X-3.94442 Y-20.21 Z1.45 F2400
M103

(  path 23/52, 2 points,  )
G1 X-2.94442 Y-20.21 Z1.45 F2400
M108 R35 (squirt)
M101
G1 X-2.94442 Y-20.11 Z1.45 F2400
M108 R2.8 (good to go)
G1 X-2.94442 Y18.422 Z1.45 F2400
M108 R35  (snort)
M102
G1 X-2.94442 Y18.522 Z1.45 F2400
M103

(  path 24/52, 2 points,  )
G1 X-1.94442 Y18.522 Z1.45 F2400
M108 R35 (squirt)
M101
G1 X-1.94442 Y18.422 Z1.45 F2400
M108 R2.8 (good to go)
G1 X-1.94442 Y-20.11 Z1.45 F2400
M108 R35  (snort)
M102
G1 X-1.94442 Y-20.21 Z1.45 F2400
M103

(  path 25/52, 2 points,  )
G1 X-0.94442 Y-20.21 Z1.45 F2400
M108 R35 (squirt)
M101
G1 X-0.94442 Y-20.11 Z1.45 F2400
M108 R2.8 (good to go)
G1 X-0.94442 Y18.422 Z1.45 F2400
M108 R35  (snort)
M102
G1 X-0.94442 Y18.522 Z1.45 F2400
M103

(  path 26/52, 2 points,  )
G1 X0.0555803 Y18.522 Z1.45 F2400
M108 R35 (squirt)
M101
G1 X0.0555803 Y18.422 Z1.45 F2400
M108 R2.8 (good to go)
G1 X0.0555803 Y-20.11 Z1.45 F2400
M108 R35  (snort)
M102
G1 X0.0555803 Y-20.21 Z1.45 F2400
M103

(  path 27/52, 2 points,  )
G1 X1.05558 Y-20.21 Z1.45 F2400
M108 R35 (squirt)
M101
G1 X1.05558 Y-20.11 Z1.45 F2400
M108 R2.8 (good to go)
G1 X1.05558 Y18.422 Z1.45 F2400
M108 R35  (snort)
M102
G1 X1.05558 Y18.522 Z1.45 F2400
M103

(  path 28/52, 2 points,  )
G1 X2.05558 Y18.522 Z1.45 F2400
M108 R35 (squirt)
M101
G1 X2.05558 Y18.422 Z1.45 F2400
M108 R2.8 (good to go)
G1 X2.05558 Y-20.11 Z1.45 F2400
M108 R35  (snort)
M102
G1 X2.05558 Y-20.21 Z1.45 F2400
M103

(  path 29/52, 2 points,  )
G1 X3.05558 Y-20.21 Z1.45 F2400
M108 R35 (squirt)
M101
G1 X3.05558 Y-20.11 Z1.45 F2400
M108 R2.8 (good to go)
G1 X3.05558 Y18.422 Z1.45 F2400
M108 R35  (snort)
M102
G1 X3.05558 Y18.522 Z1.45 F2400
M103

(  path 30/52, 2 points,  )
G1 X4.05558 Y18.522 Z1.45 F2400
M108 R35 (squirt)
M101
G1 X4.05558 Y18.422 Z1.45 F2400
M108 R2.8 (good to go)
G1 X4.05558 Y-20.11 Z1.45 F2400
M108 R35  (snort)
M102
G1 X4.05558 Y-20.21 Z1.45 F2400
M103

(  path 31/52, 2 points,  )
G1 X5.05558 Y-20.21 Z1.45 F2400
M108 R35 (squirt)
M101
G1 X5.05558 Y-20.11 Z1.45 F2400
M108 R2.8 (good to go)
G1 X5.05558 Y18.422 Z1.45 F2400
M108 R35  (snort)
M102
G1 X5.05558 Y18.522 Z1.45 F2400
M103

(  path 32/52, 2 points,  )
G1 X6.05558 Y18.522 Z1.45 F2400
M108 R35 (squirt)
M101
G1 X6.05558 Y18.422 Z1.45 F2400
M108 R2.8 (good to go)
G1 X6.05558 Y-20.11 Z1.45 F2400
M108 R35  (snort)
M102
G1 X6.05558 Y-20.21 Z1.45 F2400
M103

(  path 33/52, 2 points,  )
G1 X7.05558 Y-20.21 Z1.45 F2400
M108 R35 (squirt)
M101
G1 X7.05558 Y-20.11 Z1.45 F2400
M108 R2.8 (good to go)
G1 X7.05558 Y18.422 Z1.45 F2400
M108 R35  (snort)
M102
G1 X7.05558 Y18.522 Z1.45 F2400
M103

(  path 34/52, 2 points,  )
G1 X8.05558 Y18.522 Z1.45 F2400
M108 R35 (squirt)
M101
G1 X8.05558 Y18.422 Z1.45 F2400
M108 R2.8 (good to go)
G1 X8.05558 Y-20.11 Z1.45 F2400
M108 R35  (snort)
M102
G1 X8.05558 Y-20.21 Z1.45 F2400
M103

(  path 35/52, 2 points,  )
G1 X9.05558 Y-20.21 Z1.45 F2400
M108 R35 (squirt)
M101
G1 X9.05558 Y-20.11 Z1.45 F2400
M108 R2.8 (good to go)
G1 X9.05558 Y18.422 Z1.45 F2400
M108 R35  (snort)
M102
G1 X9.05558 Y18.522 Z1.45 F2400
M103

(  path 36/52, 2 points,  )
G1 X10.0556 Y18.522 Z1.45 F2400
M108 R35 (squirt)
M101
G1 X10.0556 Y18.422 Z1.45 F2400
M108 R2.8 (good to go)
G1 X10.0556 Y-20.11 Z1.45 F2400
M108 R35  (snort)
M102
G1 X10.0556 Y-20.21 Z1.45 F2400
M103

(  path 37/52, 2 points,  )
G1 X11.0556 Y-20.21 Z1.45 F2400
M108 R35 (squirt)
M101
G1 X11.0556 Y-20.11 Z1.45 F2400
M108 R2.8 (good to go)
G1 X11.0556 Y18.422 Z1.45 F2400
M108 R35  (snort)
M102
G1 X11.0556 Y18.522 Z1.45 F2400
M103

(  path 38/52, 2 points,  )
G1 X12.0556 Y18.522 Z1.45 F2400
M108 R35 (squirt)
M101
G1 X12.0556 Y18.422 Z1.45 F2400
M108 R2.8 (good to go)
G1 X12.0556 Y-20.11 Z1.45 F2400
M108 R35  (snort)
M102
G1 X12.0556 Y-20.21 Z1.45 F2400
M103

(  path 39/52, 2 points,  )
G1 X13.0556 Y-20.21 Z1.45 F2400
M108 R35 (squirt)
M101
G1 X13.0556 Y-20.11 Z1.45 F2400
M108 R2.8 (good to go)
G1 X13.0556 Y18.422 Z1.45 F2400
M108 R35  (snort)
M102
G1 X13.0556 Y18.522 Z1.45 F2400
M103

(  path 40/52, 2 points,  )
G1 X14.0556 Y18.522 Z1.45 F2400
M108 R35 (squirt)
M101
G1 X14.0556 Y18.422 Z1.45 F2400
M108 R2.8 (good to go)
G1 X14.0556 Y-20.11 Z1.45 F2400
M108 R35  (snort)
M102
G1 X14.0556 Y-20.21 Z1.45 F2400
M103

(  path 41/52, 2 points,  )
G1 X15.0556 Y-20.21 Z1.45 F2400
M108 R35 (squirt)
M101
G1 X15.0556 Y-20.11 Z1.45 F2400
M108 R2.8 (good to go)
G1 X15.0556 Y18.422 Z1.45 F2400
M108 R35  (snort)
M102
G1 X15.0556 Y18.522 Z1.45 F2400
M103

(  path 42/52, 2 points,  )
G1 X16.0556 Y18.522 Z1.45 F2400
M108 R35 (squirt)
M101
G1 X16.0556 Y18.422 Z1.45 F2400
M108 R2.8 (good to go)
G1 X16.0556 Y-20.11 Z1.45 F2400
M108 R35  (snort)
M102
G1 X16.0556 Y-20.21 Z1.45 F2400
M103

(  path 43/52, 2 points,  )
G1 X17.0556 Y-20.21 Z1.45 F2400
M108 R35 (squirt)
M101
G1 X17.0556 Y-20.11 Z1.45 F2400
M108 R2.8 (good to go)
G1 X17.0556 Y18.422 Z1.45 F2400
M108 R35  (snort)
M102
G1 X17.0556 Y18.522 Z1.45 F2400
M103

(  path 44/52, 2 points,  )
G1 X18.0556 Y18.522 Z1.45 F2400
M108 R35 (squirt)
M101
G1 X18.0556 Y18.422 Z1.45 F2400
M108 R2.8 (good to go)
G1 X18.0556 Y-20.11 Z1.45 F2400
M108 R35  (snort)
M102
G1 X18.0556 Y-20.21 Z1.45 F2400
M103

(  path 45/52, 2 points,  )
G1 X19.0556 Y-20.21 Z1.45 F2400
M108 R35 (squirt)
M101
G1 X19.0556 Y-20.11 Z1.45 F2400
M108 R2.8 (good to go)
G1 X19.0556 Y18.422 Z1.45 F2400
M108 R35  (snort)
M102
G1 X19.0556 Y18.522 Z1.45 F2400
M103

(  path 46/52, 2 points,  )
G1 X20.0556 Y18.522 Z1.45 F2400
M108 R35 (squirt)
M101
G1 X20.0556 Y18.422 Z1.45 F2400
M108 R2.8 (good to go)
G1 X20.0556 Y-20.11 Z1.45 F2400
M108 R35  (snort)
M102
G1 X20.0556 Y-20.21 Z1.45 F2400
M103

(  path 47/52, 2 points,  )
G1 X21.0556 Y-20.21 Z1.45 F2400
M108 R35 (squirt)
M101
G1 X21.0556 Y-20.11 Z1.45 F2400
M108 R2.8 (good to go)
G1 X21.0556 Y18.422 Z1.45 F2400
M108 R35  (snort)
M102
G1 X21.0556 Y18.522 Z1.45 F2400
M103

(  path 48/52, 2 points,  )
G1 X22.0556 Y18.522 Z1.45 F2400
M108 R35 (squirt)
M101
G1 X22.0556 Y18.422 Z1.45 F2400
M108 R2.8 (good to go)
G1 X22.0556 Y-20.11 Z1.45 F2400
M108 R35  (snort)
M102
G1 X22.0556 Y-20.21 Z1.45 F2400
M103

(  path 49/52, 2 points,  )
G1 X23.0556 Y-20.21 Z1.45 F2400
M108 R35 (squirt)
M101
G1 X23.0556 Y-20.11 Z1.45 F2400
M108 R2.8 (good to go)
G1 X23.0556 Y18.422 Z1.45 F2400
M108 R35  (snort)
M102
G1 X23.0556 Y18.522 Z1.45 F2400
M103

(  path 50/52, 2 points,  )
G1 X24.0556 Y18.522 Z1.45 F2400
M108 R35 (squirt)
M101
G1 X24.0556 Y18.422 Z1.45 F2400
M108 R2.8 (good to go)
G1 X24.0556 Y-20.11 Z1.45 F2400
M108 R35  (snort)
M102
G1 X24.0556 Y-20.21 Z1.45 F2400
M103

(  path 51/52, 2 points,  )
G1 X25.0556 Y-20.21 Z1.45 F2400
M108 R35 (squirt)
M101
G1 X25.0556 Y-20.11 Z1.45 F2400
M108 R2.8 (good to go)
G1 X25.0556 Y18.422 Z1.45 F2400
M108 R35  (snort)
M102
G1 X25.0556 Y18.522 Z1.45 F2400
M103

(Slice 6, 1 Extruder)
G1 Z1.72 F500 (move Z)
(   Extruder 0)
( extruder 0 )
( GSWITCH T0 )
( TODO: add offset management to Gantry )

(inset 0/2 )
(  path 0/1, 9 points,  )
G1 X-26.0112 Y20.362 Z1.72 F2400
M108 R35 (squirt)
M101
G1 X-25.9112 Y20.362 Z1.72 F2400
M108 R2.8 (good to go)
G1 X-10.3774 Y20.362 Z1.72 F2400
G1 X24.7028 Y20.362 Z1.72 F2400
G1 X24.7028 Y-9.06779 Z1.72 F2400
G1 X24.7028 Y-22.05 Z1.72 F2400
G1 X9.169 Y-22.05 Z1.72 F2400
G1 X-25.9112 Y-22.05 Z1.72 F2400
G1 X-25.9112 Y7.37973 Z1.72 F2400
G1 X-25.9112 Y20.362 Z1.72 F2400
M108 R35  (snort)
M102
G1 X-25.9112 Y20.462 Z1.72 F2400
M103

(inset 1/2 )
(  path 0/1, 9 points,  )
G1 X-26.3712 Y20.722 Z1.72 F2400
M108 R35 (squirt)
M101
G1 X-26.2712 Y20.722 Z1.72 F2400
M108 R2.8 (good to go)
G1 X-10.3774 Y20.722 Z1.72 F2400
G1 X25.0628 Y20.722 Z1.72 F2400
G1 X25.0628 Y-9.06779 Z1.72 F2400
G1 X25.0628 Y-22.41 Z1.72 F2400
G1 X9.169 Y-22.41 Z1.72 F2400
G1 X-26.2712 Y-22.41 Z1.72 F2400
G1 X-26.2712 Y7.37973 Z1.72 F2400
G1 X-26.2712 Y20.722 Z1.72 F2400
M108 R35  (snort)
M102
G1 X-26.2712 Y20.822 Z1.72 F2400
M103

(  path 0/44, 2 points,  )
G1 X-24.0712 Y20.5327 Z1.72 F2400
M108 R35 (squirt)
M101
G1 X-23.9712 Y20.5327 Z1.72 F2400
M108 R2.8 (good to go)
G1 X22.7628 Y20.5327 Z1.72 F2400
M108 R35  (snort)
M102
G1 X22.8628 Y20.5327 Z1.72 F2400
M103

(  path 1/44, 2 points,  )
G1 X22.8628 Y19.5327 Z1.72 F2400
M108 R35 (squirt)
M101
G1 X22.7628 Y19.5327 Z1.72 F2400
M108 R2.8 (good to go)
G1 X-23.9712 Y19.5327 Z1.72 F2400
M108 R35  (snort)
M102
G1 X-24.0712 Y19.5327 Z1.72 F2400
M103

(  path 2/44, 2 points,  )
G1 X-24.0712 Y18.5327 Z1.72 F2400
M108 R35 (squirt)
M101
G1 X-23.9712 Y18.5327 Z1.72 F2400
M108 R2.8 (good to go)
G1 X22.7628 Y18.5327 Z1.72 F2400
M108 R35  (snort)
M102
G1 X22.8628 Y18.5327 Z1.72 F2400
M103

(  path 3/44, 2 points,  )
G1 X22.8628 Y17.5327 Z1.72 F2400
M108 R35 (squirt)
M101
G1 X22.7628 Y17.5327 Z1.72 F2400
M108 R2.8 (good to go)
G1 X-23.9712 Y17.5327 Z1.72 F2400
M108 R35  (snort)
M102
G1 X-24.0712 Y17.5327 Z1.72 F2400
M103

(  path 4/44, 2 points,  )
G1 X-24.0712 Y16.5327 Z1.72 F2400
M108 R35 (squirt)
M101
G1 X-23.9712 Y16.5327 Z1.72 F2400
M108 R2.8 (good to go)
G1 X22.7628 Y16.5327 Z1.72 F2400
M108 R35  (snort)
M102
G1 X22.8628 Y16.5327 Z1.72 F2400
M103

(  path 5/44, 2 points,  )
G1 X22.8628 Y15.5327 Z1.72 F2400
M108 R35 (squirt)
M101
G1 X22.7628 Y15.5327 Z1.72 F2400
M108 R2.8 (good to go)
G1 X-23.9712 Y15.5327 Z1.72 F2400
M108 R35  (snort)
M102
G1 X-24.0712 Y15.5327 Z1.72 F2400
M103

(  path 6/44, 2 points,  )
G1 X-24.0712 Y14.5327 Z1.72 F2400
M108 R35 (squirt)
M101
G1 X-23.9712 Y14.5327 Z1.72 F2400
M108 R2.8 (good to go)
G1 X22.7628 Y14.5327 Z1.72 F2400
M108 R35  (snort)
M102
G1 X22.8628 Y14.5327 Z1.72 F2400
M103

(  path 7/44, 2 points,  )
G1 X22.8628 Y13.5327 Z1.72 F2400
M108 R35 (squirt)
M101
G1 X22.7628 Y13.5327 Z1.72 F2400
M108 R2.8 (good to go)
G1 X-23.9712 Y13.5327 Z1.72 F2400
M108 R35  (snort)
M102
G1 X-24.0712 Y13.5327 Z1.72 F2400
M103

(  path 8/44, 2 points,  )
G1 X-24.0712 Y12.5327 Z1.72 F2400
M108 R35 (squirt)
M101
G1 X-23.9712 Y12.5327 Z1.72 F2400
M108 R2.8 (good to go)
G1 X22.7628 Y12.5327 Z1.72 F2400
M108 R35  (snort)
M102
G1 X22.8628 Y12.5327 Z1.72 F2400
M103

(  path 9/44, 2 points,  )
G1 X22.8628 Y11.5327 Z1.72 F2400
M108 R35 (squirt)
M101
G1 X22.7628 Y11.5327 Z1.72 F2400
M108 R2.8 (good to go)
G1 X-23.9712 Y11.5327 Z1.72 F2400
M108 R35  (snort)
M102
G1 X-24.0712 Y11.5327 Z1.72 F2400
M103

(  path 10/44, 2 points,  )
G1 X-24.0712 Y10.5327 Z1.72 F2400
M108 R35 (squirt)
M101
G1 X-23.9712 Y10.5327 Z1.72 F2400
M108 R2.8 (good to go)
G1 X22.7628 Y10.5327 Z1.72 F2400
M108 R35  (snort)
M102
G1 X22.8628 Y10.5327 Z1.72 F2400
M103

(  path 11/44, 2 points,  )
G1 X22.8628 Y9.53266 Z1.72 F2400
M108 R35 (squirt)
M101
G1 X22.7628 Y9.53266 Z1.72 F2400
M108 R2.8 (good to go)
G1 X-23.9712 Y9.53266 Z1.72 F2400
M108 R35  (snort)
M102
G1 X-24.0712 Y9.53266 Z1.72 F2400
M103

(  path 12/44, 2 points,  )
G1 X-24.0712 Y8.53266 Z1.72 F2400
M108 R35 (squirt)
M101
G1 X-23.9712 Y8.53266 Z1.72 F2400
M108 R2.8 (good to go)
G1 X22.7628 Y8.53266 Z1.72 F2400
M108 R35  (snort)
M102
G1 X22.8628 Y8.53266 Z1.72 F2400
M103

(  path 13/44, 2 points,  )
G1 X22.8628 Y7.53266 Z1.72 F2400
M108 R35 (squirt)
M101
G1 X22.7628 Y7.53266 Z1.72 F2400
M108 R2.8 (good to go)
G1 X-23.9712 Y7.53266 Z1.72 F2400
M108 R35  (snort)
M102
G1 X-24.0712 Y7.53266 Z1.72 F2400
M103

(  path 14/44, 2 points,  )
G1 X-24.0712 Y6.53266 Z1.72 F2400
M108 R35 (squirt)
M101
G1 X-23.9712 Y6.53266 Z1.72 F2400
M108 R2.8 (good to go)
G1 X22.7628 Y6.53266 Z1.72 F2400
M108 R35  (snort)
M102
G1 X22.8628 Y6.53266 Z1.72 F2400
M103

(  path 15/44, 2 points,  )
G1 X22.8628 Y5.53266 Z1.72 F2400
M108 R35 (squirt)
M101
G1 X22.7628 Y5.53266 Z1.72 F2400
M108 R2.8 (good to go)
G1 X-23.9712 Y5.53266 Z1.72 F2400
M108 R35  (snort)
M102
G1 X-24.0712 Y5.53266 Z1.72 F2400
M103

(  path 16/44, 2 points,  )
G1 X-24.0712 Y4.53266 Z1.72 F2400
M108 R35 (squirt)
M101
G1 X-23.9712 Y4.53266 Z1.72 F2400
M108 R2.8 (good to go)
G1 X22.7628 Y4.53266 Z1.72 F2400
M108 R35  (snort)
M102
G1 X22.8628 Y4.53266 Z1.72 F2400
M103

(  path 17/44, 2 points,  )
G1 X22.8628 Y3.53266 Z1.72 F2400
M108 R35 (squirt)
M101
G1 X22.7628 Y3.53266 Z1.72 F2400
M108 R2.8 (good to go)
G1 X-23.9712 Y3.53266 Z1.72 F2400
M108 R35  (snort)
M102
G1 X-24.0712 Y3.53266 Z1.72 F2400
M103

(  path 18/44, 2 points,  )
G1 X-24.0712 Y2.53266 Z1.72 F2400
M108 R35 (squirt)
M101
G1 X-23.9712 Y2.53266 Z1.72 F2400
M108 R2.8 (good to go)
G1 X22.7628 Y2.53266 Z1.72 F2400
M108 R35  (snort)
M102
G1 X22.8628 Y2.53266 Z1.72 F2400
M103

(  path 19/44, 2 points,  )
G1 X22.8628 Y1.53266 Z1.72 F2400
M108 R35 (squirt)
M101
G1 X22.7628 Y1.53266 Z1.72 F2400
M108 R2.8 (good to go)
G1 X-23.9712 Y1.53266 Z1.72 F2400
M108 R35  (snort)
M102
G1 X-24.0712 Y1.53266 Z1.72 F2400
M103

(  path 20/44, 2 points,  )
G1 X-24.0712 Y0.532664 Z1.72 F2400
M108 R35 (squirt)
M101
G1 X-23.9712 Y0.532664 Z1.72 F2400
M108 R2.8 (good to go)
G1 X22.7628 Y0.532664 Z1.72 F2400
M108 R35  (snort)
M102
G1 X22.8628 Y0.532664 Z1.72 F2400
M103

(  path 21/44, 2 points,  )
G1 X22.8628 Y-0.467336 Z1.72 F2400
M108 R35 (squirt)
M101
G1 X22.7628 Y-0.467336 Z1.72 F2400
M108 R2.8 (good to go)
G1 X-23.9712 Y-0.467336 Z1.72 F2400
M108 R35  (snort)
M102
G1 X-24.0712 Y-0.467336 Z1.72 F2400
M103

(  path 22/44, 2 points,  )
G1 X-24.0712 Y-1.46734 Z1.72 F2400
M108 R35 (squirt)
M101
G1 X-23.9712 Y-1.46734 Z1.72 F2400
M108 R2.8 (good to go)
G1 X22.7628 Y-1.46734 Z1.72 F2400
M108 R35  (snort)
M102
G1 X22.8628 Y-1.46734 Z1.72 F2400
M103

(  path 23/44, 2 points,  )
G1 X22.8628 Y-2.46734 Z1.72 F2400
M108 R35 (squirt)
M101
G1 X22.7628 Y-2.46734 Z1.72 F2400
M108 R2.8 (good to go)
G1 X-23.9712 Y-2.46734 Z1.72 F2400
M108 R35  (snort)
M102
G1 X-24.0712 Y-2.46734 Z1.72 F2400
M103

(  path 24/44, 2 points,  )
G1 X-24.0712 Y-3.46734 Z1.72 F2400
M108 R35 (squirt)
M101
G1 X-23.9712 Y-3.46734 Z1.72 F2400
M108 R2.8 (good to go)
G1 X22.7628 Y-3.46734 Z1.72 F2400
M108 R35  (snort)
M102
G1 X22.8628 Y-3.46734 Z1.72 F2400
M103

(  path 25/44, 2 points,  )
G1 X22.8628 Y-4.46734 Z1.72 F2400
M108 R35 (squirt)
M101
G1 X22.7628 Y-4.46734 Z1.72 F2400
M108 R2.8 (good to go)
G1 X-23.9712 Y-4.46734 Z1.72 F2400
M108 R35  (snort)
M102
G1 X-24.0712 Y-4.46734 Z1.72 F2400
M103

(  path 26/44, 2 points,  )
G1 X-24.0712 Y-5.46734 Z1.72 F2400
M108 R35 (squirt)
M101
G1 X-23.9712 Y-5.46734 Z1.72 F2400
M108 R2.8 (good to go)
G1 X22.7628 Y-5.46734 Z1.72 F2400
M108 R35  (snort)
M102
G1 X22.8628 Y-5.46734 Z1.72 F2400
M103

(  path 27/44, 2 points,  )
G1 X22.8628 Y-6.46734 Z1.72 F2400
M108 R35 (squirt)
M101
G1 X22.7628 Y-6.46734 Z1.72 F2400
M108 R2.8 (good to go)
G1 X-23.9712 Y-6.46734 Z1.72 F2400
M108 R35  (snort)
M102
G1 X-24.0712 Y-6.46734 Z1.72 F2400
M103

(  path 28/44, 2 points,  )
G1 X-24.0712 Y-7.46734 Z1.72 F2400
M108 R35 (squirt)
M101
G1 X-23.9712 Y-7.46734 Z1.72 F2400
M108 R2.8 (good to go)
G1 X22.7628 Y-7.46734 Z1.72 F2400
M108 R35  (snort)
M102
G1 X22.8628 Y-7.46734 Z1.72 F2400
M103

(  path 29/44, 2 points,  )
G1 X22.8628 Y-8.46734 Z1.72 F2400
M108 R35 (squirt)
M101
G1 X22.7628 Y-8.46734 Z1.72 F2400
M108 R2.8 (good to go)
G1 X-23.9712 Y-8.46734 Z1.72 F2400
M108 R35  (snort)
M102
G1 X-24.0712 Y-8.46734 Z1.72 F2400
M103

(  path 30/44, 2 points,  )
G1 X-24.0712 Y-9.46734 Z1.72 F2400
M108 R35 (squirt)
M101
G1 X-23.9712 Y-9.46734 Z1.72 F2400
M108 R2.8 (good to go)
G1 X22.7628 Y-9.46734 Z1.72 F2400
M108 R35  (snort)
M102
G1 X22.8628 Y-9.46734 Z1.72 F2400
M103

(  path 31/44, 2 points,  )
G1 X22.8628 Y-10.4673 Z1.72 F2400
M108 R35 (squirt)
M101
G1 X22.7628 Y-10.4673 Z1.72 F2400
M108 R2.8 (good to go)
G1 X-23.9712 Y-10.4673 Z1.72 F2400
M108 R35  (snort)
M102
G1 X-24.0712 Y-10.4673 Z1.72 F2400
M103

(  path 32/44, 2 points,  )
G1 X-24.0712 Y-11.4673 Z1.72 F2400
M108 R35 (squirt)
M101
G1 X-23.9712 Y-11.4673 Z1.72 F2400
M108 R2.8 (good to go)
G1 X22.7628 Y-11.4673 Z1.72 F2400
M108 R35  (snort)
M102
G1 X22.8628 Y-11.4673 Z1.72 F2400
M103

(  path 33/44, 2 points,  )
G1 X22.8628 Y-12.4673 Z1.72 F2400
M108 R35 (squirt)
M101
G1 X22.7628 Y-12.4673 Z1.72 F2400
M108 R2.8 (good to go)
G1 X-23.9712 Y-12.4673 Z1.72 F2400
M108 R35  (snort)
M102
G1 X-24.0712 Y-12.4673 Z1.72 F2400
M103

(  path 34/44, 2 points,  )
G1 X-24.0712 Y-13.4673 Z1.72 F2400
M108 R35 (squirt)
M101
G1 X-23.9712 Y-13.4673 Z1.72 F2400
M108 R2.8 (good to go)
G1 X22.7628 Y-13.4673 Z1.72 F2400
M108 R35  (snort)
M102
G1 X22.8628 Y-13.4673 Z1.72 F2400
M103

(  path 35/44, 2 points,  )
G1 X22.8628 Y-14.4673 Z1.72 F2400
M108 R35 (squirt)
M101
G1 X22.7628 Y-14.4673 Z1.72 F2400
M108 R2.8 (good to go)
G1 X-23.9712 Y-14.4673 Z1.72 F2400
M108 R35  (snort)
M102
G1 X-24.0712 Y-14.4673 Z1.72 F2400
M103

(  path 36/44, 2 points,  )
G1 X-24.0712 Y-15.4673 Z1.72 F2400
M108 R35 (squirt)
M101
G1 X-23.9712 Y-15.4673 Z1.72 F2400
M108 R2.8 (good to go)
G1 X22.7628 Y-15.4673 Z1.72 F2400
M108 R35  (snort)
M102
G1 X22.8628 Y-15.4673 Z1.72 F2400
M103

(  path 37/44, 2 points,  )
G1 X22.8628 Y-16.4673 Z1.72 F2400
M108 R35 (squirt)
M101
G1 X22.7628 Y-16.4673 Z1.72 F2400
M108 R2.8 (good to go)
G1 X-23.9712 Y-16.4673 Z1.72 F2400
M108 R35  (snort)
M102
G1 X-24.0712 Y-16.4673 Z1.72 F2400
M103

(  path 38/44, 2 points,  )
G1 X-24.0712 Y-17.4673 Z1.72 F2400
M108 R35 (squirt)
M101
G1 X-23.9712 Y-17.4673 Z1.72 F2400
M108 R2.8 (good to go)
G1 X22.7628 Y-17.4673 Z1.72 F2400
M108 R35  (snort)
M102
G1 X22.8628 Y-17.4673 Z1.72 F2400
M103

(  path 39/44, 2 points,  )
G1 X22.8628 Y-18.4673 Z1.72 F2400
M108 R35 (squirt)
M101
G1 X22.7628 Y-18.4673 Z1.72 F2400
M108 R2.8 (good to go)
G1 X-23.9712 Y-18.4673 Z1.72 F2400
M108 R35  (snort)
M102
G1 X-24.0712 Y-18.4673 Z1.72 F2400
M103

(  path 40/44, 2 points,  )
G1 X-24.0712 Y-19.4673 Z1.72 F2400
M108 R35 (squirt)
M101
G1 X-23.9712 Y-19.4673 Z1.72 F2400
M108 R2.8 (good to go)
G1 X22.7628 Y-19.4673 Z1.72 F2400
M108 R35  (snort)
M102
G1 X22.8628 Y-19.4673 Z1.72 F2400
M103

(  path 41/44, 2 points,  )
G1 X22.8628 Y-20.4673 Z1.72 F2400
M108 R35 (squirt)
M101
G1 X22.7628 Y-20.4673 Z1.72 F2400
M108 R2.8 (good to go)
G1 X-23.9712 Y-20.4673 Z1.72 F2400
M108 R35  (snort)
M102
G1 X-24.0712 Y-20.4673 Z1.72 F2400
M103

(  path 42/44, 2 points,  )
G1 X-24.0712 Y-21.4673 Z1.72 F2400
M108 R35 (squirt)
M101
G1 X-23.9712 Y-21.4673 Z1.72 F2400
M108 R2.8 (good to go)
G1 X22.7628 Y-21.4673 Z1.72 F2400
M108 R35  (snort)
M102
G1 X22.8628 Y-21.4673 Z1.72 F2400
M103

(  path 43/44, 2 points,  )
G1 X22.8628 Y-22.4673 Z1.72 F2400
M108 R35 (squirt)
M101
G1 X22.7628 Y-22.4673 Z1.72 F2400
M108 R2.8 (good to go)
G1 X-23.9712 Y-22.4673 Z1.72 F2400
M108 R35  (snort)
M102
G1 X-24.0712 Y-22.4673 Z1.72 F2400
M103

(Slice 7, 1 Extruder)
G1 Z1.99 F500 (move Z)
(   Extruder 0)
( extruder 0 )
( GSWITCH T0 )
( TODO: add offset management to Gantry )

(inset 0/2 )
(  path 0/1, 9 points,  )
G1 X-26.0112 Y20.362 Z1.99 F2400
M108 R35 (squirt)
M101
G1 X-25.9112 Y20.362 Z1.99 F2400
M108 R2.8 (good to go)
G1 X-7.8511 Y20.362 Z1.99 F2400
G1 X24.7028 Y20.362 Z1.99 F2400
G1 X24.7028 Y-6.94197 Z1.99 F2400
G1 X24.7028 Y-22.05 Z1.99 F2400
G1 X6.64266 Y-22.05 Z1.99 F2400
G1 X-25.9112 Y-22.05 Z1.99 F2400
G1 X-25.9112 Y5.25391 Z1.99 F2400
G1 X-25.9112 Y20.362 Z1.99 F2400
M108 R35  (snort)
M102
G1 X-25.9112 Y20.462 Z1.99 F2400
M103

(inset 1/2 )
(  path 0/1, 9 points,  )
G1 X-26.3712 Y20.722 Z1.99 F2400
M108 R35 (squirt)
M101
G1 X-26.2712 Y20.722 Z1.99 F2400
M108 R2.8 (good to go)
G1 X-7.8511 Y20.722 Z1.99 F2400
G1 X25.0628 Y20.722 Z1.99 F2400
G1 X25.0628 Y-6.94197 Z1.99 F2400
G1 X25.0628 Y-22.41 Z1.99 F2400
G1 X6.64266 Y-22.41 Z1.99 F2400
G1 X-26.2712 Y-22.41 Z1.99 F2400
G1 X-26.2712 Y5.25391 Z1.99 F2400
G1 X-26.2712 Y20.722 Z1.99 F2400
M108 R35  (snort)
M102
G1 X-26.2712 Y20.822 Z1.99 F2400
M103

(  path 0/52, 2 points,  )
G1 X24.736 Y-20.21 Z1.99 F2400
M108 R35 (squirt)
M101
G1 X24.736 Y-20.11 Z1.99 F2400
M108 R2.8 (good to go)
G1 X24.736 Y18.422 Z1.99 F2400
M108 R35  (snort)
M102
G1 X24.736 Y18.522 Z1.99 F2400
M103

(  path 1/52, 2 points,  )
G1 X23.736 Y18.522 Z1.99 F2400
M108 R35 (squirt)
M101
G1 X23.736 Y18.422 Z1.99 F2400
M108 R2.8 (good to go)
G1 X23.736 Y-20.11 Z1.99 F2400
M108 R35  (snort)
M102
G1 X23.736 Y-20.21 Z1.99 F2400
M103

(  path 2/52, 2 points,  )
G1 X22.736 Y-20.21 Z1.99 F2400
M108 R35 (squirt)
M101
G1 X22.736 Y-20.11 Z1.99 F2400
M108 R2.8 (good to go)
G1 X22.736 Y18.422 Z1.99 F2400
M108 R35  (snort)
M102
G1 X22.736 Y18.522 Z1.99 F2400
M103

(  path 3/52, 2 points,  )
G1 X21.736 Y18.522 Z1.99 F2400
M108 R35 (squirt)
M101
G1 X21.736 Y18.422 Z1.99 F2400
M108 R2.8 (good to go)
G1 X21.736 Y-20.11 Z1.99 F2400
M108 R35  (snort)
M102
G1 X21.736 Y-20.21 Z1.99 F2400
M103

(  path 4/52, 2 points,  )
G1 X20.736 Y-20.21 Z1.99 F2400
M108 R35 (squirt)
M101
G1 X20.736 Y-20.11 Z1.99 F2400
M108 R2.8 (good to go)
G1 X20.736 Y18.422 Z1.99 F2400
M108 R35  (snort)
M102
G1 X20.736 Y18.522 Z1.99 F2400
M103

(  path 5/52, 2 points,  )
G1 X19.736 Y18.522 Z1.99 F2400
M108 R35 (squirt)
M101
G1 X19.736 Y18.422 Z1.99 F2400
M108 R2.8 (good to go)
G1 X19.736 Y-20.11 Z1.99 F2400
M108 R35  (snort)
M102
G1 X19.736 Y-20.21 Z1.99 F2400
M103

(  path 6/52, 2 points,  )
G1 X18.736 Y-20.21 Z1.99 F2400
M108 R35 (squirt)
M101
G1 X18.736 Y-20.11 Z1.99 F2400
M108 R2.8 (good to go)
G1 X18.736 Y18.422 Z1.99 F2400
M108 R35  (snort)
M102
G1 X18.736 Y18.522 Z1.99 F2400
M103

(  path 7/52, 2 points,  )
G1 X17.736 Y18.522 Z1.99 F2400
M108 R35 (squirt)
M101
G1 X17.736 Y18.422 Z1.99 F2400
M108 R2.8 (good to go)
G1 X17.736 Y-20.11 Z1.99 F2400
M108 R35  (snort)
M102
G1 X17.736 Y-20.21 Z1.99 F2400
M103

(  path 8/52, 2 points,  )
G1 X16.736 Y-20.21 Z1.99 F2400
M108 R35 (squirt)
M101
G1 X16.736 Y-20.11 Z1.99 F2400
M108 R2.8 (good to go)
G1 X16.736 Y18.422 Z1.99 F2400
M108 R35  (snort)
M102
G1 X16.736 Y18.522 Z1.99 F2400
M103

(  path 9/52, 2 points,  )
G1 X15.736 Y18.522 Z1.99 F2400
M108 R35 (squirt)
M101
G1 X15.736 Y18.422 Z1.99 F2400
M108 R2.8 (good to go)
G1 X15.736 Y-20.11 Z1.99 F2400
M108 R35  (snort)
M102
G1 X15.736 Y-20.21 Z1.99 F2400
M103

(  path 10/52, 2 points,  )
G1 X14.736 Y-20.21 Z1.99 F2400
M108 R35 (squirt)
M101
G1 X14.736 Y-20.11 Z1.99 F2400
M108 R2.8 (good to go)
G1 X14.736 Y18.422 Z1.99 F2400
M108 R35  (snort)
M102
G1 X14.736 Y18.522 Z1.99 F2400
M103

(  path 11/52, 2 points,  )
G1 X13.736 Y18.522 Z1.99 F2400
M108 R35 (squirt)
M101
G1 X13.736 Y18.422 Z1.99 F2400
M108 R2.8 (good to go)
G1 X13.736 Y-20.11 Z1.99 F2400
M108 R35  (snort)
M102
G1 X13.736 Y-20.21 Z1.99 F2400
M103

(  path 12/52, 2 points,  )
G1 X12.736 Y-20.21 Z1.99 F2400
M108 R35 (squirt)
M101
G1 X12.736 Y-20.11 Z1.99 F2400
M108 R2.8 (good to go)
G1 X12.736 Y18.422 Z1.99 F2400
M108 R35  (snort)
M102
G1 X12.736 Y18.522 Z1.99 F2400
M103

(  path 13/52, 2 points,  )
G1 X11.736 Y18.522 Z1.99 F2400
M108 R35 (squirt)
M101
G1 X11.736 Y18.422 Z1.99 F2400
M108 R2.8 (good to go)
G1 X11.736 Y-20.11 Z1.99 F2400
M108 R35  (snort)
M102
G1 X11.736 Y-20.21 Z1.99 F2400
M103

(  path 14/52, 2 points,  )
G1 X10.736 Y-20.21 Z1.99 F2400
M108 R35 (squirt)
M101
G1 X10.736 Y-20.11 Z1.99 F2400
M108 R2.8 (good to go)
G1 X10.736 Y18.422 Z1.99 F2400
M108 R35  (snort)
M102
G1 X10.736 Y18.522 Z1.99 F2400
M103

(  path 15/52, 2 points,  )
G1 X9.73598 Y18.522 Z1.99 F2400
M108 R35 (squirt)
M101
G1 X9.73598 Y18.422 Z1.99 F2400
M108 R2.8 (good to go)
G1 X9.73598 Y-20.11 Z1.99 F2400
M108 R35  (snort)
M102
G1 X9.73598 Y-20.21 Z1.99 F2400
M103

(  path 16/52, 2 points,  )
G1 X8.73598 Y-20.21 Z1.99 F2400
M108 R35 (squirt)
M101
G1 X8.73598 Y-20.11 Z1.99 F2400
M108 R2.8 (good to go)
G1 X8.73598 Y18.422 Z1.99 F2400
M108 R35  (snort)
M102
G1 X8.73598 Y18.522 Z1.99 F2400
M103

(  path 17/52, 2 points,  )
G1 X7.73598 Y18.522 Z1.99 F2400
M108 R35 (squirt)
M101
G1 X7.73598 Y18.422 Z1.99 F2400
M108 R2.8 (good to go)
G1 X7.73598 Y-20.11 Z1.99 F2400
M108 R35  (snort)
M102
G1 X7.73598 Y-20.21 Z1.99 F2400
M103

(  path 18/52, 2 points,  )
G1 X6.73598 Y-20.21 Z1.99 F2400
M108 R35 (squirt)
M101
G1 X6.73598 Y-20.11 Z1.99 F2400
M108 R2.8 (good to go)
G1 X6.73598 Y18.422 Z1.99 F2400
M108 R35  (snort)
M102
G1 X6.73598 Y18.522 Z1.99 F2400
M103

(  path 19/52, 2 points,  )
G1 X5.73598 Y18.522 Z1.99 F2400
M108 R35 (squirt)
M101
G1 X5.73598 Y18.422 Z1.99 F2400
M108 R2.8 (good to go)
G1 X5.73598 Y-20.11 Z1.99 F2400
M108 R35  (snort)
M102
G1 X5.73598 Y-20.21 Z1.99 F2400
M103

(  path 20/52, 2 points,  )
G1 X4.73598 Y-20.21 Z1.99 F2400
M108 R35 (squirt)
M101
G1 X4.73598 Y-20.11 Z1.99 F2400
M108 R2.8 (good to go)
G1 X4.73598 Y18.422 Z1.99 F2400
M108 R35  (snort)
M102
G1 X4.73598 Y18.522 Z1.99 F2400
M103

(  path 21/52, 2 points,  )
G1 X3.73598 Y18.522 Z1.99 F2400
M108 R35 (squirt)
M101
G1 X3.73598 Y18.422 Z1.99 F2400
M108 R2.8 (good to go)
G1 X3.73598 Y-20.11 Z1.99 F2400
M108 R35  (snort)
M102
G1 X3.73598 Y-20.21 Z1.99 F2400
M103

(  path 22/52, 2 points,  )
G1 X2.73598 Y-20.21 Z1.99 F2400
M108 R35 (squirt)
M101
G1 X2.73598 Y-20.11 Z1.99 F2400
M108 R2.8 (good to go)
G1 X2.73598 Y18.422 Z1.99 F2400
M108 R35  (snort)
M102
G1 X2.73598 Y18.522 Z1.99 F2400
M103

(  path 23/52, 2 points,  )
G1 X1.73598 Y18.522 Z1.99 F2400
M108 R35 (squirt)
M101
G1 X1.73598 Y18.422 Z1.99 F2400
M108 R2.8 (good to go)
G1 X1.73598 Y-20.11 Z1.99 F2400
M108 R35  (snort)
M102
G1 X1.73598 Y-20.21 Z1.99 F2400
M103

(  path 24/52, 2 points,  )
G1 X0.735979 Y-20.21 Z1.99 F2400
M108 R35 (squirt)
M101
G1 X0.735979 Y-20.11 Z1.99 F2400
M108 R2.8 (good to go)
G1 X0.735979 Y18.422 Z1.99 F2400
M108 R35  (snort)
M102
G1 X0.735979 Y18.522 Z1.99 F2400
M103

(  path 25/52, 2 points,  )
G1 X-0.264021 Y18.522 Z1.99 F2400
M108 R35 (squirt)
M101
G1 X-0.264021 Y18.422 Z1.99 F2400
M108 R2.8 (good to go)
G1 X-0.264021 Y-20.11 Z1.99 F2400
M108 R35  (snort)
M102
G1 X-0.264021 Y-20.21 Z1.99 F2400
M103

(  path 26/52, 2 points,  )
G1 X-1.26402 Y-20.21 Z1.99 F2400
M108 R35 (squirt)
M101
G1 X-1.26402 Y-20.11 Z1.99 F2400
M108 R2.8 (good to go)
G1 X-1.26402 Y18.422 Z1.99 F2400
M108 R35  (snort)
M102
G1 X-1.26402 Y18.522 Z1.99 F2400
M103

(  path 27/52, 2 points,  )
G1 X-2.26402 Y18.522 Z1.99 F2400
M108 R35 (squirt)
M101
G1 X-2.26402 Y18.422 Z1.99 F2400
M108 R2.8 (good to go)
G1 X-2.26402 Y-20.11 Z1.99 F2400
M108 R35  (snort)
M102
G1 X-2.26402 Y-20.21 Z1.99 F2400
M103

(  path 28/52, 2 points,  )
G1 X-3.26402 Y-20.21 Z1.99 F2400
M108 R35 (squirt)
M101
G1 X-3.26402 Y-20.11 Z1.99 F2400
M108 R2.8 (good to go)
G1 X-3.26402 Y18.422 Z1.99 F2400
M108 R35  (snort)
M102
G1 X-3.26402 Y18.522 Z1.99 F2400
M103

(  path 29/52, 2 points,  )
G1 X-4.26402 Y18.522 Z1.99 F2400
M108 R35 (squirt)
M101
G1 X-4.26402 Y18.422 Z1.99 F2400
M108 R2.8 (good to go)
G1 X-4.26402 Y-20.11 Z1.99 F2400
M108 R35  (snort)
M102
G1 X-4.26402 Y-20.21 Z1.99 F2400
M103

(  path 30/52, 2 points,  )
G1 X-5.26402 Y-20.21 Z1.99 F2400
M108 R35 (squirt)
M101
G1 X-5.26402 Y-20.11 Z1.99 F2400
M108 R2.8 (good to go)
G1 X-5.26402 Y18.422 Z1.99 F2400
M108 R35  (snort)
M102
G1 X-5.26402 Y18.522 Z1.99 F2400
M103

(  path 31/52, 2 points,  )
G1 X-6.26402 Y18.522 Z1.99 F2400
M108 R35 (squirt)
M101
G1 X-6.26402 Y18.422 Z1.99 F2400
M108 R2.8 (good to go)
G1 X-6.26402 Y-20.11 Z1.99 F2400
M108 R35  (snort)
M102
G1 X-6.26402 Y-20.21 Z1.99 F2400
M103

(  path 32/52, 2 points,  )
G1 X-7.26402 Y-20.21 Z1.99 F2400
M108 R35 (squirt)
M101
G1 X-7.26402 Y-20.11 Z1.99 F2400
M108 R2.8 (good to go)
G1 X-7.26402 Y18.422 Z1.99 F2400
M108 R35  (snort)
M102
G1 X-7.26402 Y18.522 Z1.99 F2400
M103

(  path 33/52, 2 points,  )
G1 X-8.26402 Y18.522 Z1.99 F2400
M108 R35 (squirt)
M101
G1 X-8.26402 Y18.422 Z1.99 F2400
M108 R2.8 (good to go)
G1 X-8.26402 Y-20.11 Z1.99 F2400
M108 R35  (snort)
M102
G1 X-8.26402 Y-20.21 Z1.99 F2400
M103

(  path 34/52, 2 points,  )
G1 X-9.26402 Y-20.21 Z1.99 F2400
M108 R35 (squirt)
M101
G1 X-9.26402 Y-20.11 Z1.99 F2400
M108 R2.8 (good to go)
G1 X-9.26402 Y18.422 Z1.99 F2400
M108 R35  (snort)
M102
G1 X-9.26402 Y18.522 Z1.99 F2400
M103

(  path 35/52, 2 points,  )
G1 X-10.264 Y18.522 Z1.99 F2400
M108 R35 (squirt)
M101
G1 X-10.264 Y18.422 Z1.99 F2400
M108 R2.8 (good to go)
G1 X-10.264 Y-20.11 Z1.99 F2400
M108 R35  (snort)
M102
G1 X-10.264 Y-20.21 Z1.99 F2400
M103

(  path 36/52, 2 points,  )
G1 X-11.264 Y-20.21 Z1.99 F2400
M108 R35 (squirt)
M101
G1 X-11.264 Y-20.11 Z1.99 F2400
M108 R2.8 (good to go)
G1 X-11.264 Y18.422 Z1.99 F2400
M108 R35  (snort)
M102
G1 X-11.264 Y18.522 Z1.99 F2400
M103

(  path 37/52, 2 points,  )
G1 X-12.264 Y18.522 Z1.99 F2400
M108 R35 (squirt)
M101
G1 X-12.264 Y18.422 Z1.99 F2400
M108 R2.8 (good to go)
G1 X-12.264 Y-20.11 Z1.99 F2400
M108 R35  (snort)
M102
G1 X-12.264 Y-20.21 Z1.99 F2400
M103

(  path 38/52, 2 points,  )
G1 X-13.264 Y-20.21 Z1.99 F2400
M108 R35 (squirt)
M101
G1 X-13.264 Y-20.11 Z1.99 F2400
M108 R2.8 (good to go)
G1 X-13.264 Y18.422 Z1.99 F2400
M108 R35  (snort)
M102
G1 X-13.264 Y18.522 Z1.99 F2400
M103

(  path 39/52, 2 points,  )
G1 X-14.264 Y18.522 Z1.99 F2400
M108 R35 (squirt)
M101
G1 X-14.264 Y18.422 Z1.99 F2400
M108 R2.8 (good to go)
G1 X-14.264 Y-20.11 Z1.99 F2400
M108 R35  (snort)
M102
G1 X-14.264 Y-20.21 Z1.99 F2400
M103

(  path 40/52, 2 points,  )
G1 X-15.264 Y-20.21 Z1.99 F2400
M108 R35 (squirt)
M101
G1 X-15.264 Y-20.11 Z1.99 F2400
M108 R2.8 (good to go)
G1 X-15.264 Y18.422 Z1.99 F2400
M108 R35  (snort)
M102
G1 X-15.264 Y18.522 Z1.99 F2400
M103

(  path 41/52, 2 points,  )
G1 X-16.264 Y18.522 Z1.99 F2400
M108 R35 (squirt)
M101
G1 X-16.264 Y18.422 Z1.99 F2400
M108 R2.8 (good to go)
G1 X-16.264 Y-20.11 Z1.99 F2400
M108 R35  (snort)
M102
G1 X-16.264 Y-20.21 Z1.99 F2400
M103

(  path 42/52, 2 points,  )
G1 X-17.264 Y-20.21 Z1.99 F2400
M108 R35 (squirt)
M101
G1 X-17.264 Y-20.11 Z1.99 F2400
M108 R2.8 (good to go)
G1 X-17.264 Y18.422 Z1.99 F2400
M108 R35  (snort)
M102
G1 X-17.264 Y18.522 Z1.99 F2400
M103

(  path 43/52, 2 points,  )
G1 X-18.264 Y18.522 Z1.99 F2400
M108 R35 (squirt)
M101
G1 X-18.264 Y18.422 Z1.99 F2400
M108 R2.8 (good to go)
G1 X-18.264 Y-20.11 Z1.99 F2400
M108 R35  (snort)
M102
G1 X-18.264 Y-20.21 Z1.99 F2400
M103

(  path 44/52, 2 points,  )
G1 X-19.264 Y-20.21 Z1.99 F2400
M108 R35 (squirt)
M101
G1 X-19.264 Y-20.11 Z1.99 F2400
M108 R2.8 (good to go)
G1 X-19.264 Y18.422 Z1.99 F2400
M108 R35  (snort)
M102
G1 X-19.264 Y18.522 Z1.99 F2400
M103

(  path 45/52, 2 points,  )
G1 X-20.264 Y18.522 Z1.99 F2400
M108 R35 (squirt)
M101
G1 X-20.264 Y18.422 Z1.99 F2400
M108 R2.8 (good to go)
G1 X-20.264 Y-20.11 Z1.99 F2400
M108 R35  (snort)
M102
G1 X-20.264 Y-20.21 Z1.99 F2400
M103

(  path 46/52, 2 points,  )
G1 X-21.264 Y-20.21 Z1.99 F2400
M108 R35 (squirt)
M101
G1 X-21.264 Y-20.11 Z1.99 F2400
M108 R2.8 (good to go)
G1 X-21.264 Y18.422 Z1.99 F2400
M108 R35  (snort)
M102
G1 X-21.264 Y18.522 Z1.99 F2400
M103

(  path 47/52, 2 points,  )
G1 X-22.264 Y18.522 Z1.99 F2400
M108 R35 (squirt)
M101
G1 X-22.264 Y18.422 Z1.99 F2400
M108 R2.8 (good to go)
G1 X-22.264 Y-20.11 Z1.99 F2400
M108 R35  (snort)
M102
G1 X-22.264 Y-20.21 Z1.99 F2400
M103

(  path 48/52, 2 points,  )
G1 X-23.264 Y-20.21 Z1.99 F2400
M108 R35 (squirt)
M101
G1 X-23.264 Y-20.11 Z1.99 F2400
M108 R2.8 (good to go)
G1 X-23.264 Y18.422 Z1.99 F2400
M108 R35  (snort)
M102
G1 X-23.264 Y18.522 Z1.99 F2400
M103

(  path 49/52, 2 points,  )
G1 X-24.264 Y18.522 Z1.99 F2400
M108 R35 (squirt)
M101
G1 X-24.264 Y18.422 Z1.99 F2400
M108 R2.8 (good to go)
G1 X-24.264 Y-20.11 Z1.99 F2400
M108 R35  (snort)
M102
G1 X-24.264 Y-20.21 Z1.99 F2400
M103

(  path 50/52, 2 points,  )
G1 X-25.264 Y-20.21 Z1.99 F2400
M108 R35 (squirt)
M101
G1 X-25.264 Y-20.11 Z1.99 F2400
M108 R2.8 (good to go)
G1 X-25.264 Y18.422 Z1.99 F2400
M108 R35  (snort)
M102
G1 X-25.264 Y18.522 Z1.99 F2400
M103

(  path 51/52, 2 points,  )
G1 X-26.264 Y18.522 Z1.99 F2400
M108 R35 (squirt)
M101
G1 X-26.264 Y18.422 Z1.99 F2400
M108 R2.8 (good to go)
G1 X-26.264 Y-20.11 Z1.99 F2400
M108 R35  (snort)
M102
G1 X-26.264 Y-20.21 Z1.99 F2400
M103

(Slice 8, 1 Extruder)
G1 Z2.26 F500 (move Z)
(   Extruder 0)
( extruder 0 )
