
(Makerbot Industries)
(This file contains digital fabrication directives in gcode format)
(For your 3D printer)
(http://wiki.makerbot.com/gcode)
(* Generated by Miracle-Grue v0.0.1.0)
(* 2012-3-1 16:6:47)
(* machine name: Dub dub dub)
(* firmware revision:v0.0)
(* 3D model filename: ./test_cases/slicerCupTestCase/stls/Hollow_Pyramid.stl)
(* 1 extruder)
(* Extrude infills: 1)
(* first operation: Insets)
(* Extrude insets: 1)
(* Extrude outlines: 0)

G21 (set units to mm)
G90 (absolute positioning mode)

(setup extruder)
M103 T0 (Make sure motor for extruder 0 is stopped)
M104 S220 T0 (set temperature of extruder 0 to 220 degrees Celsius)


M109 S110 T0 (heat the build-platform to 110 Celsius)


(go to home position)
G162 X Y F2500 (home XY axes maximum)
G161 Z F800 (home Z axis minimum)
G92 Z5 (set Z to 5)
G1 Z0.0 (move Z down 0)
G161 Z F100 (home Z axis minimum)
M132 X Y Z A B (Recall stored home offsets for XYZAB axis)

G1 X52 Y-57 Z10 F5000 (go to waiting position)

M6 T0 (wait for tool 0 to reach temperature)
(note: the heated build platform temperature is tied to tool 0 for now)


(Create Anchor)
G1 Z0.6 F300    (Position Height)
M108 R4.0   (Set Extruder Speed)
M101        (Start Extruder)
G4 P1600
G1 X52 Y-57 Z0.6 F5000
G1 X49 Y-57 Z0.6 F600

(Slice 0, 1 Extruder)
G1 Z0.1 F500 (move Z)
(   Extruder 0)
( extruder 0 )
( GSWITCH T0 )
( TODO: add offset management to Gantry )

(inset 0/2 )
(  path 0/1, 9 points,  )
G1 X18.5323 Y-18.4323 Z0.1 F600
M108 R35 (squirt)
M101
G1 X18.4323 Y-18.4323 Z0.1 F2400
M108 R0.7 (good to go)
G1 X18.0232 Y-18.4323 Z0.1 F600
G1 X-18.4323 Y-18.4323 Z0.1 F600
G1 X-18.4323 Y-18.0232 Z0.1 F600
G1 X-18.4323 Y18.4323 Z0.1 F600
G1 X-18.0232 Y18.4323 Z0.1 F600
G1 X18.4323 Y18.4323 Z0.1 F600
G1 X18.4323 Y18.0232 Z0.1 F600
G1 X18.4323 Y-18.4323 Z0.1 F600
M108 R35  (snort)
M102
G1 X18.4323 Y-18.5323 Z0.1 F2400
M103

(inset 1/2 )
(  path 0/1, 9 points,  )
G1 X18.8923 Y-18.7923 Z0.1 F600
M108 R35 (squirt)
M101
G1 X18.7923 Y-18.7923 Z0.1 F2400
M108 R0.7 (good to go)
G1 X18.0232 Y-18.7923 Z0.1 F600
G1 X-18.7923 Y-18.7923 Z0.1 F600
G1 X-18.7923 Y-18.0232 Z0.1 F600
G1 X-18.7923 Y18.7923 Z0.1 F600
G1 X-18.0232 Y18.7923 Z0.1 F600
G1 X18.7923 Y18.7923 Z0.1 F600
G1 X18.7923 Y18.0232 Z0.1 F600
G1 X18.7923 Y-18.7923 Z0.1 F600
M108 R35  (snort)
M102
G1 X18.7923 Y-18.8923 Z0.1 F2400
M103

(  path 0/38, 2 points,  )
G1 X16.5923 Y-18.6479 Z0.1 F600
M108 R35 (squirt)
M101
G1 X16.4923 Y-18.6479 Z0.1 F2400
M108 R0.7 (good to go)
G1 X-16.4923 Y-18.6479 Z0.1 F600
M108 R35  (snort)
M102
G1 X-16.5923 Y-18.6479 Z0.1 F2400
M103

(  path 1/38, 2 points,  )
G1 X-16.5923 Y-17.6479 Z0.1 F600
M108 R35 (squirt)
M101
G1 X-16.4923 Y-17.6479 Z0.1 F2400
M108 R0.7 (good to go)
G1 X16.4923 Y-17.6479 Z0.1 F600
M108 R35  (snort)
M102
G1 X16.5923 Y-17.6479 Z0.1 F2400
M103

(  path 2/38, 2 points,  )
G1 X16.5923 Y-16.6479 Z0.1 F600
M108 R35 (squirt)
M101
G1 X16.4923 Y-16.6479 Z0.1 F2400
M108 R0.7 (good to go)
G1 X-16.4923 Y-16.6479 Z0.1 F600
M108 R35  (snort)
M102
G1 X-16.5923 Y-16.6479 Z0.1 F2400
M103

(  path 3/38, 2 points,  )
G1 X-16.5923 Y-15.6479 Z0.1 F600
M108 R35 (squirt)
M101
G1 X-16.4923 Y-15.6479 Z0.1 F2400
M108 R0.7 (good to go)
G1 X16.4923 Y-15.6479 Z0.1 F600
M108 R35  (snort)
M102
G1 X16.5923 Y-15.6479 Z0.1 F2400
M103

(  path 4/38, 2 points,  )
G1 X16.5923 Y-14.6479 Z0.1 F600
M108 R35 (squirt)
M101
G1 X16.4923 Y-14.6479 Z0.1 F2400
M108 R0.7 (good to go)
G1 X-16.4923 Y-14.6479 Z0.1 F600
M108 R35  (snort)
M102
G1 X-16.5923 Y-14.6479 Z0.1 F2400
M103

(  path 5/38, 2 points,  )
G1 X-16.5923 Y-13.6479 Z0.1 F600
M108 R35 (squirt)
M101
G1 X-16.4923 Y-13.6479 Z0.1 F2400
M108 R0.7 (good to go)
G1 X16.4923 Y-13.6479 Z0.1 F600
M108 R35  (snort)
M102
G1 X16.5923 Y-13.6479 Z0.1 F2400
M103

(  path 6/38, 2 points,  )
G1 X16.5923 Y-12.6479 Z0.1 F600
M108 R35 (squirt)
M101
G1 X16.4923 Y-12.6479 Z0.1 F2400
M108 R0.7 (good to go)
G1 X-16.4923 Y-12.6479 Z0.1 F600
M108 R35  (snort)
M102
G1 X-16.5923 Y-12.6479 Z0.1 F2400
M103

(  path 7/38, 2 points,  )
G1 X-16.5923 Y-11.6479 Z0.1 F600
M108 R35 (squirt)
M101
G1 X-16.4923 Y-11.6479 Z0.1 F2400
M108 R0.7 (good to go)
G1 X16.4923 Y-11.6479 Z0.1 F600
M108 R35  (snort)
M102
G1 X16.5923 Y-11.6479 Z0.1 F2400
M103

(  path 8/38, 2 points,  )
G1 X16.5923 Y-10.6479 Z0.1 F600
M108 R35 (squirt)
M101
G1 X16.4923 Y-10.6479 Z0.1 F2400
M108 R0.7 (good to go)
G1 X-16.4923 Y-10.6479 Z0.1 F600
M108 R35  (snort)
M102
G1 X-16.5923 Y-10.6479 Z0.1 F2400
M103

(  path 9/38, 2 points,  )
G1 X-16.5923 Y-9.64787 Z0.1 F600
M108 R35 (squirt)
M101
G1 X-16.4923 Y-9.64787 Z0.1 F2400
M108 R0.7 (good to go)
G1 X16.4923 Y-9.64787 Z0.1 F600
M108 R35  (snort)
M102
G1 X16.5923 Y-9.64787 Z0.1 F2400
M103

(  path 10/38, 2 points,  )
G1 X16.5923 Y-8.64787 Z0.1 F600
M108 R35 (squirt)
M101
G1 X16.4923 Y-8.64787 Z0.1 F2400
M108 R0.7 (good to go)
G1 X-16.4923 Y-8.64787 Z0.1 F600
M108 R35  (snort)
M102
G1 X-16.5923 Y-8.64787 Z0.1 F2400
M103

(  path 11/38, 2 points,  )
G1 X-16.5923 Y-7.64787 Z0.1 F600
M108 R35 (squirt)
M101
G1 X-16.4923 Y-7.64787 Z0.1 F2400
M108 R0.7 (good to go)
G1 X16.4923 Y-7.64787 Z0.1 F600
M108 R35  (snort)
M102
G1 X16.5923 Y-7.64787 Z0.1 F2400
M103

(  path 12/38, 2 points,  )
G1 X16.5923 Y-6.64787 Z0.1 F600
M108 R35 (squirt)
M101
G1 X16.4923 Y-6.64787 Z0.1 F2400
M108 R0.7 (good to go)
G1 X-16.4923 Y-6.64787 Z0.1 F600
M108 R35  (snort)
M102
G1 X-16.5923 Y-6.64787 Z0.1 F2400
M103

(  path 13/38, 2 points,  )
G1 X-16.5923 Y-5.64787 Z0.1 F600
M108 R35 (squirt)
M101
G1 X-16.4923 Y-5.64787 Z0.1 F2400
M108 R0.7 (good to go)
G1 X16.4923 Y-5.64787 Z0.1 F600
M108 R35  (snort)
M102
G1 X16.5923 Y-5.64787 Z0.1 F2400
M103

(  path 14/38, 2 points,  )
G1 X16.5923 Y-4.64787 Z0.1 F600
M108 R35 (squirt)
M101
G1 X16.4923 Y-4.64787 Z0.1 F2400
M108 R0.7 (good to go)
G1 X-16.4923 Y-4.64787 Z0.1 F600
M108 R35  (snort)
M102
G1 X-16.5923 Y-4.64787 Z0.1 F2400
M103

(  path 15/38, 2 points,  )
G1 X-16.5923 Y-3.64787 Z0.1 F600
M108 R35 (squirt)
M101
G1 X-16.4923 Y-3.64787 Z0.1 F2400
M108 R0.7 (good to go)
G1 X16.4923 Y-3.64787 Z0.1 F600
M108 R35  (snort)
M102
G1 X16.5923 Y-3.64787 Z0.1 F2400
M103

(  path 16/38, 2 points,  )
G1 X16.5923 Y-2.64787 Z0.1 F600
M108 R35 (squirt)
M101
G1 X16.4923 Y-2.64787 Z0.1 F2400
M108 R0.7 (good to go)
G1 X-16.4923 Y-2.64787 Z0.1 F600
M108 R35  (snort)
M102
G1 X-16.5923 Y-2.64787 Z0.1 F2400
M103

(  path 17/38, 2 points,  )
G1 X-16.5923 Y-1.64787 Z0.1 F600
M108 R35 (squirt)
M101
G1 X-16.4923 Y-1.64787 Z0.1 F2400
M108 R0.7 (good to go)
G1 X16.4923 Y-1.64787 Z0.1 F600
M108 R35  (snort)
M102
G1 X16.5923 Y-1.64787 Z0.1 F2400
M103

(  path 18/38, 2 points,  )
G1 X16.5923 Y-0.647874 Z0.1 F600
M108 R35 (squirt)
M101
G1 X16.4923 Y-0.647874 Z0.1 F2400
M108 R0.7 (good to go)
G1 X-16.4923 Y-0.647874 Z0.1 F600
M108 R35  (snort)
M102
G1 X-16.5923 Y-0.647874 Z0.1 F2400
M103

(  path 19/38, 2 points,  )
G1 X-16.5923 Y0.352126 Z0.1 F600
M108 R35 (squirt)
M101
G1 X-16.4923 Y0.352126 Z0.1 F2400
M108 R0.7 (good to go)
G1 X16.4923 Y0.352126 Z0.1 F600
M108 R35  (snort)
M102
G1 X16.5923 Y0.352126 Z0.1 F2400
M103

(  path 20/38, 2 points,  )
G1 X16.5923 Y1.35213 Z0.1 F600
M108 R35 (squirt)
M101
G1 X16.4923 Y1.35213 Z0.1 F2400
M108 R0.7 (good to go)
G1 X-16.4923 Y1.35213 Z0.1 F600
M108 R35  (snort)
M102
G1 X-16.5923 Y1.35213 Z0.1 F2400
M103

(  path 21/38, 2 points,  )
G1 X-16.5923 Y2.35213 Z0.1 F600
M108 R35 (squirt)
M101
G1 X-16.4923 Y2.35213 Z0.1 F2400
M108 R0.7 (good to go)
G1 X16.4923 Y2.35213 Z0.1 F600
M108 R35  (snort)
M102
G1 X16.5923 Y2.35213 Z0.1 F2400
M103

(  path 22/38, 2 points,  )
G1 X16.5923 Y3.35213 Z0.1 F600
M108 R35 (squirt)
M101
G1 X16.4923 Y3.35213 Z0.1 F2400
M108 R0.7 (good to go)
G1 X-16.4923 Y3.35213 Z0.1 F600
M108 R35  (snort)
M102
G1 X-16.5923 Y3.35213 Z0.1 F2400
M103

(  path 23/38, 2 points,  )
G1 X-16.5923 Y4.35213 Z0.1 F600
M108 R35 (squirt)
M101
G1 X-16.4923 Y4.35213 Z0.1 F2400
M108 R0.7 (good to go)
G1 X16.4923 Y4.35213 Z0.1 F600
M108 R35  (snort)
M102
G1 X16.5923 Y4.35213 Z0.1 F2400
M103

(  path 24/38, 2 points,  )
G1 X16.5923 Y5.35213 Z0.1 F600
M108 R35 (squirt)
M101
G1 X16.4923 Y5.35213 Z0.1 F2400
M108 R0.7 (good to go)
G1 X-16.4923 Y5.35213 Z0.1 F600
M108 R35  (snort)
M102
G1 X-16.5923 Y5.35213 Z0.1 F2400
M103

(  path 25/38, 2 points,  )
G1 X-16.5923 Y6.35213 Z0.1 F600
M108 R35 (squirt)
M101
G1 X-16.4923 Y6.35213 Z0.1 F2400
M108 R0.7 (good to go)
G1 X16.4923 Y6.35213 Z0.1 F600
M108 R35  (snort)
M102
G1 X16.5923 Y6.35213 Z0.1 F2400
M103

(  path 26/38, 2 points,  )
G1 X16.5923 Y7.35213 Z0.1 F600
M108 R35 (squirt)
M101
G1 X16.4923 Y7.35213 Z0.1 F2400
M108 R0.7 (good to go)
G1 X-16.4923 Y7.35213 Z0.1 F600
M108 R35  (snort)
M102
G1 X-16.5923 Y7.35213 Z0.1 F2400
M103

(  path 27/38, 2 points,  )
G1 X-16.5923 Y8.35213 Z0.1 F600
M108 R35 (squirt)
M101
G1 X-16.4923 Y8.35213 Z0.1 F2400
M108 R0.7 (good to go)
G1 X16.4923 Y8.35213 Z0.1 F600
M108 R35  (snort)
M102
G1 X16.5923 Y8.35213 Z0.1 F2400
M103

(  path 28/38, 2 points,  )
G1 X16.5923 Y9.35213 Z0.1 F600
M108 R35 (squirt)
M101
G1 X16.4923 Y9.35213 Z0.1 F2400
M108 R0.7 (good to go)
G1 X-16.4923 Y9.35213 Z0.1 F600
M108 R35  (snort)
M102
G1 X-16.5923 Y9.35213 Z0.1 F2400
M103

(  path 29/38, 2 points,  )
G1 X-16.5923 Y10.3521 Z0.1 F600
M108 R35 (squirt)
M101
G1 X-16.4923 Y10.3521 Z0.1 F2400
M108 R0.7 (good to go)
G1 X16.4923 Y10.3521 Z0.1 F600
M108 R35  (snort)
M102
G1 X16.5923 Y10.3521 Z0.1 F2400
M103

(  path 30/38, 2 points,  )
G1 X16.5923 Y11.3521 Z0.1 F600
M108 R35 (squirt)
M101
G1 X16.4923 Y11.3521 Z0.1 F2400
M108 R0.7 (good to go)
G1 X-16.4923 Y11.3521 Z0.1 F600
M108 R35  (snort)
M102
G1 X-16.5923 Y11.3521 Z0.1 F2400
M103

(  path 31/38, 2 points,  )
G1 X-16.5923 Y12.3521 Z0.1 F600
M108 R35 (squirt)
M101
G1 X-16.4923 Y12.3521 Z0.1 F2400
M108 R0.7 (good to go)
G1 X16.4923 Y12.3521 Z0.1 F600
M108 R35  (snort)
M102
G1 X16.5923 Y12.3521 Z0.1 F2400
M103

(  path 32/38, 2 points,  )
G1 X16.5923 Y13.3521 Z0.1 F600
M108 R35 (squirt)
M101
G1 X16.4923 Y13.3521 Z0.1 F2400
M108 R0.7 (good to go)
G1 X-16.4923 Y13.3521 Z0.1 F600
M108 R35  (snort)
M102
G1 X-16.5923 Y13.3521 Z0.1 F2400
M103

(  path 33/38, 2 points,  )
G1 X-16.5923 Y14.3521 Z0.1 F600
M108 R35 (squirt)
M101
G1 X-16.4923 Y14.3521 Z0.1 F2400
M108 R0.7 (good to go)
G1 X16.4923 Y14.3521 Z0.1 F600
M108 R35  (snort)
M102
G1 X16.5923 Y14.3521 Z0.1 F2400
M103

(  path 34/38, 2 points,  )
G1 X16.5923 Y15.3521 Z0.1 F600
M108 R35 (squirt)
M101
G1 X16.4923 Y15.3521 Z0.1 F2400
M108 R0.7 (good to go)
G1 X-16.4923 Y15.3521 Z0.1 F600
M108 R35  (snort)
M102
G1 X-16.5923 Y15.3521 Z0.1 F2400
M103

(  path 35/38, 2 points,  )
G1 X-16.5923 Y16.3521 Z0.1 F600
M108 R35 (squirt)
M101
G1 X-16.4923 Y16.3521 Z0.1 F2400
M108 R0.7 (good to go)
G1 X16.4923 Y16.3521 Z0.1 F600
M108 R35  (snort)
M102
G1 X16.5923 Y16.3521 Z0.1 F2400
M103

(  path 36/38, 2 points,  )
G1 X16.5923 Y17.3521 Z0.1 F600
M108 R35 (squirt)
M101
G1 X16.4923 Y17.3521 Z0.1 F2400
M108 R0.7 (good to go)
G1 X-16.4923 Y17.3521 Z0.1 F600
M108 R35  (snort)
M102
G1 X-16.5923 Y17.3521 Z0.1 F2400
M103

(  path 37/38, 2 points,  )
G1 X-16.5923 Y18.3521 Z0.1 F600
M108 R35 (squirt)
M101
G1 X-16.4923 Y18.3521 Z0.1 F2400
M108 R0.7 (good to go)
G1 X16.4923 Y18.3521 Z0.1 F600
M108 R35  (snort)
M102
G1 X16.5923 Y18.3521 Z0.1 F2400
M103

(Slice 1, 1 Extruder)
G1 Z0.37 F500 (move Z)
(   Extruder 0)
( extruder 0 )
( GSWITCH T0 )
( TODO: add offset management to Gantry )

(inset 0/2 )
(  path 0/1, 9 points,  )
G1 X18.3764 Y-18.2764 Z0.37 F2400
M108 R35 (squirt)
M101
G1 X18.2764 Y-18.2764 Z0.37 F2400
M108 R2.8 (good to go)
G1 X15.2509 Y-18.2764 Z0.37 F2400
G1 X-18.2764 Y-18.2764 Z0.37 F2400
G1 X-18.2764 Y-15.2509 Z0.37 F2400
G1 X-18.2764 Y18.2764 Z0.37 F2400
G1 X-15.2509 Y18.2764 Z0.37 F2400
G1 X18.2764 Y18.2764 Z0.37 F2400
G1 X18.2764 Y15.2509 Z0.37 F2400
G1 X18.2764 Y-18.2764 Z0.37 F2400
M108 R35  (snort)
M102
G1 X18.2764 Y-18.3764 Z0.37 F2400
M103

(inset 1/2 )
(  path 0/1, 17 points,  )
G1 X18.7364 Y-18.6364 Z0.37 F2400
M108 R35 (squirt)
M101
G1 X18.6364 Y-18.6364 Z0.37 F2400
M108 R2.8 (good to go)
G1 X18.4091 Y-18.6364 Z0.37 F2400
G1 X15.2509 Y-18.6364 Z0.37 F2400
G1 X-18.4091 Y-18.6364 Z0.37 F2400
G1 X-18.6364 Y-18.6364 Z0.37 F2400
G1 X-18.6364 Y-18.4091 Z0.37 F2400
G1 X-18.6364 Y-15.2509 Z0.37 F2400
G1 X-18.6364 Y18.4091 Z0.37 F2400
G1 X-18.6364 Y18.6364 Z0.37 F2400
G1 X-18.4091 Y18.6364 Z0.37 F2400
G1 X-15.2509 Y18.6364 Z0.37 F2400
G1 X18.4091 Y18.6364 Z0.37 F2400
G1 X18.6364 Y18.6364 Z0.37 F2400
G1 X18.6364 Y18.4091 Z0.37 F2400
G1 X18.6364 Y15.2509 Z0.37 F2400
G1 X18.6364 Y-18.4091 Z0.37 F2400
G1 X18.6364 Y-18.6364 Z0.37 F2400
M108 R35  (snort)
M102
G1 X18.6364 Y-18.7364 Z0.37 F2400
M103

(  path 0/38, 2 points,  )
G1 X-18.6479 Y-16.4364 Z0.37 F2400
M108 R35 (squirt)
M101
G1 X-18.6479 Y-16.3364 Z0.37 F2400
M108 R2.8 (good to go)
G1 X-18.6479 Y16.3364 Z0.37 F2400
M108 R35  (snort)
M102
G1 X-18.6479 Y16.4364 Z0.37 F2400
M103

(  path 1/38, 2 points,  )
G1 X-17.6479 Y16.4364 Z0.37 F2400
M108 R35 (squirt)
M101
G1 X-17.6479 Y16.3364 Z0.37 F2400
M108 R2.8 (good to go)
G1 X-17.6479 Y-16.3364 Z0.37 F2400
M108 R35  (snort)
M102
G1 X-17.6479 Y-16.4364 Z0.37 F2400
M103

(  path 2/38, 2 points,  )
G1 X-16.6479 Y-16.4364 Z0.37 F2400
M108 R35 (squirt)
M101
G1 X-16.6479 Y-16.3364 Z0.37 F2400
M108 R2.8 (good to go)
G1 X-16.6479 Y16.3364 Z0.37 F2400
M108 R35  (snort)
M102
G1 X-16.6479 Y16.4364 Z0.37 F2400
M103

(  path 3/38, 2 points,  )
G1 X-15.6479 Y16.4364 Z0.37 F2400
M108 R35 (squirt)
M101
G1 X-15.6479 Y16.3364 Z0.37 F2400
M108 R2.8 (good to go)
G1 X-15.6479 Y-16.3364 Z0.37 F2400
M108 R35  (snort)
M102
G1 X-15.6479 Y-16.4364 Z0.37 F2400
M103

(  path 4/38, 2 points,  )
G1 X-14.6479 Y-16.4364 Z0.37 F2400
M108 R35 (squirt)
M101
G1 X-14.6479 Y-16.3364 Z0.37 F2400
M108 R2.8 (good to go)
G1 X-14.6479 Y16.3364 Z0.37 F2400
M108 R35  (snort)
M102
G1 X-14.6479 Y16.4364 Z0.37 F2400
M103

(  path 5/38, 2 points,  )
G1 X-13.6479 Y16.4364 Z0.37 F2400
M108 R35 (squirt)
M101
G1 X-13.6479 Y16.3364 Z0.37 F2400
M108 R2.8 (good to go)
G1 X-13.6479 Y-16.3364 Z0.37 F2400
M108 R35  (snort)
M102
G1 X-13.6479 Y-16.4364 Z0.37 F2400
M103

(  path 6/38, 2 points,  )
G1 X-12.6479 Y-16.4364 Z0.37 F2400
M108 R35 (squirt)
M101
G1 X-12.6479 Y-16.3364 Z0.37 F2400
M108 R2.8 (good to go)
G1 X-12.6479 Y16.3364 Z0.37 F2400
M108 R35  (snort)
M102
G1 X-12.6479 Y16.4364 Z0.37 F2400
M103

(  path 7/38, 2 points,  )
G1 X-11.6479 Y16.4364 Z0.37 F2400
M108 R35 (squirt)
M101
G1 X-11.6479 Y16.3364 Z0.37 F2400
M108 R2.8 (good to go)
G1 X-11.6479 Y-16.3364 Z0.37 F2400
M108 R35  (snort)
M102
G1 X-11.6479 Y-16.4364 Z0.37 F2400
M103

(  path 8/38, 2 points,  )
G1 X-10.6479 Y-16.4364 Z0.37 F2400
M108 R35 (squirt)
M101
G1 X-10.6479 Y-16.3364 Z0.37 F2400
M108 R2.8 (good to go)
G1 X-10.6479 Y16.3364 Z0.37 F2400
M108 R35  (snort)
M102
G1 X-10.6479 Y16.4364 Z0.37 F2400
M103

(  path 9/38, 2 points,  )
G1 X-9.64787 Y16.4364 Z0.37 F2400
M108 R35 (squirt)
M101
G1 X-9.64787 Y16.3364 Z0.37 F2400
M108 R2.8 (good to go)
G1 X-9.64787 Y-16.3364 Z0.37 F2400
M108 R35  (snort)
M102
G1 X-9.64787 Y-16.4364 Z0.37 F2400
M103

(  path 10/38, 2 points,  )
G1 X-8.64787 Y-16.4364 Z0.37 F2400
M108 R35 (squirt)
M101
G1 X-8.64787 Y-16.3364 Z0.37 F2400
M108 R2.8 (good to go)
G1 X-8.64787 Y16.3364 Z0.37 F2400
M108 R35  (snort)
M102
G1 X-8.64787 Y16.4364 Z0.37 F2400
M103

(  path 11/38, 2 points,  )
G1 X-7.64787 Y16.4364 Z0.37 F2400
M108 R35 (squirt)
M101
G1 X-7.64787 Y16.3364 Z0.37 F2400
M108 R2.8 (good to go)
G1 X-7.64787 Y-16.3364 Z0.37 F2400
M108 R35  (snort)
M102
G1 X-7.64787 Y-16.4364 Z0.37 F2400
M103

(  path 12/38, 2 points,  )
G1 X-6.64787 Y-16.4364 Z0.37 F2400
M108 R35 (squirt)
M101
G1 X-6.64787 Y-16.3364 Z0.37 F2400
M108 R2.8 (good to go)
G1 X-6.64787 Y16.3364 Z0.37 F2400
M108 R35  (snort)
M102
G1 X-6.64787 Y16.4364 Z0.37 F2400
M103

(  path 13/38, 2 points,  )
G1 X-5.64787 Y16.4364 Z0.37 F2400
M108 R35 (squirt)
M101
G1 X-5.64787 Y16.3364 Z0.37 F2400
M108 R2.8 (good to go)
G1 X-5.64787 Y-16.3364 Z0.37 F2400
M108 R35  (snort)
M102
G1 X-5.64787 Y-16.4364 Z0.37 F2400
M103

(  path 14/38, 2 points,  )
G1 X-4.64787 Y-16.4364 Z0.37 F2400
M108 R35 (squirt)
M101
G1 X-4.64787 Y-16.3364 Z0.37 F2400
M108 R2.8 (good to go)
G1 X-4.64787 Y16.3364 Z0.37 F2400
M108 R35  (snort)
M102
G1 X-4.64787 Y16.4364 Z0.37 F2400
M103

(  path 15/38, 2 points,  )
G1 X-3.64787 Y16.4364 Z0.37 F2400
M108 R35 (squirt)
M101
G1 X-3.64787 Y16.3364 Z0.37 F2400
M108 R2.8 (good to go)
G1 X-3.64787 Y-16.3364 Z0.37 F2400
M108 R35  (snort)
M102
G1 X-3.64787 Y-16.4364 Z0.37 F2400
M103

(  path 16/38, 2 points,  )
G1 X-2.64787 Y-16.4364 Z0.37 F2400
M108 R35 (squirt)
M101
G1 X-2.64787 Y-16.3364 Z0.37 F2400
M108 R2.8 (good to go)
G1 X-2.64787 Y16.3364 Z0.37 F2400
M108 R35  (snort)
M102
G1 X-2.64787 Y16.4364 Z0.37 F2400
M103

(  path 17/38, 2 points,  )
G1 X-1.64787 Y16.4364 Z0.37 F2400
M108 R35 (squirt)
M101
G1 X-1.64787 Y16.3364 Z0.37 F2400
M108 R2.8 (good to go)
G1 X-1.64787 Y-16.3364 Z0.37 F2400
M108 R35  (snort)
M102
G1 X-1.64787 Y-16.4364 Z0.37 F2400
M103

(  path 18/38, 2 points,  )
G1 X-0.647874 Y-16.4364 Z0.37 F2400
M108 R35 (squirt)
M101
G1 X-0.647874 Y-16.3364 Z0.37 F2400
M108 R2.8 (good to go)
G1 X-0.647874 Y16.3364 Z0.37 F2400
M108 R35  (snort)
M102
G1 X-0.647874 Y16.4364 Z0.37 F2400
M103

(  path 19/38, 2 points,  )
G1 X0.352126 Y16.4364 Z0.37 F2400
M108 R35 (squirt)
M101
G1 X0.352126 Y16.3364 Z0.37 F2400
M108 R2.8 (good to go)
G1 X0.352126 Y-16.3364 Z0.37 F2400
M108 R35  (snort)
M102
G1 X0.352126 Y-16.4364 Z0.37 F2400
M103

(  path 20/38, 2 points,  )
G1 X1.35213 Y-16.4364 Z0.37 F2400
M108 R35 (squirt)
M101
G1 X1.35213 Y-16.3364 Z0.37 F2400
M108 R2.8 (good to go)
G1 X1.35213 Y16.3364 Z0.37 F2400
M108 R35  (snort)
M102
G1 X1.35213 Y16.4364 Z0.37 F2400
M103

(  path 21/38, 2 points,  )
G1 X2.35213 Y16.4364 Z0.37 F2400
M108 R35 (squirt)
M101
G1 X2.35213 Y16.3364 Z0.37 F2400
M108 R2.8 (good to go)
G1 X2.35213 Y-16.3364 Z0.37 F2400
M108 R35  (snort)
M102
G1 X2.35213 Y-16.4364 Z0.37 F2400
M103

(  path 22/38, 2 points,  )
G1 X3.35213 Y-16.4364 Z0.37 F2400
M108 R35 (squirt)
M101
G1 X3.35213 Y-16.3364 Z0.37 F2400
M108 R2.8 (good to go)
G1 X3.35213 Y16.3364 Z0.37 F2400
M108 R35  (snort)
M102
G1 X3.35213 Y16.4364 Z0.37 F2400
M103

(  path 23/38, 2 points,  )
G1 X4.35213 Y16.4364 Z0.37 F2400
M108 R35 (squirt)
M101
G1 X4.35213 Y16.3364 Z0.37 F2400
M108 R2.8 (good to go)
G1 X4.35213 Y-16.3364 Z0.37 F2400
M108 R35  (snort)
M102
G1 X4.35213 Y-16.4364 Z0.37 F2400
M103

(  path 24/38, 2 points,  )
G1 X5.35213 Y-16.4364 Z0.37 F2400
M108 R35 (squirt)
M101
G1 X5.35213 Y-16.3364 Z0.37 F2400
M108 R2.8 (good to go)
G1 X5.35213 Y16.3364 Z0.37 F2400
M108 R35  (snort)
M102
G1 X5.35213 Y16.4364 Z0.37 F2400
M103

(  path 25/38, 2 points,  )
G1 X6.35213 Y16.4364 Z0.37 F2400
M108 R35 (squirt)
M101
G1 X6.35213 Y16.3364 Z0.37 F2400
M108 R2.8 (good to go)
G1 X6.35213 Y-16.3364 Z0.37 F2400
M108 R35  (snort)
M102
G1 X6.35213 Y-16.4364 Z0.37 F2400
M103

(  path 26/38, 2 points,  )
G1 X7.35213 Y-16.4364 Z0.37 F2400
M108 R35 (squirt)
M101
G1 X7.35213 Y-16.3364 Z0.37 F2400
M108 R2.8 (good to go)
G1 X7.35213 Y16.3364 Z0.37 F2400
M108 R35  (snort)
M102
G1 X7.35213 Y16.4364 Z0.37 F2400
M103

(  path 27/38, 2 points,  )
G1 X8.35213 Y16.4364 Z0.37 F2400
M108 R35 (squirt)
M101
G1 X8.35213 Y16.3364 Z0.37 F2400
M108 R2.8 (good to go)
G1 X8.35213 Y-16.3364 Z0.37 F2400
M108 R35  (snort)
M102
G1 X8.35213 Y-16.4364 Z0.37 F2400
M103

(  path 28/38, 2 points,  )
G1 X9.35213 Y-16.4364 Z0.37 F2400
M108 R35 (squirt)
M101
G1 X9.35213 Y-16.3364 Z0.37 F2400
M108 R2.8 (good to go)
G1 X9.35213 Y16.3364 Z0.37 F2400
M108 R35  (snort)
M102
G1 X9.35213 Y16.4364 Z0.37 F2400
M103

(  path 29/38, 2 points,  )
G1 X10.3521 Y16.4364 Z0.37 F2400
M108 R35 (squirt)
M101
G1 X10.3521 Y16.3364 Z0.37 F2400
M108 R2.8 (good to go)
G1 X10.3521 Y-16.3364 Z0.37 F2400
M108 R35  (snort)
M102
G1 X10.3521 Y-16.4364 Z0.37 F2400
M103

(  path 30/38, 2 points,  )
G1 X11.3521 Y-16.4364 Z0.37 F2400
M108 R35 (squirt)
M101
G1 X11.3521 Y-16.3364 Z0.37 F2400
M108 R2.8 (good to go)
G1 X11.3521 Y16.3364 Z0.37 F2400
M108 R35  (snort)
M102
G1 X11.3521 Y16.4364 Z0.37 F2400
M103

(  path 31/38, 2 points,  )
G1 X12.3521 Y16.4364 Z0.37 F2400
M108 R35 (squirt)
M101
G1 X12.3521 Y16.3364 Z0.37 F2400
M108 R2.8 (good to go)
G1 X12.3521 Y-16.3364 Z0.37 F2400
M108 R35  (snort)
M102
G1 X12.3521 Y-16.4364 Z0.37 F2400
M103

(  path 32/38, 2 points,  )
G1 X13.3521 Y-16.4364 Z0.37 F2400
M108 R35 (squirt)
M101
G1 X13.3521 Y-16.3364 Z0.37 F2400
M108 R2.8 (good to go)
G1 X13.3521 Y16.3364 Z0.37 F2400
M108 R35  (snort)
M102
G1 X13.3521 Y16.4364 Z0.37 F2400
M103

(  path 33/38, 2 points,  )
G1 X14.3521 Y16.4364 Z0.37 F2400
M108 R35 (squirt)
M101
G1 X14.3521 Y16.3364 Z0.37 F2400
M108 R2.8 (good to go)
G1 X14.3521 Y-16.3364 Z0.37 F2400
M108 R35  (snort)
M102
G1 X14.3521 Y-16.4364 Z0.37 F2400
M103

(  path 34/38, 2 points,  )
G1 X15.3521 Y-16.4364 Z0.37 F2400
M108 R35 (squirt)
M101
G1 X15.3521 Y-16.3364 Z0.37 F2400
M108 R2.8 (good to go)
G1 X15.3521 Y16.3364 Z0.37 F2400
M108 R35  (snort)
M102
G1 X15.3521 Y16.4364 Z0.37 F2400
M103

(  path 35/38, 2 points,  )
G1 X16.3521 Y16.4364 Z0.37 F2400
M108 R35 (squirt)
M101
G1 X16.3521 Y16.3364 Z0.37 F2400
M108 R2.8 (good to go)
G1 X16.3521 Y-16.3364 Z0.37 F2400
M108 R35  (snort)
M102
G1 X16.3521 Y-16.4364 Z0.37 F2400
M103

(  path 36/38, 2 points,  )
G1 X17.3521 Y-16.4364 Z0.37 F2400
M108 R35 (squirt)
M101
G1 X17.3521 Y-16.3364 Z0.37 F2400
M108 R2.8 (good to go)
G1 X17.3521 Y16.3364 Z0.37 F2400
M108 R35  (snort)
M102
G1 X17.3521 Y16.4364 Z0.37 F2400
M103

(  path 37/38, 2 points,  )
G1 X18.3521 Y16.4364 Z0.37 F2400
M108 R35 (squirt)
M101
G1 X18.3521 Y16.3364 Z0.37 F2400
M108 R2.8 (good to go)
G1 X18.3521 Y-16.3364 Z0.37 F2400
M108 R35  (snort)
M102
G1 X18.3521 Y-16.4364 Z0.37 F2400
M103

(Slice 2, 1 Extruder)
G1 Z0.64 F500 (move Z)
(   Extruder 0)
( extruder 0 )
( GSWITCH T0 )
( TODO: add offset management to Gantry )

(inset 0/2 )
(  path 0/1, 17 points,  )
G1 X18.2205 Y-18.1205 Z0.64 F2400
M108 R35 (squirt)
M101
G1 X18.1205 Y-18.1205 Z0.64 F2400
M108 R2.8 (good to go)
G1 X17.9415 Y-18.1205 Z0.64 F2400
G1 X12.4785 Y-18.1205 Z0.64 F2400
G1 X-17.9415 Y-18.1205 Z0.64 F2400
G1 X-18.1205 Y-18.1205 Z0.64 F2400
G1 X-18.1205 Y-17.9415 Z0.64 F2400
G1 X-18.1205 Y-12.4785 Z0.64 F2400
G1 X-18.1205 Y17.9415 Z0.64 F2400
G1 X-18.1205 Y18.1205 Z0.64 F2400
G1 X-17.9415 Y18.1205 Z0.64 F2400
G1 X-12.4785 Y18.1205 Z0.64 F2400
G1 X17.9415 Y18.1205 Z0.64 F2400
G1 X18.1205 Y18.1205 Z0.64 F2400
G1 X18.1205 Y17.9415 Z0.64 F2400
G1 X18.1205 Y12.4785 Z0.64 F2400
G1 X18.1205 Y-17.9415 Z0.64 F2400
G1 X18.1205 Y-18.1205 Z0.64 F2400
M108 R35  (snort)
M102
G1 X18.1205 Y-18.2205 Z0.64 F2400
M103

(inset 1/2 )
(  path 0/1, 17 points,  )
G1 X18.5805 Y-18.4805 Z0.64 F2400
M108 R35 (squirt)
M101
G1 X18.4805 Y-18.4805 Z0.64 F2400
M108 R2.8 (good to go)
G1 X17.9415 Y-18.4805 Z0.64 F2400
G1 X12.4785 Y-18.4805 Z0.64 F2400
G1 X-17.9415 Y-18.4805 Z0.64 F2400
G1 X-18.4805 Y-18.4805 Z0.64 F2400
G1 X-18.4805 Y-17.9415 Z0.64 F2400
G1 X-18.4805 Y-12.4785 Z0.64 F2400
G1 X-18.4805 Y17.9415 Z0.64 F2400
G1 X-18.4805 Y18.4805 Z0.64 F2400
G1 X-17.9415 Y18.4805 Z0.64 F2400
G1 X-12.4785 Y18.4805 Z0.64 F2400
G1 X17.9415 Y18.4805 Z0.64 F2400
G1 X18.4805 Y18.4805 Z0.64 F2400
G1 X18.4805 Y17.9415 Z0.64 F2400
G1 X18.4805 Y12.4785 Z0.64 F2400
G1 X18.4805 Y-17.9415 Z0.64 F2400
G1 X18.4805 Y-18.4805 Z0.64 F2400
M108 R35  (snort)
M102
G1 X18.4805 Y-18.5805 Z0.64 F2400
M103

(  path 0/38, 2 points,  )
G1 X-16.2805 Y18.6479 Z0.64 F2400
M108 R35 (squirt)
M101
G1 X-16.1805 Y18.6479 Z0.64 F2400
M108 R2.8 (good to go)
G1 X16.1805 Y18.6479 Z0.64 F2400
M108 R35  (snort)
M102
G1 X16.2805 Y18.6479 Z0.64 F2400
M103

(  path 1/38, 2 points,  )
G1 X16.2805 Y17.6479 Z0.64 F2400
M108 R35 (squirt)
M101
G1 X16.1805 Y17.6479 Z0.64 F2400
M108 R2.8 (good to go)
G1 X-16.1805 Y17.6479 Z0.64 F2400
M108 R35  (snort)
M102
G1 X-16.2805 Y17.6479 Z0.64 F2400
M103

(  path 2/38, 2 points,  )
G1 X-16.2805 Y16.6479 Z0.64 F2400
M108 R35 (squirt)
M101
G1 X-16.1805 Y16.6479 Z0.64 F2400
M108 R2.8 (good to go)
G1 X16.1805 Y16.6479 Z0.64 F2400
M108 R35  (snort)
M102
G1 X16.2805 Y16.6479 Z0.64 F2400
M103

(  path 3/38, 2 points,  )
G1 X16.2805 Y15.6479 Z0.64 F2400
M108 R35 (squirt)
M101
G1 X16.1805 Y15.6479 Z0.64 F2400
M108 R2.8 (good to go)
G1 X-16.1805 Y15.6479 Z0.64 F2400
M108 R35  (snort)
M102
G1 X-16.2805 Y15.6479 Z0.64 F2400
M103

(  path 4/38, 2 points,  )
G1 X-16.2805 Y14.6479 Z0.64 F2400
M108 R35 (squirt)
M101
G1 X-16.1805 Y14.6479 Z0.64 F2400
M108 R2.8 (good to go)
G1 X16.1805 Y14.6479 Z0.64 F2400
M108 R35  (snort)
M102
G1 X16.2805 Y14.6479 Z0.64 F2400
M103

(  path 5/38, 2 points,  )
G1 X16.2805 Y13.6479 Z0.64 F2400
M108 R35 (squirt)
M101
G1 X16.1805 Y13.6479 Z0.64 F2400
M108 R2.8 (good to go)
G1 X-16.1805 Y13.6479 Z0.64 F2400
M108 R35  (snort)
M102
G1 X-16.2805 Y13.6479 Z0.64 F2400
M103

(  path 6/38, 2 points,  )
G1 X-16.2805 Y12.6479 Z0.64 F2400
M108 R35 (squirt)
M101
G1 X-16.1805 Y12.6479 Z0.64 F2400
M108 R2.8 (good to go)
G1 X16.1805 Y12.6479 Z0.64 F2400
M108 R35  (snort)
M102
G1 X16.2805 Y12.6479 Z0.64 F2400
M103

(  path 7/38, 2 points,  )
G1 X16.2805 Y11.6479 Z0.64 F2400
M108 R35 (squirt)
M101
G1 X16.1805 Y11.6479 Z0.64 F2400
M108 R2.8 (good to go)
G1 X-16.1805 Y11.6479 Z0.64 F2400
M108 R35  (snort)
M102
G1 X-16.2805 Y11.6479 Z0.64 F2400
M103

(  path 8/38, 2 points,  )
G1 X-16.2805 Y10.6479 Z0.64 F2400
M108 R35 (squirt)
M101
G1 X-16.1805 Y10.6479 Z0.64 F2400
M108 R2.8 (good to go)
G1 X16.1805 Y10.6479 Z0.64 F2400
M108 R35  (snort)
M102
G1 X16.2805 Y10.6479 Z0.64 F2400
M103

(  path 9/38, 2 points,  )
G1 X16.2805 Y9.64787 Z0.64 F2400
M108 R35 (squirt)
M101
G1 X16.1805 Y9.64787 Z0.64 F2400
M108 R2.8 (good to go)
G1 X-16.1805 Y9.64787 Z0.64 F2400
M108 R35  (snort)
M102
G1 X-16.2805 Y9.64787 Z0.64 F2400
M103

(  path 10/38, 2 points,  )
G1 X-16.2805 Y8.64787 Z0.64 F2400
M108 R35 (squirt)
M101
G1 X-16.1805 Y8.64787 Z0.64 F2400
M108 R2.8 (good to go)
G1 X16.1805 Y8.64787 Z0.64 F2400
M108 R35  (snort)
M102
G1 X16.2805 Y8.64787 Z0.64 F2400
M103

(  path 11/38, 2 points,  )
G1 X16.2805 Y7.64787 Z0.64 F2400
M108 R35 (squirt)
M101
G1 X16.1805 Y7.64787 Z0.64 F2400
M108 R2.8 (good to go)
G1 X-16.1805 Y7.64787 Z0.64 F2400
M108 R35  (snort)
M102
G1 X-16.2805 Y7.64787 Z0.64 F2400
M103

(  path 12/38, 2 points,  )
G1 X-16.2805 Y6.64787 Z0.64 F2400
M108 R35 (squirt)
M101
G1 X-16.1805 Y6.64787 Z0.64 F2400
M108 R2.8 (good to go)
G1 X16.1805 Y6.64787 Z0.64 F2400
M108 R35  (snort)
M102
G1 X16.2805 Y6.64787 Z0.64 F2400
M103

(  path 13/38, 2 points,  )
G1 X16.2805 Y5.64787 Z0.64 F2400
M108 R35 (squirt)
M101
G1 X16.1805 Y5.64787 Z0.64 F2400
M108 R2.8 (good to go)
G1 X-16.1805 Y5.64787 Z0.64 F2400
M108 R35  (snort)
M102
G1 X-16.2805 Y5.64787 Z0.64 F2400
M103

(  path 14/38, 2 points,  )
G1 X-16.2805 Y4.64787 Z0.64 F2400
M108 R35 (squirt)
M101
G1 X-16.1805 Y4.64787 Z0.64 F2400
M108 R2.8 (good to go)
G1 X16.1805 Y4.64787 Z0.64 F2400
M108 R35  (snort)
M102
G1 X16.2805 Y4.64787 Z0.64 F2400
M103

(  path 15/38, 2 points,  )
G1 X16.2805 Y3.64787 Z0.64 F2400
M108 R35 (squirt)
M101
G1 X16.1805 Y3.64787 Z0.64 F2400
M108 R2.8 (good to go)
G1 X-16.1805 Y3.64787 Z0.64 F2400
M108 R35  (snort)
M102
G1 X-16.2805 Y3.64787 Z0.64 F2400
M103

(  path 16/38, 2 points,  )
G1 X-16.2805 Y2.64787 Z0.64 F2400
M108 R35 (squirt)
M101
G1 X-16.1805 Y2.64787 Z0.64 F2400
M108 R2.8 (good to go)
G1 X16.1805 Y2.64787 Z0.64 F2400
M108 R35  (snort)
M102
G1 X16.2805 Y2.64787 Z0.64 F2400
M103

(  path 17/38, 2 points,  )
G1 X16.2805 Y1.64787 Z0.64 F2400
M108 R35 (squirt)
M101
G1 X16.1805 Y1.64787 Z0.64 F2400
M108 R2.8 (good to go)
G1 X-16.1805 Y1.64787 Z0.64 F2400
M108 R35  (snort)
M102
G1 X-16.2805 Y1.64787 Z0.64 F2400
M103

(  path 18/38, 2 points,  )
G1 X-16.2805 Y0.647874 Z0.64 F2400
M108 R35 (squirt)
M101
G1 X-16.1805 Y0.647874 Z0.64 F2400
M108 R2.8 (good to go)
G1 X16.1805 Y0.647874 Z0.64 F2400
M108 R35  (snort)
M102
G1 X16.2805 Y0.647874 Z0.64 F2400
M103

(  path 19/38, 2 points,  )
G1 X16.2805 Y-0.352126 Z0.64 F2400
M108 R35 (squirt)
M101
G1 X16.1805 Y-0.352126 Z0.64 F2400
M108 R2.8 (good to go)
G1 X-16.1805 Y-0.352126 Z0.64 F2400
M108 R35  (snort)
M102
G1 X-16.2805 Y-0.352126 Z0.64 F2400
M103

(  path 20/38, 2 points,  )
G1 X-16.2805 Y-1.35213 Z0.64 F2400
M108 R35 (squirt)
M101
G1 X-16.1805 Y-1.35213 Z0.64 F2400
M108 R2.8 (good to go)
G1 X16.1805 Y-1.35213 Z0.64 F2400
M108 R35  (snort)
M102
G1 X16.2805 Y-1.35213 Z0.64 F2400
M103

(  path 21/38, 2 points,  )
G1 X16.2805 Y-2.35213 Z0.64 F2400
M108 R35 (squirt)
M101
G1 X16.1805 Y-2.35213 Z0.64 F2400
M108 R2.8 (good to go)
G1 X-16.1805 Y-2.35213 Z0.64 F2400
M108 R35  (snort)
M102
G1 X-16.2805 Y-2.35213 Z0.64 F2400
M103

(  path 22/38, 2 points,  )
G1 X-16.2805 Y-3.35213 Z0.64 F2400
M108 R35 (squirt)
M101
G1 X-16.1805 Y-3.35213 Z0.64 F2400
M108 R2.8 (good to go)
G1 X16.1805 Y-3.35213 Z0.64 F2400
M108 R35  (snort)
M102
G1 X16.2805 Y-3.35213 Z0.64 F2400
M103

(  path 23/38, 2 points,  )
G1 X16.2805 Y-4.35213 Z0.64 F2400
M108 R35 (squirt)
M101
G1 X16.1805 Y-4.35213 Z0.64 F2400
M108 R2.8 (good to go)
G1 X-16.1805 Y-4.35213 Z0.64 F2400
M108 R35  (snort)
M102
G1 X-16.2805 Y-4.35213 Z0.64 F2400
M103

(  path 24/38, 2 points,  )
G1 X-16.2805 Y-5.35213 Z0.64 F2400
M108 R35 (squirt)
M101
G1 X-16.1805 Y-5.35213 Z0.64 F2400
M108 R2.8 (good to go)
G1 X16.1805 Y-5.35213 Z0.64 F2400
M108 R35  (snort)
M102
G1 X16.2805 Y-5.35213 Z0.64 F2400
M103

(  path 25/38, 2 points,  )
G1 X16.2805 Y-6.35213 Z0.64 F2400
M108 R35 (squirt)
M101
G1 X16.1805 Y-6.35213 Z0.64 F2400
M108 R2.8 (good to go)
G1 X-16.1805 Y-6.35213 Z0.64 F2400
M108 R35  (snort)
M102
G1 X-16.2805 Y-6.35213 Z0.64 F2400
M103

(  path 26/38, 2 points,  )
G1 X-16.2805 Y-7.35213 Z0.64 F2400
M108 R35 (squirt)
M101
G1 X-16.1805 Y-7.35213 Z0.64 F2400
M108 R2.8 (good to go)
G1 X16.1805 Y-7.35213 Z0.64 F2400
M108 R35  (snort)
M102
G1 X16.2805 Y-7.35213 Z0.64 F2400
M103

(  path 27/38, 2 points,  )
G1 X16.2805 Y-8.35213 Z0.64 F2400
M108 R35 (squirt)
M101
G1 X16.1805 Y-8.35213 Z0.64 F2400
M108 R2.8 (good to go)
G1 X-16.1805 Y-8.35213 Z0.64 F2400
M108 R35  (snort)
M102
G1 X-16.2805 Y-8.35213 Z0.64 F2400
M103

(  path 28/38, 2 points,  )
G1 X-16.2805 Y-9.35213 Z0.64 F2400
M108 R35 (squirt)
M101
G1 X-16.1805 Y-9.35213 Z0.64 F2400
M108 R2.8 (good to go)
G1 X16.1805 Y-9.35213 Z0.64 F2400
M108 R35  (snort)
M102
G1 X16.2805 Y-9.35213 Z0.64 F2400
M103

(  path 29/38, 2 points,  )
G1 X16.2805 Y-10.3521 Z0.64 F2400
M108 R35 (squirt)
M101
G1 X16.1805 Y-10.3521 Z0.64 F2400
M108 R2.8 (good to go)
G1 X-16.1805 Y-10.3521 Z0.64 F2400
M108 R35  (snort)
M102
G1 X-16.2805 Y-10.3521 Z0.64 F2400
M103

(  path 30/38, 2 points,  )
G1 X-16.2805 Y-11.3521 Z0.64 F2400
M108 R35 (squirt)
M101
G1 X-16.1805 Y-11.3521 Z0.64 F2400
M108 R2.8 (good to go)
G1 X16.1805 Y-11.3521 Z0.64 F2400
M108 R35  (snort)
M102
G1 X16.2805 Y-11.3521 Z0.64 F2400
M103

(  path 31/38, 2 points,  )
G1 X16.2805 Y-12.3521 Z0.64 F2400
M108 R35 (squirt)
M101
G1 X16.1805 Y-12.3521 Z0.64 F2400
M108 R2.8 (good to go)
G1 X-16.1805 Y-12.3521 Z0.64 F2400
M108 R35  (snort)
M102
G1 X-16.2805 Y-12.3521 Z0.64 F2400
M103

(  path 32/38, 2 points,  )
G1 X-16.2805 Y-13.3521 Z0.64 F2400
M108 R35 (squirt)
M101
G1 X-16.1805 Y-13.3521 Z0.64 F2400
M108 R2.8 (good to go)
G1 X16.1805 Y-13.3521 Z0.64 F2400
M108 R35  (snort)
M102
G1 X16.2805 Y-13.3521 Z0.64 F2400
M103

(  path 33/38, 2 points,  )
G1 X16.2805 Y-14.3521 Z0.64 F2400
M108 R35 (squirt)
M101
G1 X16.1805 Y-14.3521 Z0.64 F2400
M108 R2.8 (good to go)
G1 X-16.1805 Y-14.3521 Z0.64 F2400
M108 R35  (snort)
M102
G1 X-16.2805 Y-14.3521 Z0.64 F2400
M103

(  path 34/38, 2 points,  )
G1 X-16.2805 Y-15.3521 Z0.64 F2400
M108 R35 (squirt)
M101
G1 X-16.1805 Y-15.3521 Z0.64 F2400
M108 R2.8 (good to go)
G1 X16.1805 Y-15.3521 Z0.64 F2400
M108 R35  (snort)
M102
G1 X16.2805 Y-15.3521 Z0.64 F2400
M103

(  path 35/38, 2 points,  )
G1 X16.2805 Y-16.3521 Z0.64 F2400
M108 R35 (squirt)
M101
G1 X16.1805 Y-16.3521 Z0.64 F2400
M108 R2.8 (good to go)
G1 X-16.1805 Y-16.3521 Z0.64 F2400
M108 R35  (snort)
M102
G1 X-16.2805 Y-16.3521 Z0.64 F2400
M103

(  path 36/38, 2 points,  )
G1 X-16.2805 Y-17.3521 Z0.64 F2400
M108 R35 (squirt)
M101
G1 X-16.1805 Y-17.3521 Z0.64 F2400
M108 R2.8 (good to go)
G1 X16.1805 Y-17.3521 Z0.64 F2400
M108 R35  (snort)
M102
G1 X16.2805 Y-17.3521 Z0.64 F2400
M103

(  path 37/38, 2 points,  )
G1 X16.2805 Y-18.3521 Z0.64 F2400
M108 R35 (squirt)
M101
G1 X16.1805 Y-18.3521 Z0.64 F2400
M108 R2.8 (good to go)
G1 X-16.1805 Y-18.3521 Z0.64 F2400
M108 R35  (snort)
M102
G1 X-16.2805 Y-18.3521 Z0.64 F2400
M103

(Slice 3, 1 Extruder)
G1 Z0.91 F500 (move Z)
(   Extruder 0)
( extruder 0 )
( GSWITCH T0 )
( TODO: add offset management to Gantry )

(inset 0/2 )
(  path 0/1, 17 points,  )
G1 X18.0646 Y-17.9646 Z0.91 F2400
M108 R35 (squirt)
M101
G1 X17.9646 Y-17.9646 Z0.91 F2400
M108 R2.8 (good to go)
G1 X17.4738 Y-17.9646 Z0.91 F2400
G1 X9.70617 Y-17.9646 Z0.91 F2400
G1 X-17.4738 Y-17.9646 Z0.91 F2400
G1 X-17.9646 Y-17.9646 Z0.91 F2400
G1 X-17.9646 Y-17.4738 Z0.91 F2400
G1 X-17.9646 Y-9.70617 Z0.91 F2400
G1 X-17.9646 Y17.4738 Z0.91 F2400
G1 X-17.9646 Y17.9646 Z0.91 F2400
G1 X-17.4738 Y17.9646 Z0.91 F2400
G1 X-9.70617 Y17.9646 Z0.91 F2400
G1 X17.4738 Y17.9646 Z0.91 F2400
G1 X17.9646 Y17.9646 Z0.91 F2400
G1 X17.9646 Y17.4738 Z0.91 F2400
G1 X17.9646 Y9.70617 Z0.91 F2400
G1 X17.9646 Y-17.4738 Z0.91 F2400
G1 X17.9646 Y-17.9646 Z0.91 F2400
M108 R35  (snort)
M102
G1 X17.9646 Y-18.0646 Z0.91 F2400
M103

(inset 1/2 )
(  path 0/1, 17 points,  )
G1 X18.4246 Y-18.3246 Z0.91 F2400
M108 R35 (squirt)
M101
G1 X18.3246 Y-18.3246 Z0.91 F2400
M108 R2.8 (good to go)
G1 X17.4738 Y-18.3246 Z0.91 F2400
G1 X9.70617 Y-18.3246 Z0.91 F2400
G1 X-17.4738 Y-18.3246 Z0.91 F2400
G1 X-18.3246 Y-18.3246 Z0.91 F2400
G1 X-18.3246 Y-17.4738 Z0.91 F2400
G1 X-18.3246 Y-9.70617 Z0.91 F2400
G1 X-18.3246 Y17.4738 Z0.91 F2400
G1 X-18.3246 Y18.3246 Z0.91 F2400
G1 X-17.4738 Y18.3246 Z0.91 F2400
G1 X-9.70617 Y18.3246 Z0.91 F2400
G1 X17.4738 Y18.3246 Z0.91 F2400
G1 X18.3246 Y18.3246 Z0.91 F2400
G1 X18.3246 Y17.4738 Z0.91 F2400
G1 X18.3246 Y9.70617 Z0.91 F2400
G1 X18.3246 Y-17.4738 Z0.91 F2400
G1 X18.3246 Y-18.3246 Z0.91 F2400
M108 R35  (snort)
M102
G1 X18.3246 Y-18.4246 Z0.91 F2400
M103

(  path 0/37, 2 points,  )
G1 X17.6479 Y-16.1246 Z0.91 F2400
M108 R35 (squirt)
M101
G1 X17.6479 Y-16.0246 Z0.91 F2400
M108 R2.8 (good to go)
G1 X17.6479 Y16.0246 Z0.91 F2400
M108 R35  (snort)
M102
G1 X17.6479 Y16.1246 Z0.91 F2400
M103

(  path 1/37, 2 points,  )
G1 X16.6479 Y16.1246 Z0.91 F2400
M108 R35 (squirt)
M101
G1 X16.6479 Y16.0246 Z0.91 F2400
M108 R2.8 (good to go)
G1 X16.6479 Y-16.0246 Z0.91 F2400
M108 R35  (snort)
M102
G1 X16.6479 Y-16.1246 Z0.91 F2400
M103

(  path 2/37, 2 points,  )
G1 X15.6479 Y-16.1246 Z0.91 F2400
M108 R35 (squirt)
M101
G1 X15.6479 Y-16.0246 Z0.91 F2400
M108 R2.8 (good to go)
G1 X15.6479 Y16.0246 Z0.91 F2400
M108 R35  (snort)
M102
G1 X15.6479 Y16.1246 Z0.91 F2400
M103

(  path 3/37, 2 points,  )
G1 X14.6479 Y16.1246 Z0.91 F2400
M108 R35 (squirt)
M101
G1 X14.6479 Y16.0246 Z0.91 F2400
M108 R2.8 (good to go)
G1 X14.6479 Y-16.0246 Z0.91 F2400
M108 R35  (snort)
M102
G1 X14.6479 Y-16.1246 Z0.91 F2400
M103

(  path 4/37, 2 points,  )
G1 X13.6479 Y-16.1246 Z0.91 F2400
M108 R35 (squirt)
M101
G1 X13.6479 Y-16.0246 Z0.91 F2400
M108 R2.8 (good to go)
G1 X13.6479 Y16.0246 Z0.91 F2400
M108 R35  (snort)
M102
G1 X13.6479 Y16.1246 Z0.91 F2400
M103

(  path 5/37, 2 points,  )
G1 X12.6479 Y16.1246 Z0.91 F2400
M108 R35 (squirt)
M101
G1 X12.6479 Y16.0246 Z0.91 F2400
M108 R2.8 (good to go)
G1 X12.6479 Y-16.0246 Z0.91 F2400
M108 R35  (snort)
M102
G1 X12.6479 Y-16.1246 Z0.91 F2400
M103

(  path 6/37, 2 points,  )
G1 X11.6479 Y-16.1246 Z0.91 F2400
M108 R35 (squirt)
M101
G1 X11.6479 Y-16.0246 Z0.91 F2400
M108 R2.8 (good to go)
G1 X11.6479 Y16.0246 Z0.91 F2400
M108 R35  (snort)
M102
G1 X11.6479 Y16.1246 Z0.91 F2400
M103

(  path 7/37, 2 points,  )
G1 X10.6479 Y16.1246 Z0.91 F2400
M108 R35 (squirt)
M101
G1 X10.6479 Y16.0246 Z0.91 F2400
M108 R2.8 (good to go)
G1 X10.6479 Y-16.0246 Z0.91 F2400
M108 R35  (snort)
M102
G1 X10.6479 Y-16.1246 Z0.91 F2400
M103

(  path 8/37, 2 points,  )
G1 X9.64787 Y-16.1246 Z0.91 F2400
M108 R35 (squirt)
M101
G1 X9.64787 Y-16.0246 Z0.91 F2400
M108 R2.8 (good to go)
G1 X9.64787 Y16.0246 Z0.91 F2400
M108 R35  (snort)
M102
G1 X9.64787 Y16.1246 Z0.91 F2400
M103

(  path 9/37, 2 points,  )
G1 X8.64787 Y16.1246 Z0.91 F2400
M108 R35 (squirt)
M101
G1 X8.64787 Y16.0246 Z0.91 F2400
M108 R2.8 (good to go)
G1 X8.64787 Y-16.0246 Z0.91 F2400
M108 R35  (snort)
M102
G1 X8.64787 Y-16.1246 Z0.91 F2400
M103

(  path 10/37, 2 points,  )
G1 X7.64787 Y-16.1246 Z0.91 F2400
M108 R35 (squirt)
M101
G1 X7.64787 Y-16.0246 Z0.91 F2400
M108 R2.8 (good to go)
G1 X7.64787 Y16.0246 Z0.91 F2400
M108 R35  (snort)
M102
G1 X7.64787 Y16.1246 Z0.91 F2400
M103

(  path 11/37, 2 points,  )
G1 X6.64787 Y16.1246 Z0.91 F2400
M108 R35 (squirt)
M101
G1 X6.64787 Y16.0246 Z0.91 F2400
M108 R2.8 (good to go)
G1 X6.64787 Y-16.0246 Z0.91 F2400
M108 R35  (snort)
M102
G1 X6.64787 Y-16.1246 Z0.91 F2400
M103

(  path 12/37, 2 points,  )
G1 X5.64787 Y-16.1246 Z0.91 F2400
M108 R35 (squirt)
M101
G1 X5.64787 Y-16.0246 Z0.91 F2400
M108 R2.8 (good to go)
G1 X5.64787 Y16.0246 Z0.91 F2400
M108 R35  (snort)
M102
G1 X5.64787 Y16.1246 Z0.91 F2400
M103

(  path 13/37, 2 points,  )
G1 X4.64787 Y16.1246 Z0.91 F2400
M108 R35 (squirt)
M101
G1 X4.64787 Y16.0246 Z0.91 F2400
M108 R2.8 (good to go)
G1 X4.64787 Y-16.0246 Z0.91 F2400
M108 R35  (snort)
M102
G1 X4.64787 Y-16.1246 Z0.91 F2400
M103

(  path 14/37, 2 points,  )
G1 X3.64787 Y-16.1246 Z0.91 F2400
M108 R35 (squirt)
M101
G1 X3.64787 Y-16.0246 Z0.91 F2400
M108 R2.8 (good to go)
G1 X3.64787 Y16.0246 Z0.91 F2400
M108 R35  (snort)
M102
G1 X3.64787 Y16.1246 Z0.91 F2400
M103

(  path 15/37, 2 points,  )
G1 X2.64787 Y16.1246 Z0.91 F2400
M108 R35 (squirt)
M101
G1 X2.64787 Y16.0246 Z0.91 F2400
M108 R2.8 (good to go)
G1 X2.64787 Y-16.0246 Z0.91 F2400
M108 R35  (snort)
M102
G1 X2.64787 Y-16.1246 Z0.91 F2400
M103

(  path 16/37, 2 points,  )
G1 X1.64787 Y-16.1246 Z0.91 F2400
M108 R35 (squirt)
M101
G1 X1.64787 Y-16.0246 Z0.91 F2400
M108 R2.8 (good to go)
G1 X1.64787 Y16.0246 Z0.91 F2400
M108 R35  (snort)
M102
G1 X1.64787 Y16.1246 Z0.91 F2400
M103

(  path 17/37, 2 points,  )
G1 X0.647874 Y16.1246 Z0.91 F2400
M108 R35 (squirt)
M101
G1 X0.647874 Y16.0246 Z0.91 F2400
M108 R2.8 (good to go)
G1 X0.647874 Y-16.0246 Z0.91 F2400
M108 R35  (snort)
M102
G1 X0.647874 Y-16.1246 Z0.91 F2400
M103

(  path 18/37, 2 points,  )
G1 X-0.352126 Y-16.1246 Z0.91 F2400
M108 R35 (squirt)
M101
G1 X-0.352126 Y-16.0246 Z0.91 F2400
M108 R2.8 (good to go)
G1 X-0.352126 Y16.0246 Z0.91 F2400
M108 R35  (snort)
M102
G1 X-0.352126 Y16.1246 Z0.91 F2400
M103

(  path 19/37, 2 points,  )
G1 X-1.35213 Y16.1246 Z0.91 F2400
M108 R35 (squirt)
M101
G1 X-1.35213 Y16.0246 Z0.91 F2400
M108 R2.8 (good to go)
G1 X-1.35213 Y-16.0246 Z0.91 F2400
M108 R35  (snort)
M102
G1 X-1.35213 Y-16.1246 Z0.91 F2400
M103

(  path 20/37, 2 points,  )
G1 X-2.35213 Y-16.1246 Z0.91 F2400
M108 R35 (squirt)
M101
G1 X-2.35213 Y-16.0246 Z0.91 F2400
M108 R2.8 (good to go)
G1 X-2.35213 Y16.0246 Z0.91 F2400
M108 R35  (snort)
M102
G1 X-2.35213 Y16.1246 Z0.91 F2400
M103

(  path 21/37, 2 points,  )
G1 X-3.35213 Y16.1246 Z0.91 F2400
M108 R35 (squirt)
M101
G1 X-3.35213 Y16.0246 Z0.91 F2400
M108 R2.8 (good to go)
G1 X-3.35213 Y-16.0246 Z0.91 F2400
M108 R35  (snort)
M102
G1 X-3.35213 Y-16.1246 Z0.91 F2400
M103

(  path 22/37, 2 points,  )
G1 X-4.35213 Y-16.1246 Z0.91 F2400
M108 R35 (squirt)
M101
G1 X-4.35213 Y-16.0246 Z0.91 F2400
M108 R2.8 (good to go)
G1 X-4.35213 Y16.0246 Z0.91 F2400
M108 R35  (snort)
M102
G1 X-4.35213 Y16.1246 Z0.91 F2400
M103

(  path 23/37, 2 points,  )
G1 X-5.35213 Y16.1246 Z0.91 F2400
M108 R35 (squirt)
M101
G1 X-5.35213 Y16.0246 Z0.91 F2400
M108 R2.8 (good to go)
G1 X-5.35213 Y-16.0246 Z0.91 F2400
M108 R35  (snort)
M102
G1 X-5.35213 Y-16.1246 Z0.91 F2400
M103

(  path 24/37, 2 points,  )
G1 X-6.35213 Y-16.1246 Z0.91 F2400
M108 R35 (squirt)
M101
G1 X-6.35213 Y-16.0246 Z0.91 F2400
M108 R2.8 (good to go)
G1 X-6.35213 Y16.0246 Z0.91 F2400
M108 R35  (snort)
M102
G1 X-6.35213 Y16.1246 Z0.91 F2400
M103

(  path 25/37, 2 points,  )
G1 X-7.35213 Y16.1246 Z0.91 F2400
M108 R35 (squirt)
M101
G1 X-7.35213 Y16.0246 Z0.91 F2400
M108 R2.8 (good to go)
G1 X-7.35213 Y-16.0246 Z0.91 F2400
M108 R35  (snort)
M102
G1 X-7.35213 Y-16.1246 Z0.91 F2400
M103

(  path 26/37, 2 points,  )
G1 X-8.35213 Y-16.1246 Z0.91 F2400
M108 R35 (squirt)
M101
G1 X-8.35213 Y-16.0246 Z0.91 F2400
M108 R2.8 (good to go)
G1 X-8.35213 Y16.0246 Z0.91 F2400
M108 R35  (snort)
M102
G1 X-8.35213 Y16.1246 Z0.91 F2400
M103

(  path 27/37, 2 points,  )
G1 X-9.35213 Y16.1246 Z0.91 F2400
M108 R35 (squirt)
M101
G1 X-9.35213 Y16.0246 Z0.91 F2400
M108 R2.8 (good to go)
G1 X-9.35213 Y-16.0246 Z0.91 F2400
M108 R35  (snort)
M102
G1 X-9.35213 Y-16.1246 Z0.91 F2400
M103

(  path 28/37, 2 points,  )
G1 X-10.3521 Y-16.1246 Z0.91 F2400
M108 R35 (squirt)
M101
G1 X-10.3521 Y-16.0246 Z0.91 F2400
M108 R2.8 (good to go)
G1 X-10.3521 Y16.0246 Z0.91 F2400
M108 R35  (snort)
M102
G1 X-10.3521 Y16.1246 Z0.91 F2400
M103

(  path 29/37, 2 points,  )
G1 X-11.3521 Y16.1246 Z0.91 F2400
M108 R35 (squirt)
M101
G1 X-11.3521 Y16.0246 Z0.91 F2400
M108 R2.8 (good to go)
G1 X-11.3521 Y-16.0246 Z0.91 F2400
M108 R35  (snort)
M102
G1 X-11.3521 Y-16.1246 Z0.91 F2400
M103

(  path 30/37, 2 points,  )
G1 X-12.3521 Y-16.1246 Z0.91 F2400
M108 R35 (squirt)
M101
G1 X-12.3521 Y-16.0246 Z0.91 F2400
M108 R2.8 (good to go)
G1 X-12.3521 Y16.0246 Z0.91 F2400
M108 R35  (snort)
M102
G1 X-12.3521 Y16.1246 Z0.91 F2400
M103

(  path 31/37, 2 points,  )
G1 X-13.3521 Y16.1246 Z0.91 F2400
M108 R35 (squirt)
M101
G1 X-13.3521 Y16.0246 Z0.91 F2400
M108 R2.8 (good to go)
G1 X-13.3521 Y-16.0246 Z0.91 F2400
M108 R35  (snort)
M102
G1 X-13.3521 Y-16.1246 Z0.91 F2400
M103

(  path 32/37, 2 points,  )
G1 X-14.3521 Y-16.1246 Z0.91 F2400
M108 R35 (squirt)
M101
G1 X-14.3521 Y-16.0246 Z0.91 F2400
M108 R2.8 (good to go)
G1 X-14.3521 Y16.0246 Z0.91 F2400
M108 R35  (snort)
M102
G1 X-14.3521 Y16.1246 Z0.91 F2400
M103

(  path 33/37, 2 points,  )
G1 X-15.3521 Y16.1246 Z0.91 F2400
M108 R35 (squirt)
M101
G1 X-15.3521 Y16.0246 Z0.91 F2400
M108 R2.8 (good to go)
G1 X-15.3521 Y-16.0246 Z0.91 F2400
M108 R35  (snort)
M102
G1 X-15.3521 Y-16.1246 Z0.91 F2400
M103

(  path 34/37, 2 points,  )
G1 X-16.3521 Y-16.1246 Z0.91 F2400
M108 R35 (squirt)
M101
G1 X-16.3521 Y-16.0246 Z0.91 F2400
M108 R2.8 (good to go)
G1 X-16.3521 Y16.0246 Z0.91 F2400
M108 R35  (snort)
M102
G1 X-16.3521 Y16.1246 Z0.91 F2400
M103

(  path 35/37, 2 points,  )
G1 X-17.3521 Y16.1246 Z0.91 F2400
M108 R35 (squirt)
M101
G1 X-17.3521 Y16.0246 Z0.91 F2400
M108 R2.8 (good to go)
G1 X-17.3521 Y-16.0246 Z0.91 F2400
M108 R35  (snort)
M102
G1 X-17.3521 Y-16.1246 Z0.91 F2400
M103

(  path 36/37, 2 points,  )
G1 X-18.3521 Y-16.1246 Z0.91 F2400
M108 R35 (squirt)
M101
G1 X-18.3521 Y-16.0246 Z0.91 F2400
M108 R2.8 (good to go)
G1 X-18.3521 Y16.0246 Z0.91 F2400
M108 R35  (snort)
M102
G1 X-18.3521 Y16.1246 Z0.91 F2400
M103

(Slice 4, 1 Extruder)
G1 Z1.18 F500 (move Z)
(   Extruder 0)
( extruder 0 )
( GSWITCH T0 )
( TODO: add offset management to Gantry )

(inset 0/2 )
(  path 0/1, 17 points,  )
G1 X17.9087 Y-17.8087 Z1.18 F2400
M108 R35 (squirt)
M101
G1 X17.8087 Y-17.8087 Z1.18 F2400
M108 R2.8 (good to go)
G1 X17.0062 Y-17.8087 Z1.18 F2400
G1 X6.93382 Y-17.8087 Z1.18 F2400
G1 X-17.0062 Y-17.8087 Z1.18 F2400
G1 X-17.8087 Y-17.8087 Z1.18 F2400
G1 X-17.8087 Y-17.0062 Z1.18 F2400
G1 X-17.8087 Y-6.93382 Z1.18 F2400
G1 X-17.8087 Y17.0062 Z1.18 F2400
G1 X-17.8087 Y17.8087 Z1.18 F2400
G1 X-17.0062 Y17.8087 Z1.18 F2400
G1 X-6.93382 Y17.8087 Z1.18 F2400
G1 X17.0062 Y17.8087 Z1.18 F2400
G1 X17.8087 Y17.8087 Z1.18 F2400
G1 X17.8087 Y17.0062 Z1.18 F2400
G1 X17.8087 Y6.93382 Z1.18 F2400
G1 X17.8087 Y-17.0062 Z1.18 F2400
G1 X17.8087 Y-17.8087 Z1.18 F2400
M108 R35  (snort)
M102
G1 X17.8087 Y-17.9087 Z1.18 F2400
M103

(inset 1/2 )
(  path 0/1, 17 points,  )
G1 X18.2687 Y-18.1687 Z1.18 F2400
M108 R35 (squirt)
M101
G1 X18.1687 Y-18.1687 Z1.18 F2400
M108 R2.8 (good to go)
G1 X17.0062 Y-18.1687 Z1.18 F2400
G1 X6.93382 Y-18.1687 Z1.18 F2400
G1 X-17.0062 Y-18.1687 Z1.18 F2400
G1 X-18.1687 Y-18.1687 Z1.18 F2400
G1 X-18.1687 Y-17.0062 Z1.18 F2400
G1 X-18.1687 Y-6.93382 Z1.18 F2400
G1 X-18.1687 Y17.0062 Z1.18 F2400
G1 X-18.1687 Y18.1687 Z1.18 F2400
G1 X-17.0062 Y18.1687 Z1.18 F2400
G1 X-6.93382 Y18.1687 Z1.18 F2400
G1 X17.0062 Y18.1687 Z1.18 F2400
G1 X18.1687 Y18.1687 Z1.18 F2400
G1 X18.1687 Y17.0062 Z1.18 F2400
G1 X18.1687 Y6.93382 Z1.18 F2400
G1 X18.1687 Y-17.0062 Z1.18 F2400
G1 X18.1687 Y-18.1687 Z1.18 F2400
M108 R35  (snort)
M102
G1 X18.1687 Y-18.2687 Z1.18 F2400
M103

(  path 0/37, 2 points,  )
G1 X-15.9687 Y-17.6479 Z1.18 F2400
M108 R35 (squirt)
M101
G1 X-15.8687 Y-17.6479 Z1.18 F2400
M108 R2.8 (good to go)
G1 X15.8687 Y-17.6479 Z1.18 F2400
M108 R35  (snort)
M102
G1 X15.9687 Y-17.6479 Z1.18 F2400
M103

(  path 1/37, 2 points,  )
G1 X15.9687 Y-16.6479 Z1.18 F2400
M108 R35 (squirt)
M101
G1 X15.8687 Y-16.6479 Z1.18 F2400
M108 R2.8 (good to go)
G1 X-15.8687 Y-16.6479 Z1.18 F2400
M108 R35  (snort)
M102
G1 X-15.9687 Y-16.6479 Z1.18 F2400
M103

(  path 2/37, 2 points,  )
G1 X-15.9687 Y-15.6479 Z1.18 F2400
M108 R35 (squirt)
M101
G1 X-15.8687 Y-15.6479 Z1.18 F2400
M108 R2.8 (good to go)
G1 X15.8687 Y-15.6479 Z1.18 F2400
M108 R35  (snort)
M102
G1 X15.9687 Y-15.6479 Z1.18 F2400
M103

(  path 3/37, 2 points,  )
G1 X15.9687 Y-14.6479 Z1.18 F2400
M108 R35 (squirt)
M101
G1 X15.8687 Y-14.6479 Z1.18 F2400
M108 R2.8 (good to go)
G1 X-15.8687 Y-14.6479 Z1.18 F2400
M108 R35  (snort)
M102
G1 X-15.9687 Y-14.6479 Z1.18 F2400
M103

(  path 4/37, 2 points,  )
G1 X-15.9687 Y-13.6479 Z1.18 F2400
M108 R35 (squirt)
M101
G1 X-15.8687 Y-13.6479 Z1.18 F2400
M108 R2.8 (good to go)
G1 X15.8687 Y-13.6479 Z1.18 F2400
M108 R35  (snort)
M102
G1 X15.9687 Y-13.6479 Z1.18 F2400
M103

(  path 5/37, 2 points,  )
G1 X15.9687 Y-12.6479 Z1.18 F2400
M108 R35 (squirt)
M101
G1 X15.8687 Y-12.6479 Z1.18 F2400
M108 R2.8 (good to go)
G1 X-15.8687 Y-12.6479 Z1.18 F2400
M108 R35  (snort)
M102
G1 X-15.9687 Y-12.6479 Z1.18 F2400
M103

(  path 6/37, 2 points,  )
G1 X-15.9687 Y-11.6479 Z1.18 F2400
M108 R35 (squirt)
M101
G1 X-15.8687 Y-11.6479 Z1.18 F2400
M108 R2.8 (good to go)
G1 X15.8687 Y-11.6479 Z1.18 F2400
M108 R35  (snort)
M102
G1 X15.9687 Y-11.6479 Z1.18 F2400
M103

(  path 7/37, 2 points,  )
G1 X15.9687 Y-10.6479 Z1.18 F2400
M108 R35 (squirt)
M101
G1 X15.8687 Y-10.6479 Z1.18 F2400
M108 R2.8 (good to go)
G1 X-15.8687 Y-10.6479 Z1.18 F2400
M108 R35  (snort)
M102
G1 X-15.9687 Y-10.6479 Z1.18 F2400
M103

(  path 8/37, 2 points,  )
G1 X-15.9687 Y-9.64787 Z1.18 F2400
M108 R35 (squirt)
M101
G1 X-15.8687 Y-9.64787 Z1.18 F2400
M108 R2.8 (good to go)
G1 X15.8687 Y-9.64787 Z1.18 F2400
M108 R35  (snort)
M102
G1 X15.9687 Y-9.64787 Z1.18 F2400
M103

(  path 9/37, 2 points,  )
G1 X15.9687 Y-8.64787 Z1.18 F2400
M108 R35 (squirt)
M101
G1 X15.8687 Y-8.64787 Z1.18 F2400
M108 R2.8 (good to go)
G1 X-15.8687 Y-8.64787 Z1.18 F2400
M108 R35  (snort)
M102
G1 X-15.9687 Y-8.64787 Z1.18 F2400
M103

(  path 10/37, 2 points,  )
G1 X-15.9687 Y-7.64787 Z1.18 F2400
M108 R35 (squirt)
M101
G1 X-15.8687 Y-7.64787 Z1.18 F2400
M108 R2.8 (good to go)
G1 X15.8687 Y-7.64787 Z1.18 F2400
M108 R35  (snort)
M102
G1 X15.9687 Y-7.64787 Z1.18 F2400
M103

(  path 11/37, 2 points,  )
G1 X15.9687 Y-6.64787 Z1.18 F2400
M108 R35 (squirt)
M101
G1 X15.8687 Y-6.64787 Z1.18 F2400
M108 R2.8 (good to go)
G1 X-15.8687 Y-6.64787 Z1.18 F2400
M108 R35  (snort)
M102
G1 X-15.9687 Y-6.64787 Z1.18 F2400
M103

(  path 12/37, 2 points,  )
G1 X-15.9687 Y-5.64787 Z1.18 F2400
M108 R35 (squirt)
M101
G1 X-15.8687 Y-5.64787 Z1.18 F2400
M108 R2.8 (good to go)
G1 X15.8687 Y-5.64787 Z1.18 F2400
M108 R35  (snort)
M102
G1 X15.9687 Y-5.64787 Z1.18 F2400
M103

(  path 13/37, 2 points,  )
G1 X15.9687 Y-4.64787 Z1.18 F2400
M108 R35 (squirt)
M101
G1 X15.8687 Y-4.64787 Z1.18 F2400
M108 R2.8 (good to go)
G1 X-15.8687 Y-4.64787 Z1.18 F2400
M108 R35  (snort)
M102
G1 X-15.9687 Y-4.64787 Z1.18 F2400
M103

(  path 14/37, 2 points,  )
G1 X-15.9687 Y-3.64787 Z1.18 F2400
M108 R35 (squirt)
M101
G1 X-15.8687 Y-3.64787 Z1.18 F2400
M108 R2.8 (good to go)
G1 X15.8687 Y-3.64787 Z1.18 F2400
M108 R35  (snort)
M102
G1 X15.9687 Y-3.64787 Z1.18 F2400
M103

(  path 15/37, 2 points,  )
G1 X15.9687 Y-2.64787 Z1.18 F2400
M108 R35 (squirt)
M101
G1 X15.8687 Y-2.64787 Z1.18 F2400
M108 R2.8 (good to go)
G1 X-15.8687 Y-2.64787 Z1.18 F2400
M108 R35  (snort)
M102
G1 X-15.9687 Y-2.64787 Z1.18 F2400
M103

(  path 16/37, 2 points,  )
G1 X-15.9687 Y-1.64787 Z1.18 F2400
M108 R35 (squirt)
M101
G1 X-15.8687 Y-1.64787 Z1.18 F2400
M108 R2.8 (good to go)
G1 X15.8687 Y-1.64787 Z1.18 F2400
M108 R35  (snort)
M102
G1 X15.9687 Y-1.64787 Z1.18 F2400
M103

(  path 17/37, 2 points,  )
G1 X15.9687 Y-0.647874 Z1.18 F2400
M108 R35 (squirt)
M101
G1 X15.8687 Y-0.647874 Z1.18 F2400
M108 R2.8 (good to go)
G1 X-15.8687 Y-0.647874 Z1.18 F2400
M108 R35  (snort)
M102
G1 X-15.9687 Y-0.647874 Z1.18 F2400
M103

(  path 18/37, 2 points,  )
G1 X-15.9687 Y0.352126 Z1.18 F2400
M108 R35 (squirt)
M101
G1 X-15.8687 Y0.352126 Z1.18 F2400
M108 R2.8 (good to go)
G1 X15.8687 Y0.352126 Z1.18 F2400
M108 R35  (snort)
M102
G1 X15.9687 Y0.352126 Z1.18 F2400
M103

(  path 19/37, 2 points,  )
G1 X15.9687 Y1.35213 Z1.18 F2400
M108 R35 (squirt)
M101
G1 X15.8687 Y1.35213 Z1.18 F2400
M108 R2.8 (good to go)
G1 X-15.8687 Y1.35213 Z1.18 F2400
M108 R35  (snort)
M102
G1 X-15.9687 Y1.35213 Z1.18 F2400
M103

(  path 20/37, 2 points,  )
G1 X-15.9687 Y2.35213 Z1.18 F2400
M108 R35 (squirt)
M101
G1 X-15.8687 Y2.35213 Z1.18 F2400
M108 R2.8 (good to go)
G1 X15.8687 Y2.35213 Z1.18 F2400
M108 R35  (snort)
M102
G1 X15.9687 Y2.35213 Z1.18 F2400
M103

(  path 21/37, 2 points,  )
G1 X15.9687 Y3.35213 Z1.18 F2400
M108 R35 (squirt)
M101
G1 X15.8687 Y3.35213 Z1.18 F2400
M108 R2.8 (good to go)
G1 X-15.8687 Y3.35213 Z1.18 F2400
M108 R35  (snort)
M102
G1 X-15.9687 Y3.35213 Z1.18 F2400
M103

(  path 22/37, 2 points,  )
G1 X-15.9687 Y4.35213 Z1.18 F2400
M108 R35 (squirt)
M101
G1 X-15.8687 Y4.35213 Z1.18 F2400
M108 R2.8 (good to go)
G1 X15.8687 Y4.35213 Z1.18 F2400
M108 R35  (snort)
M102
G1 X15.9687 Y4.35213 Z1.18 F2400
M103

(  path 23/37, 2 points,  )
G1 X15.9687 Y5.35213 Z1.18 F2400
M108 R35 (squirt)
M101
G1 X15.8687 Y5.35213 Z1.18 F2400
M108 R2.8 (good to go)
G1 X-15.8687 Y5.35213 Z1.18 F2400
M108 R35  (snort)
M102
G1 X-15.9687 Y5.35213 Z1.18 F2400
M103

(  path 24/37, 2 points,  )
G1 X-15.9687 Y6.35213 Z1.18 F2400
M108 R35 (squirt)
M101
G1 X-15.8687 Y6.35213 Z1.18 F2400
M108 R2.8 (good to go)
G1 X15.8687 Y6.35213 Z1.18 F2400
M108 R35  (snort)
M102
G1 X15.9687 Y6.35213 Z1.18 F2400
M103

(  path 25/37, 2 points,  )
G1 X15.9687 Y7.35213 Z1.18 F2400
M108 R35 (squirt)
M101
G1 X15.8687 Y7.35213 Z1.18 F2400
M108 R2.8 (good to go)
G1 X-15.8687 Y7.35213 Z1.18 F2400
M108 R35  (snort)
M102
G1 X-15.9687 Y7.35213 Z1.18 F2400
M103

(  path 26/37, 2 points,  )
G1 X-15.9687 Y8.35213 Z1.18 F2400
M108 R35 (squirt)
M101
G1 X-15.8687 Y8.35213 Z1.18 F2400
M108 R2.8 (good to go)
G1 X15.8687 Y8.35213 Z1.18 F2400
M108 R35  (snort)
M102
G1 X15.9687 Y8.35213 Z1.18 F2400
M103

(  path 27/37, 2 points,  )
G1 X15.9687 Y9.35213 Z1.18 F2400
M108 R35 (squirt)
M101
G1 X15.8687 Y9.35213 Z1.18 F2400
M108 R2.8 (good to go)
G1 X-15.8687 Y9.35213 Z1.18 F2400
M108 R35  (snort)
M102
G1 X-15.9687 Y9.35213 Z1.18 F2400
M103

(  path 28/37, 2 points,  )
G1 X-15.9687 Y10.3521 Z1.18 F2400
M108 R35 (squirt)
M101
G1 X-15.8687 Y10.3521 Z1.18 F2400
M108 R2.8 (good to go)
G1 X15.8687 Y10.3521 Z1.18 F2400
M108 R35  (snort)
M102
G1 X15.9687 Y10.3521 Z1.18 F2400
M103

(  path 29/37, 2 points,  )
G1 X15.9687 Y11.3521 Z1.18 F2400
M108 R35 (squirt)
M101
G1 X15.8687 Y11.3521 Z1.18 F2400
M108 R2.8 (good to go)
G1 X-15.8687 Y11.3521 Z1.18 F2400
M108 R35  (snort)
M102
G1 X-15.9687 Y11.3521 Z1.18 F2400
M103

(  path 30/37, 2 points,  )
G1 X-15.9687 Y12.3521 Z1.18 F2400
M108 R35 (squirt)
M101
G1 X-15.8687 Y12.3521 Z1.18 F2400
M108 R2.8 (good to go)
G1 X15.8687 Y12.3521 Z1.18 F2400
M108 R35  (snort)
M102
G1 X15.9687 Y12.3521 Z1.18 F2400
M103

(  path 31/37, 2 points,  )
G1 X15.9687 Y13.3521 Z1.18 F2400
M108 R35 (squirt)
M101
G1 X15.8687 Y13.3521 Z1.18 F2400
M108 R2.8 (good to go)
G1 X-15.8687 Y13.3521 Z1.18 F2400
M108 R35  (snort)
M102
G1 X-15.9687 Y13.3521 Z1.18 F2400
M103

(  path 32/37, 2 points,  )
G1 X-15.9687 Y14.3521 Z1.18 F2400
M108 R35 (squirt)
M101
G1 X-15.8687 Y14.3521 Z1.18 F2400
M108 R2.8 (good to go)
G1 X15.8687 Y14.3521 Z1.18 F2400
M108 R35  (snort)
M102
G1 X15.9687 Y14.3521 Z1.18 F2400
M103

(  path 33/37, 2 points,  )
G1 X15.9687 Y15.3521 Z1.18 F2400
M108 R35 (squirt)
M101
G1 X15.8687 Y15.3521 Z1.18 F2400
M108 R2.8 (good to go)
G1 X-15.8687 Y15.3521 Z1.18 F2400
M108 R35  (snort)
M102
G1 X-15.9687 Y15.3521 Z1.18 F2400
M103

(  path 34/37, 2 points,  )
G1 X-15.9687 Y16.3521 Z1.18 F2400
M108 R35 (squirt)
M101
G1 X-15.8687 Y16.3521 Z1.18 F2400
M108 R2.8 (good to go)
G1 X15.8687 Y16.3521 Z1.18 F2400
M108 R35  (snort)
M102
G1 X15.9687 Y16.3521 Z1.18 F2400
M103

(  path 35/37, 2 points,  )
G1 X15.9687 Y17.3521 Z1.18 F2400
M108 R35 (squirt)
M101
G1 X15.8687 Y17.3521 Z1.18 F2400
M108 R2.8 (good to go)
G1 X-15.8687 Y17.3521 Z1.18 F2400
M108 R35  (snort)
M102
G1 X-15.9687 Y17.3521 Z1.18 F2400
M103

(  path 36/37, 2 points,  )
G1 X-15.9687 Y18.3521 Z1.18 F2400
M108 R35 (squirt)
M101
G1 X-15.8687 Y18.3521 Z1.18 F2400
M108 R2.8 (good to go)
G1 X15.8687 Y18.3521 Z1.18 F2400
M108 R35  (snort)
M102
G1 X15.9687 Y18.3521 Z1.18 F2400
M103

(Slice 5, 1 Extruder)
G1 Z1.45 F500 (move Z)
(   Extruder 0)
( extruder 0 )
( GSWITCH T0 )
( TODO: add offset management to Gantry )

(inset 0/2 )
(  path 0/1, 17 points,  )
G1 X17.7528 Y-17.6528 Z1.45 F2400
M108 R35 (squirt)
M101
G1 X17.6528 Y-17.6528 Z1.45 F2400
M108 R2.8 (good to go)
G1 X16.5385 Y-17.6528 Z1.45 F2400
G1 X4.16147 Y-17.6528 Z1.45 F2400
G1 X-16.5385 Y-17.6528 Z1.45 F2400
G1 X-17.6528 Y-17.6528 Z1.45 F2400
G1 X-17.6528 Y-16.5385 Z1.45 F2400
G1 X-17.6528 Y-4.16147 Z1.45 F2400
G1 X-17.6528 Y16.5385 Z1.45 F2400
G1 X-17.6528 Y17.6528 Z1.45 F2400
G1 X-16.5385 Y17.6528 Z1.45 F2400
G1 X-4.16147 Y17.6528 Z1.45 F2400
G1 X16.5385 Y17.6528 Z1.45 F2400
G1 X17.6528 Y17.6528 Z1.45 F2400
G1 X17.6528 Y16.5385 Z1.45 F2400
G1 X17.6528 Y4.16147 Z1.45 F2400
G1 X17.6528 Y-16.5385 Z1.45 F2400
G1 X17.6528 Y-17.6528 Z1.45 F2400
M108 R35  (snort)
M102
G1 X17.6528 Y-17.7528 Z1.45 F2400
M103

(inset 1/2 )
(  path 0/1, 17 points,  )
G1 X18.1133 Y-18.0128 Z1.45 F2400
M108 R35 (squirt)
M101
G1 X18.0133 Y-18.0128 Z1.45 F2400
M108 R2.8 (good to go)
G1 X16.5385 Y-18.0128 Z1.45 F2400
G1 X4.16147 Y-18.0128 Z1.45 F2400
G1 X-16.5385 Y-18.0128 Z1.45 F2400
G1 X-18.0128 Y-18.0133 Z1.45 F2400
G1 X-18.0128 Y-16.5385 Z1.45 F2400
G1 X-18.0128 Y-4.16147 Z1.45 F2400
G1 X-18.0128 Y16.5385 Z1.45 F2400
G1 X-18.0133 Y18.0128 Z1.45 F2400
G1 X-16.5385 Y18.0128 Z1.45 F2400
G1 X-4.16147 Y18.0128 Z1.45 F2400
G1 X16.5385 Y18.0128 Z1.45 F2400
G1 X18.0128 Y18.0133 Z1.45 F2400
G1 X18.0128 Y16.5385 Z1.45 F2400
G1 X18.0128 Y4.16147 Z1.45 F2400
G1 X18.0128 Y-16.5385 Z1.45 F2400
G1 X18.0128 Y-18.0133 Z1.45 F2400
M108 R35  (snort)
M102
G1 X18.0128 Y-18.1133 Z1.45 F2400
M103

(  path 0/36, 2 points,  )
G1 X-17.6479 Y15.8128 Z1.45 F2400
M108 R35 (squirt)
M101
G1 X-17.6479 Y15.7128 Z1.45 F2400
M108 R2.8 (good to go)
G1 X-17.6479 Y-15.7128 Z1.45 F2400
M108 R35  (snort)
M102
G1 X-17.6479 Y-15.8128 Z1.45 F2400
M103

(  path 1/36, 2 points,  )
G1 X-16.6479 Y-15.8128 Z1.45 F2400
M108 R35 (squirt)
M101
G1 X-16.6479 Y-15.7128 Z1.45 F2400
M108 R2.8 (good to go)
G1 X-16.6479 Y15.7128 Z1.45 F2400
M108 R35  (snort)
M102
G1 X-16.6479 Y15.8128 Z1.45 F2400
M103

(  path 2/36, 2 points,  )
G1 X-15.6479 Y15.8128 Z1.45 F2400
M108 R35 (squirt)
M101
G1 X-15.6479 Y15.7128 Z1.45 F2400
M108 R2.8 (good to go)
G1 X-15.6479 Y-15.7128 Z1.45 F2400
M108 R35  (snort)
M102
G1 X-15.6479 Y-15.8128 Z1.45 F2400
M103

(  path 3/36, 2 points,  )
G1 X-14.6479 Y-15.8128 Z1.45 F2400
M108 R35 (squirt)
M101
G1 X-14.6479 Y-15.7128 Z1.45 F2400
M108 R2.8 (good to go)
G1 X-14.6479 Y15.7128 Z1.45 F2400
M108 R35  (snort)
M102
G1 X-14.6479 Y15.8128 Z1.45 F2400
M103

(  path 4/36, 2 points,  )
G1 X-13.6479 Y15.8128 Z1.45 F2400
M108 R35 (squirt)
M101
G1 X-13.6479 Y15.7128 Z1.45 F2400
M108 R2.8 (good to go)
G1 X-13.6479 Y-15.7128 Z1.45 F2400
M108 R35  (snort)
M102
G1 X-13.6479 Y-15.8128 Z1.45 F2400
M103

(  path 5/36, 2 points,  )
G1 X-12.6479 Y-15.8128 Z1.45 F2400
M108 R35 (squirt)
M101
G1 X-12.6479 Y-15.7128 Z1.45 F2400
M108 R2.8 (good to go)
G1 X-12.6479 Y15.7128 Z1.45 F2400
M108 R35  (snort)
M102
G1 X-12.6479 Y15.8128 Z1.45 F2400
M103

(  path 6/36, 2 points,  )
G1 X-11.6479 Y15.8128 Z1.45 F2400
M108 R35 (squirt)
M101
G1 X-11.6479 Y15.7128 Z1.45 F2400
M108 R2.8 (good to go)
G1 X-11.6479 Y-15.7128 Z1.45 F2400
M108 R35  (snort)
M102
G1 X-11.6479 Y-15.8128 Z1.45 F2400
M103

(  path 7/36, 2 points,  )
G1 X-10.6479 Y-15.8128 Z1.45 F2400
M108 R35 (squirt)
M101
G1 X-10.6479 Y-15.7128 Z1.45 F2400
M108 R2.8 (good to go)
G1 X-10.6479 Y15.7128 Z1.45 F2400
M108 R35  (snort)
M102
G1 X-10.6479 Y15.8128 Z1.45 F2400
M103

(  path 8/36, 2 points,  )
G1 X-9.64787 Y15.8128 Z1.45 F2400
M108 R35 (squirt)
M101
G1 X-9.64787 Y15.7128 Z1.45 F2400
M108 R2.8 (good to go)
G1 X-9.64787 Y-15.7128 Z1.45 F2400
M108 R35  (snort)
M102
G1 X-9.64787 Y-15.8128 Z1.45 F2400
M103

(  path 9/36, 2 points,  )
G1 X-8.64787 Y-15.8128 Z1.45 F2400
M108 R35 (squirt)
M101
G1 X-8.64787 Y-15.7128 Z1.45 F2400
M108 R2.8 (good to go)
G1 X-8.64787 Y15.7128 Z1.45 F2400
M108 R35  (snort)
M102
G1 X-8.64787 Y15.8128 Z1.45 F2400
M103

(  path 10/36, 2 points,  )
G1 X-7.64787 Y15.8128 Z1.45 F2400
M108 R35 (squirt)
M101
G1 X-7.64787 Y15.7128 Z1.45 F2400
M108 R2.8 (good to go)
G1 X-7.64787 Y-15.7128 Z1.45 F2400
M108 R35  (snort)
M102
G1 X-7.64787 Y-15.8128 Z1.45 F2400
M103

(  path 11/36, 2 points,  )
G1 X-6.64787 Y-15.8128 Z1.45 F2400
M108 R35 (squirt)
M101
G1 X-6.64787 Y-15.7128 Z1.45 F2400
M108 R2.8 (good to go)
G1 X-6.64787 Y15.7128 Z1.45 F2400
M108 R35  (snort)
M102
G1 X-6.64787 Y15.8128 Z1.45 F2400
M103

(  path 12/36, 2 points,  )
G1 X-5.64787 Y15.8128 Z1.45 F2400
M108 R35 (squirt)
M101
G1 X-5.64787 Y15.7128 Z1.45 F2400
M108 R2.8 (good to go)
G1 X-5.64787 Y-15.7128 Z1.45 F2400
M108 R35  (snort)
M102
G1 X-5.64787 Y-15.8128 Z1.45 F2400
M103

(  path 13/36, 2 points,  )
G1 X-4.64787 Y-15.8128 Z1.45 F2400
M108 R35 (squirt)
M101
G1 X-4.64787 Y-15.7128 Z1.45 F2400
M108 R2.8 (good to go)
G1 X-4.64787 Y15.7128 Z1.45 F2400
M108 R35  (snort)
M102
G1 X-4.64787 Y15.8128 Z1.45 F2400
M103

(  path 14/36, 2 points,  )
G1 X-3.64787 Y15.8128 Z1.45 F2400
M108 R35 (squirt)
M101
G1 X-3.64787 Y15.7128 Z1.45 F2400
M108 R2.8 (good to go)
G1 X-3.64787 Y-15.7128 Z1.45 F2400
M108 R35  (snort)
M102
G1 X-3.64787 Y-15.8128 Z1.45 F2400
M103

(  path 15/36, 2 points,  )
G1 X-2.64787 Y-15.8128 Z1.45 F2400
M108 R35 (squirt)
M101
G1 X-2.64787 Y-15.7128 Z1.45 F2400
M108 R2.8 (good to go)
G1 X-2.64787 Y15.7128 Z1.45 F2400
M108 R35  (snort)
M102
G1 X-2.64787 Y15.8128 Z1.45 F2400
M103

(  path 16/36, 2 points,  )
G1 X-1.64787 Y15.8128 Z1.45 F2400
M108 R35 (squirt)
M101
G1 X-1.64787 Y15.7128 Z1.45 F2400
M108 R2.8 (good to go)
G1 X-1.64787 Y-15.7128 Z1.45 F2400
M108 R35  (snort)
M102
G1 X-1.64787 Y-15.8128 Z1.45 F2400
M103

(  path 17/36, 2 points,  )
G1 X-0.647874 Y-15.8128 Z1.45 F2400
M108 R35 (squirt)
M101
G1 X-0.647874 Y-15.7128 Z1.45 F2400
M108 R2.8 (good to go)
G1 X-0.647874 Y15.7128 Z1.45 F2400
M108 R35  (snort)
M102
G1 X-0.647874 Y15.8128 Z1.45 F2400
M103

(  path 18/36, 2 points,  )
G1 X0.352126 Y15.8128 Z1.45 F2400
M108 R35 (squirt)
M101
G1 X0.352126 Y15.7128 Z1.45 F2400
M108 R2.8 (good to go)
G1 X0.352126 Y-15.7128 Z1.45 F2400
M108 R35  (snort)
M102
G1 X0.352126 Y-15.8128 Z1.45 F2400
M103

(  path 19/36, 2 points,  )
G1 X1.35213 Y-15.8128 Z1.45 F2400
M108 R35 (squirt)
M101
G1 X1.35213 Y-15.7128 Z1.45 F2400
M108 R2.8 (good to go)
G1 X1.35213 Y15.7128 Z1.45 F2400
M108 R35  (snort)
M102
G1 X1.35213 Y15.8128 Z1.45 F2400
M103

(  path 20/36, 2 points,  )
G1 X2.35213 Y15.8128 Z1.45 F2400
M108 R35 (squirt)
M101
G1 X2.35213 Y15.7128 Z1.45 F2400
M108 R2.8 (good to go)
G1 X2.35213 Y-15.7128 Z1.45 F2400
M108 R35  (snort)
M102
G1 X2.35213 Y-15.8128 Z1.45 F2400
M103

(  path 21/36, 2 points,  )
G1 X3.35213 Y-15.8128 Z1.45 F2400
M108 R35 (squirt)
M101
G1 X3.35213 Y-15.7128 Z1.45 F2400
M108 R2.8 (good to go)
G1 X3.35213 Y15.7128 Z1.45 F2400
M108 R35  (snort)
M102
G1 X3.35213 Y15.8128 Z1.45 F2400
M103

(  path 22/36, 2 points,  )
G1 X4.35213 Y15.8128 Z1.45 F2400
M108 R35 (squirt)
M101
G1 X4.35213 Y15.7128 Z1.45 F2400
M108 R2.8 (good to go)
G1 X4.35213 Y-15.7128 Z1.45 F2400
M108 R35  (snort)
M102
G1 X4.35213 Y-15.8128 Z1.45 F2400
M103

(  path 23/36, 2 points,  )
G1 X5.35213 Y-15.8128 Z1.45 F2400
M108 R35 (squirt)
M101
G1 X5.35213 Y-15.7128 Z1.45 F2400
M108 R2.8 (good to go)
G1 X5.35213 Y15.7128 Z1.45 F2400
M108 R35  (snort)
M102
G1 X5.35213 Y15.8128 Z1.45 F2400
M103

(  path 24/36, 2 points,  )
G1 X6.35213 Y15.8128 Z1.45 F2400
M108 R35 (squirt)
M101
G1 X6.35213 Y15.7128 Z1.45 F2400
M108 R2.8 (good to go)
G1 X6.35213 Y-15.7128 Z1.45 F2400
M108 R35  (snort)
M102
G1 X6.35213 Y-15.8128 Z1.45 F2400
M103

(  path 25/36, 2 points,  )
G1 X7.35213 Y-15.8128 Z1.45 F2400
M108 R35 (squirt)
M101
G1 X7.35213 Y-15.7128 Z1.45 F2400
M108 R2.8 (good to go)
G1 X7.35213 Y15.7128 Z1.45 F2400
M108 R35  (snort)
M102
G1 X7.35213 Y15.8128 Z1.45 F2400
M103

(  path 26/36, 2 points,  )
G1 X8.35213 Y15.8128 Z1.45 F2400
M108 R35 (squirt)
M101
G1 X8.35213 Y15.7128 Z1.45 F2400
M108 R2.8 (good to go)
G1 X8.35213 Y-15.7128 Z1.45 F2400
M108 R35  (snort)
M102
G1 X8.35213 Y-15.8128 Z1.45 F2400
M103

(  path 27/36, 2 points,  )
G1 X9.35213 Y-15.8128 Z1.45 F2400
M108 R35 (squirt)
M101
G1 X9.35213 Y-15.7128 Z1.45 F2400
M108 R2.8 (good to go)
G1 X9.35213 Y15.7128 Z1.45 F2400
M108 R35  (snort)
M102
G1 X9.35213 Y15.8128 Z1.45 F2400
M103

(  path 28/36, 2 points,  )
G1 X10.3521 Y15.8128 Z1.45 F2400
M108 R35 (squirt)
M101
G1 X10.3521 Y15.7128 Z1.45 F2400
M108 R2.8 (good to go)
G1 X10.3521 Y-15.7128 Z1.45 F2400
M108 R35  (snort)
M102
G1 X10.3521 Y-15.8128 Z1.45 F2400
M103

(  path 29/36, 2 points,  )
G1 X11.3521 Y-15.8128 Z1.45 F2400
M108 R35 (squirt)
M101
G1 X11.3521 Y-15.7128 Z1.45 F2400
M108 R2.8 (good to go)
G1 X11.3521 Y15.7128 Z1.45 F2400
M108 R35  (snort)
M102
G1 X11.3521 Y15.8128 Z1.45 F2400
M103

(  path 30/36, 2 points,  )
G1 X12.3521 Y15.8128 Z1.45 F2400
M108 R35 (squirt)
M101
G1 X12.3521 Y15.7128 Z1.45 F2400
M108 R2.8 (good to go)
G1 X12.3521 Y-15.7128 Z1.45 F2400
M108 R35  (snort)
M102
G1 X12.3521 Y-15.8128 Z1.45 F2400
M103

(  path 31/36, 2 points,  )
G1 X13.3521 Y-15.8128 Z1.45 F2400
M108 R35 (squirt)
M101
G1 X13.3521 Y-15.7128 Z1.45 F2400
M108 R2.8 (good to go)
G1 X13.3521 Y15.7128 Z1.45 F2400
M108 R35  (snort)
M102
G1 X13.3521 Y15.8128 Z1.45 F2400
M103

(  path 32/36, 2 points,  )
G1 X14.3521 Y15.8128 Z1.45 F2400
M108 R35 (squirt)
M101
G1 X14.3521 Y15.7128 Z1.45 F2400
M108 R2.8 (good to go)
G1 X14.3521 Y-15.7128 Z1.45 F2400
M108 R35  (snort)
M102
G1 X14.3521 Y-15.8128 Z1.45 F2400
M103

(  path 33/36, 2 points,  )
G1 X15.3521 Y-15.8128 Z1.45 F2400
M108 R35 (squirt)
M101
G1 X15.3521 Y-15.7128 Z1.45 F2400
M108 R2.8 (good to go)
G1 X15.3521 Y15.7128 Z1.45 F2400
M108 R35  (snort)
M102
G1 X15.3521 Y15.8128 Z1.45 F2400
M103

(  path 34/36, 2 points,  )
G1 X16.3521 Y15.8128 Z1.45 F2400
M108 R35 (squirt)
M101
G1 X16.3521 Y15.7128 Z1.45 F2400
M108 R2.8 (good to go)
G1 X16.3521 Y-15.7128 Z1.45 F2400
M108 R35  (snort)
M102
G1 X16.3521 Y-15.8128 Z1.45 F2400
M103

(  path 35/36, 2 points,  )
G1 X17.3521 Y-15.8128 Z1.45 F2400
M108 R35 (squirt)
M101
G1 X17.3521 Y-15.7128 Z1.45 F2400
M108 R2.8 (good to go)
G1 X17.3521 Y15.7128 Z1.45 F2400
M108 R35  (snort)
M102
G1 X17.3521 Y15.8128 Z1.45 F2400
M103

(Slice 6, 1 Extruder)
G1 Z1.72 F500 (move Z)
(   Extruder 0)
( extruder 0 )
( GSWITCH T0 )
( TODO: add offset management to Gantry )

(inset 0/2 )
(  path 0/1, 17 points,  )
G1 X17.597 Y-17.497 Z1.72 F2400
M108 R35 (squirt)
M101
G1 X17.497 Y-17.497 Z1.72 F2400
M108 R2.8 (good to go)
G1 X16.0709 Y-17.497 Z1.72 F2400
G1 X1.38913 Y-17.497 Z1.72 F2400
G1 X-16.0709 Y-17.497 Z1.72 F2400
G1 X-17.497 Y-17.497 Z1.72 F2400
G1 X-17.497 Y-16.0709 Z1.72 F2400
G1 X-17.497 Y-1.38913 Z1.72 F2400
G1 X-17.497 Y16.0709 Z1.72 F2400
G1 X-17.497 Y17.497 Z1.72 F2400
G1 X-16.0709 Y17.497 Z1.72 F2400
G1 X-1.38913 Y17.497 Z1.72 F2400
G1 X16.0709 Y17.497 Z1.72 F2400
G1 X17.497 Y17.497 Z1.72 F2400
G1 X17.497 Y16.0709 Z1.72 F2400
G1 X17.497 Y1.38913 Z1.72 F2400
G1 X17.497 Y-16.0709 Z1.72 F2400
G1 X17.497 Y-17.497 Z1.72 F2400
M108 R35  (snort)
M102
G1 X17.497 Y-17.597 Z1.72 F2400
M103

(inset 1/2 )
(  path 0/1, 21 points,  )
G1 X17.957 Y-17.857 Z1.72 F2400
M108 R35 (squirt)
M101
G1 X17.857 Y-17.857 Z1.72 F2400
M108 R2.8 (good to go)
G1 X16.0709 Y-17.857 Z1.72 F2400
G1 X1.38913 Y-17.857 Z1.72 F2400
G1 X-16.0709 Y-17.857 Z1.72 F2400
G1 X-17.857 Y-17.857 Z1.72 F2400
G1 X-17.857 Y-17.8203 Z1.72 F2400
G1 X-17.857 Y-16.0709 Z1.72 F2400
G1 X-17.857 Y-1.38913 Z1.72 F2400
G1 X-17.857 Y16.0709 Z1.72 F2400
G1 X-17.857 Y17.8203 Z1.72 F2400
G1 X-17.857 Y17.857 Z1.72 F2400
G1 X-17.8203 Y17.857 Z1.72 F2400
G1 X-16.0709 Y17.857 Z1.72 F2400
G1 X-1.38913 Y17.857 Z1.72 F2400
G1 X16.0709 Y17.857 Z1.72 F2400
G1 X17.8203 Y17.857 Z1.72 F2400
G1 X17.857 Y17.857 Z1.72 F2400
G1 X17.857 Y16.0709 Z1.72 F2400
G1 X17.857 Y1.38913 Z1.72 F2400
G1 X17.857 Y-16.0709 Z1.72 F2400
G1 X17.857 Y-17.857 Z1.72 F2400
M108 R35  (snort)
M102
G1 X17.857 Y-17.957 Z1.72 F2400
M103

(  path 0/36, 2 points,  )
G1 X15.657 Y17.6479 Z1.72 F2400
M108 R35 (squirt)
M101
G1 X15.557 Y17.6479 Z1.72 F2400
M108 R2.8 (good to go)
G1 X-15.557 Y17.6479 Z1.72 F2400
M108 R35  (snort)
M102
G1 X-15.657 Y17.6479 Z1.72 F2400
M103

(  path 1/36, 2 points,  )
G1 X-15.657 Y16.6479 Z1.72 F2400
M108 R35 (squirt)
M101
G1 X-15.557 Y16.6479 Z1.72 F2400
M108 R2.8 (good to go)
G1 X15.557 Y16.6479 Z1.72 F2400
M108 R35  (snort)
M102
G1 X15.657 Y16.6479 Z1.72 F2400
M103

(  path 2/36, 2 points,  )
G1 X15.657 Y15.6479 Z1.72 F2400
M108 R35 (squirt)
M101
G1 X15.557 Y15.6479 Z1.72 F2400
M108 R2.8 (good to go)
G1 X-15.557 Y15.6479 Z1.72 F2400
M108 R35  (snort)
M102
G1 X-15.657 Y15.6479 Z1.72 F2400
M103

(  path 3/36, 2 points,  )
G1 X-15.657 Y14.6479 Z1.72 F2400
M108 R35 (squirt)
M101
G1 X-15.557 Y14.6479 Z1.72 F2400
M108 R2.8 (good to go)
G1 X15.557 Y14.6479 Z1.72 F2400
M108 R35  (snort)
M102
G1 X15.657 Y14.6479 Z1.72 F2400
M103

(  path 4/36, 2 points,  )
G1 X15.657 Y13.6479 Z1.72 F2400
M108 R35 (squirt)
M101
G1 X15.557 Y13.6479 Z1.72 F2400
M108 R2.8 (good to go)
G1 X-15.557 Y13.6479 Z1.72 F2400
M108 R35  (snort)
M102
G1 X-15.657 Y13.6479 Z1.72 F2400
M103

(  path 5/36, 2 points,  )
G1 X-15.657 Y12.6479 Z1.72 F2400
M108 R35 (squirt)
M101
G1 X-15.557 Y12.6479 Z1.72 F2400
M108 R2.8 (good to go)
G1 X15.557 Y12.6479 Z1.72 F2400
M108 R35  (snort)
M102
G1 X15.657 Y12.6479 Z1.72 F2400
M103

(  path 6/36, 2 points,  )
G1 X15.657 Y11.6479 Z1.72 F2400
M108 R35 (squirt)
M101
G1 X15.557 Y11.6479 Z1.72 F2400
M108 R2.8 (good to go)
G1 X-15.557 Y11.6479 Z1.72 F2400
M108 R35  (snort)
M102
G1 X-15.657 Y11.6479 Z1.72 F2400
M103

(  path 7/36, 2 points,  )
G1 X-15.657 Y10.6479 Z1.72 F2400
M108 R35 (squirt)
M101
G1 X-15.557 Y10.6479 Z1.72 F2400
M108 R2.8 (good to go)
G1 X15.557 Y10.6479 Z1.72 F2400
M108 R35  (snort)
M102
G1 X15.657 Y10.6479 Z1.72 F2400
M103

(  path 8/36, 2 points,  )
G1 X15.657 Y9.64787 Z1.72 F2400
M108 R35 (squirt)
M101
G1 X15.557 Y9.64787 Z1.72 F2400
M108 R2.8 (good to go)
G1 X-15.557 Y9.64787 Z1.72 F2400
M108 R35  (snort)
M102
G1 X-15.657 Y9.64787 Z1.72 F2400
M103

(  path 9/36, 2 points,  )
G1 X-15.657 Y8.64787 Z1.72 F2400
M108 R35 (squirt)
M101
G1 X-15.557 Y8.64787 Z1.72 F2400
M108 R2.8 (good to go)
G1 X15.557 Y8.64787 Z1.72 F2400
M108 R35  (snort)
M102
G1 X15.657 Y8.64787 Z1.72 F2400
M103

(  path 10/36, 2 points,  )
G1 X15.657 Y7.64787 Z1.72 F2400
M108 R35 (squirt)
M101
G1 X15.557 Y7.64787 Z1.72 F2400
M108 R2.8 (good to go)
G1 X-15.557 Y7.64787 Z1.72 F2400
M108 R35  (snort)
M102
G1 X-15.657 Y7.64787 Z1.72 F2400
M103

(  path 11/36, 2 points,  )
G1 X-15.657 Y6.64787 Z1.72 F2400
M108 R35 (squirt)
M101
G1 X-15.557 Y6.64787 Z1.72 F2400
M108 R2.8 (good to go)
G1 X15.557 Y6.64787 Z1.72 F2400
M108 R35  (snort)
M102
G1 X15.657 Y6.64787 Z1.72 F2400
M103

(  path 12/36, 2 points,  )
G1 X15.657 Y5.64787 Z1.72 F2400
M108 R35 (squirt)
M101
G1 X15.557 Y5.64787 Z1.72 F2400
M108 R2.8 (good to go)
G1 X-15.557 Y5.64787 Z1.72 F2400
M108 R35  (snort)
M102
G1 X-15.657 Y5.64787 Z1.72 F2400
M103

(  path 13/36, 2 points,  )
G1 X-15.657 Y4.64787 Z1.72 F2400
M108 R35 (squirt)
M101
G1 X-15.557 Y4.64787 Z1.72 F2400
M108 R2.8 (good to go)
G1 X15.557 Y4.64787 Z1.72 F2400
M108 R35  (snort)
M102
G1 X15.657 Y4.64787 Z1.72 F2400
M103

(  path 14/36, 2 points,  )
G1 X15.657 Y3.64787 Z1.72 F2400
M108 R35 (squirt)
M101
G1 X15.557 Y3.64787 Z1.72 F2400
M108 R2.8 (good to go)
G1 X-15.557 Y3.64787 Z1.72 F2400
M108 R35  (snort)
M102
G1 X-15.657 Y3.64787 Z1.72 F2400
M103

(  path 15/36, 2 points,  )
G1 X-15.657 Y2.64787 Z1.72 F2400
M108 R35 (squirt)
M101
G1 X-15.557 Y2.64787 Z1.72 F2400
M108 R2.8 (good to go)
G1 X15.557 Y2.64787 Z1.72 F2400
M108 R35  (snort)
M102
G1 X15.657 Y2.64787 Z1.72 F2400
M103

(  path 16/36, 2 points,  )
G1 X15.657 Y1.64787 Z1.72 F2400
M108 R35 (squirt)
M101
G1 X15.557 Y1.64787 Z1.72 F2400
M108 R2.8 (good to go)
G1 X-15.557 Y1.64787 Z1.72 F2400
M108 R35  (snort)
M102
G1 X-15.657 Y1.64787 Z1.72 F2400
M103

(  path 17/36, 2 points,  )
G1 X-15.657 Y0.647874 Z1.72 F2400
M108 R35 (squirt)
M101
G1 X-15.557 Y0.647874 Z1.72 F2400
M108 R2.8 (good to go)
G1 X15.557 Y0.647874 Z1.72 F2400
M108 R35  (snort)
M102
G1 X15.657 Y0.647874 Z1.72 F2400
M103

(  path 18/36, 2 points,  )
G1 X15.657 Y-0.352126 Z1.72 F2400
M108 R35 (squirt)
M101
G1 X15.557 Y-0.352126 Z1.72 F2400
M108 R2.8 (good to go)
G1 X-15.557 Y-0.352126 Z1.72 F2400
M108 R35  (snort)
M102
G1 X-15.657 Y-0.352126 Z1.72 F2400
M103

(  path 19/36, 2 points,  )
G1 X-15.657 Y-1.35213 Z1.72 F2400
M108 R35 (squirt)
M101
G1 X-15.557 Y-1.35213 Z1.72 F2400
M108 R2.8 (good to go)
G1 X15.557 Y-1.35213 Z1.72 F2400
M108 R35  (snort)
M102
G1 X15.657 Y-1.35213 Z1.72 F2400
M103

(  path 20/36, 2 points,  )
G1 X15.657 Y-2.35213 Z1.72 F2400
M108 R35 (squirt)
M101
G1 X15.557 Y-2.35213 Z1.72 F2400
M108 R2.8 (good to go)
G1 X-15.557 Y-2.35213 Z1.72 F2400
M108 R35  (snort)
M102
G1 X-15.657 Y-2.35213 Z1.72 F2400
M103

(  path 21/36, 2 points,  )
G1 X-15.657 Y-3.35213 Z1.72 F2400
M108 R35 (squirt)
M101
G1 X-15.557 Y-3.35213 Z1.72 F2400
M108 R2.8 (good to go)
G1 X15.557 Y-3.35213 Z1.72 F2400
M108 R35  (snort)
M102
G1 X15.657 Y-3.35213 Z1.72 F2400
M103

(  path 22/36, 2 points,  )
G1 X15.657 Y-4.35213 Z1.72 F2400
M108 R35 (squirt)
M101
G1 X15.557 Y-4.35213 Z1.72 F2400
M108 R2.8 (good to go)
G1 X-15.557 Y-4.35213 Z1.72 F2400
M108 R35  (snort)
M102
G1 X-15.657 Y-4.35213 Z1.72 F2400
M103

(  path 23/36, 2 points,  )
G1 X-15.657 Y-5.35213 Z1.72 F2400
M108 R35 (squirt)
M101
G1 X-15.557 Y-5.35213 Z1.72 F2400
M108 R2.8 (good to go)
G1 X15.557 Y-5.35213 Z1.72 F2400
M108 R35  (snort)
M102
G1 X15.657 Y-5.35213 Z1.72 F2400
M103

(  path 24/36, 2 points,  )
G1 X15.657 Y-6.35213 Z1.72 F2400
M108 R35 (squirt)
M101
G1 X15.557 Y-6.35213 Z1.72 F2400
M108 R2.8 (good to go)
G1 X-15.557 Y-6.35213 Z1.72 F2400
M108 R35  (snort)
M102
G1 X-15.657 Y-6.35213 Z1.72 F2400
M103

(  path 25/36, 2 points,  )
G1 X-15.657 Y-7.35213 Z1.72 F2400
M108 R35 (squirt)
M101
G1 X-15.557 Y-7.35213 Z1.72 F2400
M108 R2.8 (good to go)
G1 X15.557 Y-7.35213 Z1.72 F2400
M108 R35  (snort)
M102
G1 X15.657 Y-7.35213 Z1.72 F2400
M103

(  path 26/36, 2 points,  )
G1 X15.657 Y-8.35213 Z1.72 F2400
M108 R35 (squirt)
M101
G1 X15.557 Y-8.35213 Z1.72 F2400
M108 R2.8 (good to go)
G1 X-15.557 Y-8.35213 Z1.72 F2400
M108 R35  (snort)
M102
G1 X-15.657 Y-8.35213 Z1.72 F2400
M103

(  path 27/36, 2 points,  )
G1 X-15.657 Y-9.35213 Z1.72 F2400
M108 R35 (squirt)
M101
G1 X-15.557 Y-9.35213 Z1.72 F2400
M108 R2.8 (good to go)
G1 X15.557 Y-9.35213 Z1.72 F2400
M108 R35  (snort)
M102
G1 X15.657 Y-9.35213 Z1.72 F2400
M103

(  path 28/36, 2 points,  )
G1 X15.657 Y-10.3521 Z1.72 F2400
M108 R35 (squirt)
M101
G1 X15.557 Y-10.3521 Z1.72 F2400
M108 R2.8 (good to go)
G1 X-15.557 Y-10.3521 Z1.72 F2400
M108 R35  (snort)
M102
G1 X-15.657 Y-10.3521 Z1.72 F2400
M103

(  path 29/36, 2 points,  )
G1 X-15.657 Y-11.3521 Z1.72 F2400
M108 R35 (squirt)
M101
G1 X-15.557 Y-11.3521 Z1.72 F2400
M108 R2.8 (good to go)
G1 X15.557 Y-11.3521 Z1.72 F2400
M108 R35  (snort)
M102
G1 X15.657 Y-11.3521 Z1.72 F2400
M103

(  path 30/36, 2 points,  )
G1 X15.657 Y-12.3521 Z1.72 F2400
M108 R35 (squirt)
M101
G1 X15.557 Y-12.3521 Z1.72 F2400
M108 R2.8 (good to go)
G1 X-15.557 Y-12.3521 Z1.72 F2400
M108 R35  (snort)
M102
G1 X-15.657 Y-12.3521 Z1.72 F2400
M103

(  path 31/36, 2 points,  )
G1 X-15.657 Y-13.3521 Z1.72 F2400
M108 R35 (squirt)
M101
G1 X-15.557 Y-13.3521 Z1.72 F2400
M108 R2.8 (good to go)
G1 X15.557 Y-13.3521 Z1.72 F2400
M108 R35  (snort)
M102
G1 X15.657 Y-13.3521 Z1.72 F2400
M103

(  path 32/36, 2 points,  )
G1 X15.657 Y-14.3521 Z1.72 F2400
M108 R35 (squirt)
M101
G1 X15.557 Y-14.3521 Z1.72 F2400
M108 R2.8 (good to go)
G1 X-15.557 Y-14.3521 Z1.72 F2400
M108 R35  (snort)
M102
G1 X-15.657 Y-14.3521 Z1.72 F2400
M103

(  path 33/36, 2 points,  )
G1 X-15.657 Y-15.3521 Z1.72 F2400
M108 R35 (squirt)
M101
G1 X-15.557 Y-15.3521 Z1.72 F2400
M108 R2.8 (good to go)
G1 X15.557 Y-15.3521 Z1.72 F2400
M108 R35  (snort)
M102
G1 X15.657 Y-15.3521 Z1.72 F2400
M103

(  path 34/36, 2 points,  )
G1 X15.657 Y-16.3521 Z1.72 F2400
M108 R35 (squirt)
M101
G1 X15.557 Y-16.3521 Z1.72 F2400
M108 R2.8 (good to go)
G1 X-15.557 Y-16.3521 Z1.72 F2400
M108 R35  (snort)
M102
G1 X-15.657 Y-16.3521 Z1.72 F2400
M103

(  path 35/36, 2 points,  )
G1 X-15.657 Y-17.3521 Z1.72 F2400
M108 R35 (squirt)
M101
G1 X-15.557 Y-17.3521 Z1.72 F2400
M108 R2.8 (good to go)
G1 X15.557 Y-17.3521 Z1.72 F2400
M108 R35  (snort)
M102
G1 X15.657 Y-17.3521 Z1.72 F2400
M103

(Slice 7, 1 Extruder)
G1 Z1.99 F500 (move Z)
(   Extruder 0)
( extruder 0 )
( GSWITCH T0 )
( TODO: add offset management to Gantry )

(inset 0/2 )
(  path 0/1, 17 points,  )
G1 X17.4411 Y-17.3411 Z1.99 F2400
M108 R35 (squirt)
M101
G1 X17.3411 Y-17.3411 Z1.99 F2400
M108 R2.8 (good to go)
G1 X15.6032 Y-17.3411 Z1.99 F2400
G1 X-1.38322 Y-17.3411 Z1.99 F2400
G1 X-15.6032 Y-17.3411 Z1.99 F2400
G1 X-17.3411 Y-17.3411 Z1.99 F2400
G1 X-17.3411 Y-15.6032 Z1.99 F2400
G1 X-17.3411 Y1.38322 Z1.99 F2400
G1 X-17.3411 Y15.6032 Z1.99 F2400
G1 X-17.3411 Y17.3411 Z1.99 F2400
G1 X-15.6032 Y17.3411 Z1.99 F2400
G1 X1.38322 Y17.3411 Z1.99 F2400
G1 X15.6032 Y17.3411 Z1.99 F2400
G1 X17.3411 Y17.3411 Z1.99 F2400
G1 X17.3411 Y15.6032 Z1.99 F2400
G1 X17.3411 Y-1.38322 Z1.99 F2400
G1 X17.3411 Y-15.6032 Z1.99 F2400
G1 X17.3411 Y-17.3411 Z1.99 F2400
M108 R35  (snort)
M102
G1 X17.3411 Y-17.4411 Z1.99 F2400
M103

(inset 1/2 )
(  path 0/1, 21 points,  )
G1 X17.8011 Y-17.7011 Z1.99 F2400
M108 R35 (squirt)
M101
G1 X17.7011 Y-17.7011 Z1.99 F2400
M108 R2.8 (good to go)
G1 X15.6032 Y-17.7011 Z1.99 F2400
G1 X-1.38322 Y-17.7011 Z1.99 F2400
G1 X-15.6032 Y-17.7011 Z1.99 F2400
G1 X-17.7011 Y-17.7011 Z1.99 F2400
G1 X-17.7011 Y-17.6273 Z1.99 F2400
G1 X-17.7011 Y-15.6032 Z1.99 F2400
G1 X-17.7011 Y1.38322 Z1.99 F2400
G1 X-17.7011 Y15.6032 Z1.99 F2400
G1 X-17.7011 Y17.6273 Z1.99 F2400
G1 X-17.7011 Y17.7011 Z1.99 F2400
G1 X-17.6273 Y17.7011 Z1.99 F2400
G1 X-15.6032 Y17.7011 Z1.99 F2400
G1 X1.38322 Y17.7011 Z1.99 F2400
G1 X15.6032 Y17.7011 Z1.99 F2400
G1 X17.6273 Y17.7011 Z1.99 F2400
G1 X17.7011 Y17.7011 Z1.99 F2400
G1 X17.7011 Y15.6032 Z1.99 F2400
G1 X17.7011 Y-1.38322 Z1.99 F2400
G1 X17.7011 Y-15.6032 Z1.99 F2400
G1 X17.7011 Y-17.7011 Z1.99 F2400
M108 R35  (snort)
M102
G1 X17.7011 Y-17.8011 Z1.99 F2400
M103

(  path 0/36, 2 points,  )
G1 X17.6479 Y-15.5011 Z1.99 F2400
M108 R35 (squirt)
M101
G1 X17.6479 Y-15.4011 Z1.99 F2400
M108 R2.8 (good to go)
G1 X17.6479 Y15.4011 Z1.99 F2400
M108 R35  (snort)
M102
G1 X17.6479 Y15.5011 Z1.99 F2400
M103

(  path 1/36, 2 points,  )
G1 X16.6479 Y15.5011 Z1.99 F2400
M108 R35 (squirt)
M101
G1 X16.6479 Y15.4011 Z1.99 F2400
M108 R2.8 (good to go)
G1 X16.6479 Y-15.4011 Z1.99 F2400
M108 R35  (snort)
M102
G1 X16.6479 Y-15.5011 Z1.99 F2400
M103

(  path 2/36, 2 points,  )
G1 X15.6479 Y-15.5011 Z1.99 F2400
M108 R35 (squirt)
M101
G1 X15.6479 Y-15.4011 Z1.99 F2400
M108 R2.8 (good to go)
G1 X15.6479 Y15.4011 Z1.99 F2400
M108 R35  (snort)
M102
G1 X15.6479 Y15.5011 Z1.99 F2400
M103

(  path 3/36, 2 points,  )
G1 X14.6479 Y15.5011 Z1.99 F2400
M108 R35 (squirt)
M101
G1 X14.6479 Y15.4011 Z1.99 F2400
M108 R2.8 (good to go)
G1 X14.6479 Y-15.4011 Z1.99 F2400
M108 R35  (snort)
M102
G1 X14.6479 Y-15.5011 Z1.99 F2400
M103

(  path 4/36, 2 points,  )
G1 X13.6479 Y-15.5011 Z1.99 F2400
M108 R35 (squirt)
M101
G1 X13.6479 Y-15.4011 Z1.99 F2400
M108 R2.8 (good to go)
G1 X13.6479 Y15.4011 Z1.99 F2400
M108 R35  (snort)
M102
G1 X13.6479 Y15.5011 Z1.99 F2400
M103

(  path 5/36, 2 points,  )
G1 X12.6479 Y15.5011 Z1.99 F2400
M108 R35 (squirt)
M101
G1 X12.6479 Y15.4011 Z1.99 F2400
M108 R2.8 (good to go)
G1 X12.6479 Y-15.4011 Z1.99 F2400
M108 R35  (snort)
M102
G1 X12.6479 Y-15.5011 Z1.99 F2400
M103

(  path 6/36, 2 points,  )
G1 X11.6479 Y-15.5011 Z1.99 F2400
M108 R35 (squirt)
M101
G1 X11.6479 Y-15.4011 Z1.99 F2400
M108 R2.8 (good to go)
G1 X11.6479 Y15.4011 Z1.99 F2400
M108 R35  (snort)
M102
G1 X11.6479 Y15.5011 Z1.99 F2400
M103

(  path 7/36, 2 points,  )
G1 X10.6479 Y15.5011 Z1.99 F2400
M108 R35 (squirt)
M101
G1 X10.6479 Y15.4011 Z1.99 F2400
M108 R2.8 (good to go)
G1 X10.6479 Y-15.4011 Z1.99 F2400
M108 R35  (snort)
M102
G1 X10.6479 Y-15.5011 Z1.99 F2400
M103

(  path 8/36, 2 points,  )
G1 X9.64787 Y-15.5011 Z1.99 F2400
M108 R35 (squirt)
M101
G1 X9.64787 Y-15.4011 Z1.99 F2400
M108 R2.8 (good to go)
G1 X9.64787 Y15.4011 Z1.99 F2400
M108 R35  (snort)
M102
G1 X9.64787 Y15.5011 Z1.99 F2400
M103

(  path 9/36, 2 points,  )
G1 X8.64787 Y15.5011 Z1.99 F2400
M108 R35 (squirt)
M101
G1 X8.64787 Y15.4011 Z1.99 F2400
M108 R2.8 (good to go)
G1 X8.64787 Y-15.4011 Z1.99 F2400
M108 R35  (snort)
M102
G1 X8.64787 Y-15.5011 Z1.99 F2400
M103

(  path 10/36, 2 points,  )
G1 X7.64787 Y-15.5011 Z1.99 F2400
M108 R35 (squirt)
M101
G1 X7.64787 Y-15.4011 Z1.99 F2400
M108 R2.8 (good to go)
G1 X7.64787 Y15.4011 Z1.99 F2400
M108 R35  (snort)
M102
G1 X7.64787 Y15.5011 Z1.99 F2400
M103

(  path 11/36, 2 points,  )
G1 X6.64787 Y15.5011 Z1.99 F2400
M108 R35 (squirt)
M101
G1 X6.64787 Y15.4011 Z1.99 F2400
M108 R2.8 (good to go)
G1 X6.64787 Y-15.4011 Z1.99 F2400
M108 R35  (snort)
M102
G1 X6.64787 Y-15.5011 Z1.99 F2400
M103

(  path 12/36, 2 points,  )
G1 X5.64787 Y-15.5011 Z1.99 F2400
M108 R35 (squirt)
M101
G1 X5.64787 Y-15.4011 Z1.99 F2400
M108 R2.8 (good to go)
G1 X5.64787 Y15.4011 Z1.99 F2400
M108 R35  (snort)
M102
G1 X5.64787 Y15.5011 Z1.99 F2400
M103

(  path 13/36, 2 points,  )
G1 X4.64787 Y15.5011 Z1.99 F2400
M108 R35 (squirt)
M101
G1 X4.64787 Y15.4011 Z1.99 F2400
M108 R2.8 (good to go)
G1 X4.64787 Y-15.4011 Z1.99 F2400
M108 R35  (snort)
M102
G1 X4.64787 Y-15.5011 Z1.99 F2400
M103

(  path 14/36, 2 points,  )
G1 X3.64787 Y-15.5011 Z1.99 F2400
M108 R35 (squirt)
M101
G1 X3.64787 Y-15.4011 Z1.99 F2400
M108 R2.8 (good to go)
G1 X3.64787 Y15.4011 Z1.99 F2400
M108 R35  (snort)
M102
G1 X3.64787 Y15.5011 Z1.99 F2400
M103

(  path 15/36, 2 points,  )
G1 X2.64787 Y15.5011 Z1.99 F2400
M108 R35 (squirt)
M101
G1 X2.64787 Y15.4011 Z1.99 F2400
M108 R2.8 (good to go)
G1 X2.64787 Y-15.4011 Z1.99 F2400
M108 R35  (snort)
M102
G1 X2.64787 Y-15.5011 Z1.99 F2400
M103

(  path 16/36, 2 points,  )
G1 X1.64787 Y-15.5011 Z1.99 F2400
M108 R35 (squirt)
M101
G1 X1.64787 Y-15.4011 Z1.99 F2400
M108 R2.8 (good to go)
G1 X1.64787 Y15.4011 Z1.99 F2400
M108 R35  (snort)
M102
G1 X1.64787 Y15.5011 Z1.99 F2400
M103

(  path 17/36, 2 points,  )
G1 X0.647874 Y15.5011 Z1.99 F2400
M108 R35 (squirt)
M101
G1 X0.647874 Y15.4011 Z1.99 F2400
M108 R2.8 (good to go)
G1 X0.647874 Y-15.4011 Z1.99 F2400
M108 R35  (snort)
M102
G1 X0.647874 Y-15.5011 Z1.99 F2400
M103

(  path 18/36, 2 points,  )
G1 X-0.352126 Y-15.5011 Z1.99 F2400
M108 R35 (squirt)
M101
G1 X-0.352126 Y-15.4011 Z1.99 F2400
M108 R2.8 (good to go)
G1 X-0.352126 Y15.4011 Z1.99 F2400
M108 R35  (snort)
M102
G1 X-0.352126 Y15.5011 Z1.99 F2400
M103

(  path 19/36, 2 points,  )
G1 X-1.35213 Y15.5011 Z1.99 F2400
M108 R35 (squirt)
M101
G1 X-1.35213 Y15.4011 Z1.99 F2400
M108 R2.8 (good to go)
G1 X-1.35213 Y-15.4011 Z1.99 F2400
M108 R35  (snort)
M102
G1 X-1.35213 Y-15.5011 Z1.99 F2400
M103

(  path 20/36, 2 points,  )
G1 X-2.35213 Y-15.5011 Z1.99 F2400
M108 R35 (squirt)
M101
G1 X-2.35213 Y-15.4011 Z1.99 F2400
M108 R2.8 (good to go)
G1 X-2.35213 Y15.4011 Z1.99 F2400
M108 R35  (snort)
M102
G1 X-2.35213 Y15.5011 Z1.99 F2400
M103

(  path 21/36, 2 points,  )
G1 X-3.35213 Y15.5011 Z1.99 F2400
M108 R35 (squirt)
M101
G1 X-3.35213 Y15.4011 Z1.99 F2400
M108 R2.8 (good to go)
G1 X-3.35213 Y-15.4011 Z1.99 F2400
M108 R35  (snort)
M102
G1 X-3.35213 Y-15.5011 Z1.99 F2400
M103

(  path 22/36, 2 points,  )
G1 X-4.35213 Y-15.5011 Z1.99 F2400
M108 R35 (squirt)
M101
G1 X-4.35213 Y-15.4011 Z1.99 F2400
M108 R2.8 (good to go)
G1 X-4.35213 Y15.4011 Z1.99 F2400
M108 R35  (snort)
M102
G1 X-4.35213 Y15.5011 Z1.99 F2400
M103

(  path 23/36, 2 points,  )
G1 X-5.35213 Y15.5011 Z1.99 F2400
M108 R35 (squirt)
M101
G1 X-5.35213 Y15.4011 Z1.99 F2400
M108 R2.8 (good to go)
G1 X-5.35213 Y-15.4011 Z1.99 F2400
M108 R35  (snort)
M102
G1 X-5.35213 Y-15.5011 Z1.99 F2400
M103

(  path 24/36, 2 points,  )
G1 X-6.35213 Y-15.5011 Z1.99 F2400
M108 R35 (squirt)
M101
G1 X-6.35213 Y-15.4011 Z1.99 F2400
M108 R2.8 (good to go)
G1 X-6.35213 Y15.4011 Z1.99 F2400
M108 R35  (snort)
M102
G1 X-6.35213 Y15.5011 Z1.99 F2400
M103

(  path 25/36, 2 points,  )
G1 X-7.35213 Y15.5011 Z1.99 F2400
M108 R35 (squirt)
M101
G1 X-7.35213 Y15.4011 Z1.99 F2400
M108 R2.8 (good to go)
G1 X-7.35213 Y-15.4011 Z1.99 F2400
M108 R35  (snort)
M102
G1 X-7.35213 Y-15.5011 Z1.99 F2400
M103

(  path 26/36, 2 points,  )
G1 X-8.35213 Y-15.5011 Z1.99 F2400
M108 R35 (squirt)
M101
G1 X-8.35213 Y-15.4011 Z1.99 F2400
M108 R2.8 (good to go)
G1 X-8.35213 Y15.4011 Z1.99 F2400
M108 R35  (snort)
M102
G1 X-8.35213 Y15.5011 Z1.99 F2400
M103

(  path 27/36, 2 points,  )
G1 X-9.35213 Y15.5011 Z1.99 F2400
M108 R35 (squirt)
M101
G1 X-9.35213 Y15.4011 Z1.99 F2400
M108 R2.8 (good to go)
G1 X-9.35213 Y-15.4011 Z1.99 F2400
M108 R35  (snort)
M102
G1 X-9.35213 Y-15.5011 Z1.99 F2400
M103

(  path 28/36, 2 points,  )
G1 X-10.3521 Y-15.5011 Z1.99 F2400
M108 R35 (squirt)
M101
G1 X-10.3521 Y-15.4011 Z1.99 F2400
M108 R2.8 (good to go)
G1 X-10.3521 Y15.4011 Z1.99 F2400
M108 R35  (snort)
M102
G1 X-10.3521 Y15.5011 Z1.99 F2400
M103

(  path 29/36, 2 points,  )
G1 X-11.3521 Y15.5011 Z1.99 F2400
M108 R35 (squirt)
M101
G1 X-11.3521 Y15.4011 Z1.99 F2400
M108 R2.8 (good to go)
G1 X-11.3521 Y-15.4011 Z1.99 F2400
M108 R35  (snort)
M102
G1 X-11.3521 Y-15.5011 Z1.99 F2400
M103

(  path 30/36, 2 points,  )
G1 X-12.3521 Y-15.5011 Z1.99 F2400
M108 R35 (squirt)
M101
G1 X-12.3521 Y-15.4011 Z1.99 F2400
M108 R2.8 (good to go)
G1 X-12.3521 Y15.4011 Z1.99 F2400
M108 R35  (snort)
M102
G1 X-12.3521 Y15.5011 Z1.99 F2400
M103

(  path 31/36, 2 points,  )
G1 X-13.3521 Y15.5011 Z1.99 F2400
M108 R35 (squirt)
M101
G1 X-13.3521 Y15.4011 Z1.99 F2400
M108 R2.8 (good to go)
G1 X-13.3521 Y-15.4011 Z1.99 F2400
M108 R35  (snort)
M102
G1 X-13.3521 Y-15.5011 Z1.99 F2400
M103

(  path 32/36, 2 points,  )
G1 X-14.3521 Y-15.5011 Z1.99 F2400
M108 R35 (squirt)
M101
G1 X-14.3521 Y-15.4011 Z1.99 F2400
M108 R2.8 (good to go)
G1 X-14.3521 Y15.4011 Z1.99 F2400
M108 R35  (snort)
M102
G1 X-14.3521 Y15.5011 Z1.99 F2400
M103

(  path 33/36, 2 points,  )
G1 X-15.3521 Y15.5011 Z1.99 F2400
M108 R35 (squirt)
M101
G1 X-15.3521 Y15.4011 Z1.99 F2400
M108 R2.8 (good to go)
G1 X-15.3521 Y-15.4011 Z1.99 F2400
M108 R35  (snort)
M102
G1 X-15.3521 Y-15.5011 Z1.99 F2400
M103

(  path 34/36, 2 points,  )
G1 X-16.3521 Y-15.5011 Z1.99 F2400
M108 R35 (squirt)
M101
G1 X-16.3521 Y-15.4011 Z1.99 F2400
M108 R2.8 (good to go)
G1 X-16.3521 Y15.4011 Z1.99 F2400
M108 R35  (snort)
M102
G1 X-16.3521 Y15.5011 Z1.99 F2400
M103

(  path 35/36, 2 points,  )
G1 X-17.3521 Y15.5011 Z1.99 F2400
M108 R35 (squirt)
M101
G1 X-17.3521 Y15.4011 Z1.99 F2400
M108 R2.8 (good to go)
G1 X-17.3521 Y-15.4011 Z1.99 F2400
M108 R35  (snort)
M102
G1 X-17.3521 Y-15.5011 Z1.99 F2400
M103

(Slice 8, 1 Extruder)
G1 Z2.26 F500 (move Z)
(   Extruder 0)
( extruder 0 )
( GSWITCH T0 )
( TODO: add offset management to Gantry )

(inset 0/2 )
(  path 0/1, 17 points,  )
G1 X17.2852 Y-17.1852 Z2.26 F2400
M108 R35 (squirt)
M101
G1 X17.1852 Y-17.1852 Z2.26 F2400
M108 R2.8 (good to go)
G1 X15.1356 Y-17.1852 Z2.26 F2400
G1 X-4.15557 Y-17.1852 Z2.26 F2400
G1 X-15.1356 Y-17.1852 Z2.26 F2400
G1 X-17.1852 Y-17.1852 Z2.26 F2400
G1 X-17.1852 Y-15.1356 Z2.26 F2400
G1 X-17.1852 Y4.15557 Z2.26 F2400
G1 X-17.1852 Y15.1356 Z2.26 F2400
G1 X-17.1852 Y17.1852 Z2.26 F2400
G1 X-15.1356 Y17.1852 Z2.26 F2400
G1 X4.15557 Y17.1852 Z2.26 F2400
G1 X15.1356 Y17.1852 Z2.26 F2400
G1 X17.1852 Y17.1852 Z2.26 F2400
G1 X17.1852 Y15.1356 Z2.26 F2400
G1 X17.1852 Y-4.15557 Z2.26 F2400
G1 X17.1852 Y-15.1356 Z2.26 F2400
G1 X17.1852 Y-17.1852 Z2.26 F2400
M108 R35  (snort)
M102
G1 X17.1852 Y-17.2852 Z2.26 F2400
M103

(inset 1/2 )
(  path 0/1, 21 points,  )
G1 X17.6452 Y-17.5452 Z2.26 F2400
M108 R35 (squirt)
M101
G1 X17.5452 Y-17.5452 Z2.26 F2400
M108 R2.8 (good to go)
G1 X15.1356 Y-17.5452 Z2.26 F2400
G1 X-4.15557 Y-17.5452 Z2.26 F2400
G1 X-15.1356 Y-17.5452 Z2.26 F2400
G1 X-17.5452 Y-17.5452 Z2.26 F2400
G1 X-17.5452 Y-17.4342 Z2.26 F2400
G1 X-17.5452 Y-15.1356 Z2.26 F2400
G1 X-17.5452 Y4.15557 Z2.26 F2400
G1 X-17.5452 Y15.1356 Z2.26 F2400
G1 X-17.5452 Y17.4342 Z2.26 F2400
G1 X-17.5452 Y17.5452 Z2.26 F2400
G1 X-17.4342 Y17.5452 Z2.26 F2400
G1 X-15.1356 Y17.5452 Z2.26 F2400
G1 X4.15557 Y17.5452 Z2.26 F2400
G1 X15.1356 Y17.5452 Z2.26 F2400
G1 X17.4342 Y17.5452 Z2.26 F2400
G1 X17.5452 Y17.5452 Z2.26 F2400
G1 X17.5452 Y15.1356 Z2.26 F2400
G1 X17.5452 Y-4.15557 Z2.26 F2400
G1 X17.5452 Y-15.1356 Z2.26 F2400
G1 X17.5452 Y-17.5452 Z2.26 F2400
M108 R35  (snort)
M102
G1 X17.5452 Y-17.6452 Z2.26 F2400
M103

(  path 0/36, 2 points,  )
G1 X-15.3452 Y-17.6479 Z2.26 F2400
M108 R35 (squirt)
M101
G1 X-15.2452 Y-17.6479 Z2.26 F2400
M108 R2.8 (good to go)
G1 X15.2452 Y-17.6479 Z2.26 F2400
M108 R35  (snort)
M102
G1 X15.3452 Y-17.6479 Z2.26 F2400
M103

(  path 1/36, 2 points,  )
G1 X15.3452 Y-16.6479 Z2.26 F2400
M108 R35 (squirt)
M101
G1 X15.2452 Y-16.6479 Z2.26 F2400
M108 R2.8 (good to go)
G1 X-15.2452 Y-16.6479 Z2.26 F2400
M108 R35  (snort)
M102
G1 X-15.3452 Y-16.6479 Z2.26 F2400
M103

(  path 2/36, 2 points,  )
G1 X-15.3452 Y-15.6479 Z2.26 F2400
M108 R35 (squirt)
M101
G1 X-15.2452 Y-15.6479 Z2.26 F2400
M108 R2.8 (good to go)
G1 X15.2452 Y-15.6479 Z2.26 F2400
M108 R35  (snort)
M102
G1 X15.3452 Y-15.6479 Z2.26 F2400
M103

(  path 3/36, 2 points,  )
G1 X15.3452 Y-14.6479 Z2.26 F2400
M108 R35 (squirt)
M101
G1 X15.2452 Y-14.6479 Z2.26 F2400
M108 R2.8 (good to go)
G1 X-15.2452 Y-14.6479 Z2.26 F2400
M108 R35  (snort)
M102
G1 X-15.3452 Y-14.6479 Z2.26 F2400
M103

(  path 4/36, 2 points,  )
G1 X-15.3452 Y-13.6479 Z2.26 F2400
M108 R35 (squirt)
M101
G1 X-15.2452 Y-13.6479 Z2.26 F2400
M108 R2.8 (good to go)
G1 X15.2452 Y-13.6479 Z2.26 F2400
M108 R35  (snort)
M102
G1 X15.3452 Y-13.6479 Z2.26 F2400
M103

(  path 5/36, 2 points,  )
G1 X15.3452 Y-12.6479 Z2.26 F2400
M108 R35 (squirt)
M101
G1 X15.2452 Y-12.6479 Z2.26 F2400
M108 R2.8 (good to go)
G1 X-15.2452 Y-12.6479 Z2.26 F2400
M108 R35  (snort)
M102
G1 X-15.3452 Y-12.6479 Z2.26 F2400
M103

(  path 6/36, 2 points,  )
G1 X-15.3452 Y-11.6479 Z2.26 F2400
M108 R35 (squirt)
M101
G1 X-15.2452 Y-11.6479 Z2.26 F2400
M108 R2.8 (good to go)
G1 X15.2452 Y-11.6479 Z2.26 F2400
M108 R35  (snort)
M102
G1 X15.3452 Y-11.6479 Z2.26 F2400
M103

(  path 7/36, 2 points,  )
G1 X15.3452 Y-10.6479 Z2.26 F2400
M108 R35 (squirt)
M101
G1 X15.2452 Y-10.6479 Z2.26 F2400
M108 R2.8 (good to go)
G1 X-15.2452 Y-10.6479 Z2.26 F2400
M108 R35  (snort)
M102
G1 X-15.3452 Y-10.6479 Z2.26 F2400
M103

(  path 8/36, 2 points,  )
G1 X-15.3452 Y-9.64787 Z2.26 F2400
M108 R35 (squirt)
M101
G1 X-15.2452 Y-9.64787 Z2.26 F2400
M108 R2.8 (good to go)
G1 X15.2452 Y-9.64787 Z2.26 F2400
M108 R35  (snort)
M102
G1 X15.3452 Y-9.64787 Z2.26 F2400
M103

(  path 9/36, 2 points,  )
G1 X15.3452 Y-8.64787 Z2.26 F2400
M108 R35 (squirt)
M101
G1 X15.2452 Y-8.64787 Z2.26 F2400
M108 R2.8 (good to go)
G1 X-15.2452 Y-8.64787 Z2.26 F2400
M108 R35  (snort)
M102
G1 X-15.3452 Y-8.64787 Z2.26 F2400
M103

(  path 10/36, 2 points,  )
G1 X-15.3452 Y-7.64787 Z2.26 F2400
M108 R35 (squirt)
M101
G1 X-15.2452 Y-7.64787 Z2.26 F2400
M108 R2.8 (good to go)
G1 X15.2452 Y-7.64787 Z2.26 F2400
M108 R35  (snort)
M102
G1 X15.3452 Y-7.64787 Z2.26 F2400
M103

(  path 11/36, 2 points,  )
G1 X15.3452 Y-6.64787 Z2.26 F2400
M108 R35 (squirt)
M101
G1 X15.2452 Y-6.64787 Z2.26 F2400
M108 R2.8 (good to go)
G1 X-15.2452 Y-6.64787 Z2.26 F2400
M108 R35  (snort)
M102
G1 X-15.3452 Y-6.64787 Z2.26 F2400
M103

(  path 12/36, 2 points,  )
G1 X-15.3452 Y-5.64787 Z2.26 F2400
M108 R35 (squirt)
M101
G1 X-15.2452 Y-5.64787 Z2.26 F2400
M108 R2.8 (good to go)
G1 X15.2452 Y-5.64787 Z2.26 F2400
M108 R35  (snort)
M102
G1 X15.3452 Y-5.64787 Z2.26 F2400
M103

(  path 13/36, 2 points,  )
G1 X15.3452 Y-4.64787 Z2.26 F2400
M108 R35 (squirt)
M101
G1 X15.2452 Y-4.64787 Z2.26 F2400
M108 R2.8 (good to go)
G1 X-15.2452 Y-4.64787 Z2.26 F2400
M108 R35  (snort)
M102
G1 X-15.3452 Y-4.64787 Z2.26 F2400
M103

(  path 14/36, 2 points,  )
G1 X-15.3452 Y-3.64787 Z2.26 F2400
M108 R35 (squirt)
M101
G1 X-15.2452 Y-3.64787 Z2.26 F2400
M108 R2.8 (good to go)
G1 X15.2452 Y-3.64787 Z2.26 F2400
M108 R35  (snort)
M102
G1 X15.3452 Y-3.64787 Z2.26 F2400
M103

(  path 15/36, 2 points,  )
G1 X15.3452 Y-2.64787 Z2.26 F2400
M108 R35 (squirt)
M101
G1 X15.2452 Y-2.64787 Z2.26 F2400
M108 R2.8 (good to go)
G1 X-15.2452 Y-2.64787 Z2.26 F2400
M108 R35  (snort)
M102
G1 X-15.3452 Y-2.64787 Z2.26 F2400
M103

(  path 16/36, 2 points,  )
G1 X-15.3452 Y-1.64787 Z2.26 F2400
M108 R35 (squirt)
M101
G1 X-15.2452 Y-1.64787 Z2.26 F2400
M108 R2.8 (good to go)
G1 X15.2452 Y-1.64787 Z2.26 F2400
M108 R35  (snort)
M102
G1 X15.3452 Y-1.64787 Z2.26 F2400
M103

(  path 17/36, 2 points,  )
G1 X15.3452 Y-0.647874 Z2.26 F2400
M108 R35 (squirt)
M101
G1 X15.2452 Y-0.647874 Z2.26 F2400
M108 R2.8 (good to go)
G1 X-15.2452 Y-0.647874 Z2.26 F2400
M108 R35  (snort)
M102
G1 X-15.3452 Y-0.647874 Z2.26 F2400
M103

(  path 18/36, 2 points,  )
G1 X-15.3452 Y0.352126 Z2.26 F2400
M108 R35 (squirt)
M101
G1 X-15.2452 Y0.352126 Z2.26 F2400
M108 R2.8 (good to go)
G1 X15.2452 Y0.352126 Z2.26 F2400
M108 R35  (snort)
M102
G1 X15.3452 Y0.352126 Z2.26 F2400
M103

(  path 19/36, 2 points,  )
G1 X15.3452 Y1.35213 Z2.26 F2400
M108 R35 (squirt)
M101
G1 X15.2452 Y1.35213 Z2.26 F2400
M108 R2.8 (good to go)
G1 X-15.2452 Y1.35213 Z2.26 F2400
M108 R35  (snort)
M102
G1 X-15.3452 Y1.35213 Z2.26 F2400
M103

(  path 20/36, 2 points,  )
G1 X-15.3452 Y2.35213 Z2.26 F2400
M108 R35 (squirt)
M101
G1 X-15.2452 Y2.35213 Z2.26 F2400
M108 R2.8 (good to go)
G1 X15.2452 Y2.35213 Z2.26 F2400
M108 R35  (snort)
M102
G1 X15.3452 Y2.35213 Z2.26 F2400
M103

(  path 21/36, 2 points,  )
G1 X15.3452 Y3.35213 Z2.26 F2400
M108 R35 (squirt)
M101
G1 X15.2452 Y3.35213 Z2.26 F2400
M108 R2.8 (good to go)
G1 X-15.2452 Y3.35213 Z2.26 F2400
M108 R35  (snort)
M102
G1 X-15.3452 Y3.35213 Z2.26 F2400
M103

(  path 22/36, 2 points,  )
G1 X-15.3452 Y4.35213 Z2.26 F2400
M108 R35 (squirt)
M101
G1 X-15.2452 Y4.35213 Z2.26 F2400
M108 R2.8 (good to go)
G1 X15.2452 Y4.35213 Z2.26 F2400
M108 R35  (snort)
M102
G1 X15.3452 Y4.35213 Z2.26 F2400
M103

(  path 23/36, 2 points,  )
G1 X15.3452 Y5.35213 Z2.26 F2400
M108 R35 (squirt)
M101
G1 X15.2452 Y5.35213 Z2.26 F2400
M108 R2.8 (good to go)
G1 X-15.2452 Y5.35213 Z2.26 F2400
M108 R35  (snort)
M102
G1 X-15.3452 Y5.35213 Z2.26 F2400
M103

(  path 24/36, 2 points,  )
G1 X-15.3452 Y6.35213 Z2.26 F2400
M108 R35 (squirt)
M101
G1 X-15.2452 Y6.35213 Z2.26 F2400
M108 R2.8 (good to go)
G1 X15.2452 Y6.35213 Z2.26 F2400
M108 R35  (snort)
M102
G1 X15.3452 Y6.35213 Z2.26 F2400
M103

(  path 25/36, 2 points,  )
G1 X15.3452 Y7.35213 Z2.26 F2400
M108 R35 (squirt)
M101
G1 X15.2452 Y7.35213 Z2.26 F2400
M108 R2.8 (good to go)
G1 X-15.2452 Y7.35213 Z2.26 F2400
M108 R35  (snort)
M102
G1 X-15.3452 Y7.35213 Z2.26 F2400
M103

(  path 26/36, 2 points,  )
G1 X-15.3452 Y8.35213 Z2.26 F2400
M108 R35 (squirt)
M101
G1 X-15.2452 Y8.35213 Z2.26 F2400
M108 R2.8 (good to go)
G1 X15.2452 Y8.35213 Z2.26 F2400
M108 R35  (snort)
M102
G1 X15.3452 Y8.35213 Z2.26 F2400
M103

(  path 27/36, 2 points,  )
G1 X15.3452 Y9.35213 Z2.26 F2400
M108 R35 (squirt)
M101
G1 X15.2452 Y9.35213 Z2.26 F2400
M108 R2.8 (good to go)
G1 X-15.2452 Y9.35213 Z2.26 F2400
M108 R35  (snort)
M102
G1 X-15.3452 Y9.35213 Z2.26 F2400
M103

(  path 28/36, 2 points,  )
G1 X-15.3452 Y10.3521 Z2.26 F2400
M108 R35 (squirt)
M101
G1 X-15.2452 Y10.3521 Z2.26 F2400
M108 R2.8 (good to go)
G1 X15.2452 Y10.3521 Z2.26 F2400
M108 R35  (snort)
M102
G1 X15.3452 Y10.3521 Z2.26 F2400
M103

(  path 29/36, 2 points,  )
G1 X15.3452 Y11.3521 Z2.26 F2400
M108 R35 (squirt)
M101
G1 X15.2452 Y11.3521 Z2.26 F2400
M108 R2.8 (good to go)
G1 X-15.2452 Y11.3521 Z2.26 F2400
M108 R35  (snort)
M102
G1 X-15.3452 Y11.3521 Z2.26 F2400
M103

(  path 30/36, 2 points,  )
G1 X-15.3452 Y12.3521 Z2.26 F2400
M108 R35 (squirt)
M101
G1 X-15.2452 Y12.3521 Z2.26 F2400
M108 R2.8 (good to go)
G1 X15.2452 Y12.3521 Z2.26 F2400
M108 R35  (snort)
M102
G1 X15.3452 Y12.3521 Z2.26 F2400
M103

(  path 31/36, 2 points,  )
G1 X15.3452 Y13.3521 Z2.26 F2400
M108 R35 (squirt)
M101
G1 X15.2452 Y13.3521 Z2.26 F2400
M108 R2.8 (good to go)
G1 X-15.2452 Y13.3521 Z2.26 F2400
M108 R35  (snort)
M102
G1 X-15.3452 Y13.3521 Z2.26 F2400
M103

(  path 32/36, 2 points,  )
G1 X-15.3452 Y14.3521 Z2.26 F2400
M108 R35 (squirt)
M101
G1 X-15.2452 Y14.3521 Z2.26 F2400
M108 R2.8 (good to go)
G1 X15.2452 Y14.3521 Z2.26 F2400
M108 R35  (snort)
M102
G1 X15.3452 Y14.3521 Z2.26 F2400
M103

(  path 33/36, 2 points,  )
G1 X15.3452 Y15.3521 Z2.26 F2400
M108 R35 (squirt)
M101
G1 X15.2452 Y15.3521 Z2.26 F2400
M108 R2.8 (good to go)
G1 X-15.2452 Y15.3521 Z2.26 F2400
M108 R35  (snort)
M102
G1 X-15.3452 Y15.3521 Z2.26 F2400
M103

(  path 34/36, 2 points,  )
G1 X-15.3452 Y16.3521 Z2.26 F2400
M108 R35 (squirt)
M101
G1 X-15.2452 Y16.3521 Z2.26 F2400
M108 R2.8 (good to go)
G1 X15.2452 Y16.3521 Z2.26 F2400
M108 R35  (snort)
M102
G1 X15.3452 Y16.3521 Z2.26 F2400
M103

(  path 35/36, 2 points,  )
G1 X15.3452 Y17.3521 Z2.26 F2400
M108 R35 (squirt)
M101
G1 X15.2452 Y17.3521 Z2.26 F2400
M108 R2.8 (good to go)
G1 X-15.2452 Y17.3521 Z2.26 F2400
M108 R35  (snort)
M102
G1 X-15.3452 Y17.3521 Z2.26 F2400
M103

(Slice 9, 1 Extruder)
G1 Z2.53 F500 (move Z)
(   Extruder 0)
( extruder 0 )
( GSWITCH T0 )
( TODO: add offset management to Gantry )

(inset 0/2 )
(  path 0/1, 17 points,  )
G1 X17.1293 Y-17.0293 Z2.53 F2400
M108 R35 (squirt)
M101
G1 X17.0293 Y-17.0293 Z2.53 F2400
M108 R2.8 (good to go)
G1 X14.6679 Y-17.0293 Z2.53 F2400
G1 X-6.92791 Y-17.0293 Z2.53 F2400
G1 X-14.6679 Y-17.0293 Z2.53 F2400
G1 X-17.0293 Y-17.0293 Z2.53 F2400
G1 X-17.0293 Y-14.6679 Z2.53 F2400
G1 X-17.0293 Y6.92791 Z2.53 F2400
G1 X-17.0293 Y14.6679 Z2.53 F2400
G1 X-17.0293 Y17.0293 Z2.53 F2400
G1 X-14.6679 Y17.0293 Z2.53 F2400
G1 X6.92791 Y17.0293 Z2.53 F2400
G1 X14.6679 Y17.0293 Z2.53 F2400
G1 X17.0293 Y17.0293 Z2.53 F2400
G1 X17.0293 Y14.6679 Z2.53 F2400
G1 X17.0293 Y-6.92791 Z2.53 F2400
G1 X17.0293 Y-14.6679 Z2.53 F2400
G1 X17.0293 Y-17.0293 Z2.53 F2400
M108 R35  (snort)
M102
G1 X17.0293 Y-17.1293 Z2.53 F2400
M103

(inset 1/2 )
(  path 0/1, 21 points,  )
G1 X17.4893 Y-17.3893 Z2.53 F2400
M108 R35 (squirt)
M101
G1 X17.3893 Y-17.3893 Z2.53 F2400
M108 R2.8 (good to go)
G1 X14.6679 Y-17.3893 Z2.53 F2400
G1 X-6.92791 Y-17.3893 Z2.53 F2400
G1 X-14.6679 Y-17.3893 Z2.53 F2400
G1 X-17.3893 Y-17.3893 Z2.53 F2400
G1 X-17.3893 Y-17.2412 Z2.53 F2400
G1 X-17.3893 Y-14.6679 Z2.53 F2400
G1 X-17.3893 Y6.92791 Z2.53 F2400
G1 X-17.3893 Y14.6679 Z2.53 F2400
G1 X-17.3893 Y17.2412 Z2.53 F2400
G1 X-17.3893 Y17.3893 Z2.53 F2400
G1 X-17.2412 Y17.3893 Z2.53 F2400
G1 X-14.6679 Y17.3893 Z2.53 F2400
G1 X6.92791 Y17.3893 Z2.53 F2400
G1 X14.6679 Y17.3893 Z2.53 F2400
G1 X17.2412 Y17.3893 Z2.53 F2400
G1 X17.3893 Y17.3893 Z2.53 F2400
G1 X17.3893 Y14.6679 Z2.53 F2400
G1 X17.3893 Y-6.92791 Z2.53 F2400
G1 X17.3893 Y-14.6679 Z2.53 F2400
G1 X17.3893 Y-17.3893 Z2.53 F2400
M108 R35  (snort)
M102
G1 X17.3893 Y-17.4893 Z2.53 F2400
M103

(  path 0/35, 2 points,  )
G1 X-16.6479 Y-15.1893 Z2.53 F2400
M108 R35 (squirt)
M101
G1 X-16.6479 Y-15.0893 Z2.53 F2400
M108 R2.8 (good to go)
G1 X-16.6479 Y15.0893 Z2.53 F2400
M108 R35  (snort)
M102
G1 X-16.6479 Y15.1893 Z2.53 F2400
M103

(  path 1/35, 2 points,  )
G1 X-15.6479 Y15.1893 Z2.53 F2400
M108 R35 (squirt)
M101
G1 X-15.6479 Y15.0893 Z2.53 F2400
M108 R2.8 (good to go)
G1 X-15.6479 Y-15.0893 Z2.53 F2400
M108 R35  (snort)
M102
G1 X-15.6479 Y-15.1893 Z2.53 F2400
M103

(  path 2/35, 2 points,  )
G1 X-14.6479 Y-15.1893 Z2.53 F2400
M108 R35 (squirt)
M101
G1 X-14.6479 Y-15.0893 Z2.53 F2400
M108 R2.8 (good to go)
G1 X-14.6479 Y15.0893 Z2.53 F2400
M108 R35  (snort)
M102
G1 X-14.6479 Y15.1893 Z2.53 F2400
M103

(  path 3/35, 2 points,  )
G1 X-13.6479 Y15.1893 Z2.53 F2400
M108 R35 (squirt)
M101
G1 X-13.6479 Y15.0893 Z2.53 F2400
M108 R2.8 (good to go)
G1 X-13.6479 Y-15.0893 Z2.53 F2400
M108 R35  (snort)
M102
G1 X-13.6479 Y-15.1893 Z2.53 F2400
M103

(  path 4/35, 2 points,  )
G1 X-12.6479 Y-15.1893 Z2.53 F2400
M108 R35 (squirt)
M101
G1 X-12.6479 Y-15.0893 Z2.53 F2400
M108 R2.8 (good to go)
G1 X-12.6479 Y15.0893 Z2.53 F2400
M108 R35  (snort)
M102
G1 X-12.6479 Y15.1893 Z2.53 F2400
M103

(  path 5/35, 2 points,  )
G1 X-11.6479 Y15.1893 Z2.53 F2400
M108 R35 (squirt)
M101
G1 X-11.6479 Y15.0893 Z2.53 F2400
M108 R2.8 (good to go)
G1 X-11.6479 Y-15.0893 Z2.53 F2400
M108 R35  (snort)
M102
G1 X-11.6479 Y-15.1893 Z2.53 F2400
M103

(  path 6/35, 2 points,  )
G1 X-10.6479 Y-15.1893 Z2.53 F2400
M108 R35 (squirt)
M101
G1 X-10.6479 Y-15.0893 Z2.53 F2400
M108 R2.8 (good to go)
G1 X-10.6479 Y15.0893 Z2.53 F2400
M108 R35  (snort)
M102
G1 X-10.6479 Y15.1893 Z2.53 F2400
M103

(  path 7/35, 2 points,  )
G1 X-9.64787 Y15.1893 Z2.53 F2400
M108 R35 (squirt)
M101
G1 X-9.64787 Y15.0893 Z2.53 F2400
M108 R2.8 (good to go)
G1 X-9.64787 Y-15.0893 Z2.53 F2400
M108 R35  (snort)
M102
G1 X-9.64787 Y-15.1893 Z2.53 F2400
M103

(  path 8/35, 2 points,  )
G1 X-8.64787 Y-15.1893 Z2.53 F2400
M108 R35 (squirt)
M101
G1 X-8.64787 Y-15.0893 Z2.53 F2400
M108 R2.8 (good to go)
G1 X-8.64787 Y15.0893 Z2.53 F2400
M108 R35  (snort)
M102
G1 X-8.64787 Y15.1893 Z2.53 F2400
M103

(  path 9/35, 2 points,  )
G1 X-7.64787 Y15.1893 Z2.53 F2400
M108 R35 (squirt)
M101
G1 X-7.64787 Y15.0893 Z2.53 F2400
M108 R2.8 (good to go)
G1 X-7.64787 Y-15.0893 Z2.53 F2400
M108 R35  (snort)
M102
G1 X-7.64787 Y-15.1893 Z2.53 F2400
M103

(  path 10/35, 2 points,  )
G1 X-6.64787 Y-15.1893 Z2.53 F2400
M108 R35 (squirt)
M101
G1 X-6.64787 Y-15.0893 Z2.53 F2400
M108 R2.8 (good to go)
G1 X-6.64787 Y15.0893 Z2.53 F2400
M108 R35  (snort)
M102
G1 X-6.64787 Y15.1893 Z2.53 F2400
M103

(  path 11/35, 2 points,  )
G1 X-5.64787 Y15.1893 Z2.53 F2400
M108 R35 (squirt)
M101
G1 X-5.64787 Y15.0893 Z2.53 F2400
M108 R2.8 (good to go)
G1 X-5.64787 Y-15.0893 Z2.53 F2400
M108 R35  (snort)
M102
G1 X-5.64787 Y-15.1893 Z2.53 F2400
M103

(  path 12/35, 2 points,  )
G1 X-4.64787 Y-15.1893 Z2.53 F2400
M108 R35 (squirt)
M101
G1 X-4.64787 Y-15.0893 Z2.53 F2400
M108 R2.8 (good to go)
G1 X-4.64787 Y15.0893 Z2.53 F2400
M108 R35  (snort)
M102
G1 X-4.64787 Y15.1893 Z2.53 F2400
M103

(  path 13/35, 2 points,  )
G1 X-3.64787 Y15.1893 Z2.53 F2400
M108 R35 (squirt)
M101
G1 X-3.64787 Y15.0893 Z2.53 F2400
M108 R2.8 (good to go)
G1 X-3.64787 Y-15.0893 Z2.53 F2400
M108 R35  (snort)
M102
G1 X-3.64787 Y-15.1893 Z2.53 F2400
M103

(  path 14/35, 2 points,  )
G1 X-2.64787 Y-15.1893 Z2.53 F2400
M108 R35 (squirt)
M101
G1 X-2.64787 Y-15.0893 Z2.53 F2400
M108 R2.8 (good to go)
G1 X-2.64787 Y15.0893 Z2.53 F2400
M108 R35  (snort)
M102
