
(Makerbot Industries)
(This file contains digital fabrication directives in gcode format)
(For your 3D printer)
(http://wiki.makerbot.com/gcode)
(* Generated by Miracle-Grue v0.0.1.0)
(* 2012-3-1 16:7:6)
(* machine name: Dub dub dub)
(* firmware revision:v0.0)
(* 3D model filename: ./test_cases/slicerCupTestCase/stls/ultimate_calibration_test.stl)
(* 1 extruder)
(* Extrude infills: 1)
(* first operation: Insets)
(* Extrude insets: 1)
(* Extrude outlines: 0)

G21 (set units to mm)
G90 (absolute positioning mode)

(setup extruder)
M103 T0 (Make sure motor for extruder 0 is stopped)
M104 S220 T0 (set temperature of extruder 0 to 220 degrees Celsius)


M109 S110 T0 (heat the build-platform to 110 Celsius)


(go to home position)
G162 X Y F2500 (home XY axes maximum)
G161 Z F800 (home Z axis minimum)
G92 Z5 (set Z to 5)
G1 Z0.0 (move Z down 0)
G161 Z F100 (home Z axis minimum)
M132 X Y Z A B (Recall stored home offsets for XYZAB axis)

G1 X52 Y-57 Z10 F5000 (go to waiting position)

M6 T0 (wait for tool 0 to reach temperature)
(note: the heated build platform temperature is tied to tool 0 for now)


(Create Anchor)
G1 Z0.6 F300    (Position Height)
M108 R4.0   (Set Extruder Speed)
M101        (Start Extruder)
G4 P1600
G1 X52 Y-57 Z0.6 F5000
G1 X49 Y-57 Z0.6 F600

(Slice 0, 1 Extruder)
G1 Z0.1 F500 (move Z)
(   Extruder 0)
( extruder 0 )
( GSWITCH T0 )
( TODO: add offset management to Gantry )

(inset 0/2 )
(  path 0/2, 54 points,  )
G1 X-18.56 Y25.0623 Z0.1 F600
M108 R35 (squirt)
M101
G1 X-18.56 Y24.9623 Z0.1 F2400
M108 R0.7 (good to go)
G1 X-18.56 Y14.44 Z0.1 F600
G1 X-17.9915 Y14.44 Z0.1 F600
G1 X-16.56 Y14.44 Z0.1 F600
G1 X-16.56 Y9.44 Z0.1 F600
G1 X-15.9902 Y9.44 Z0.1 F600
G1 X-14.56 Y9.44 Z0.1 F600
G1 X-14.56 Y4.44 Z0.1 F600
G1 X-13.9886 Y4.44 Z0.1 F600
G1 X-12.56 Y4.44 Z0.1 F600
G1 X-12.56 Y-0.560002 Z0.1 F600
G1 X-11.9862 Y-0.560002 Z0.1 F600
G1 X-10.56 Y-0.560002 Z0.1 F600
G1 X-10.56 Y-5.56 Z0.1 F600
G1 X-9.98261 Y-5.56 Z0.1 F600
G1 X-8.56 Y-5.56 Z0.1 F600
G1 X-8.56 Y-10.56 Z0.1 F600
G1 X-7.97647 Y-10.56 Z0.1 F600
G1 X-6.56 Y-10.56 Z0.1 F600
G1 X-6.56 Y-15.56 Z0.1 F600
G1 X-5.96364 Y-15.56 Z0.1 F600
G1 X-4.56 Y-15.56 Z0.1 F600
G1 X-4.56 Y-20.56 Z0.1 F600
G1 X-3.92 Y-20.56 Z0.1 F600
G1 X-2.56 Y-20.56 Z0.1 F600
G1 X-2.56 Y-24.8 Z0.1 F600
G1 X-2.56 Y-25.56 Z0.1 F600
G1 X-1.92 Y-25.56 Z0.1 F600
G1 X-1.8 Y-25.56 Z0.1 F600
G1 X15.3 Y-25.56 Z0.1 F600
G1 X17.56 Y-25.56 Z0.1 F600
G1 X17.56 Y-20 Z0.1 F600
G1 X17.56 Y25.56 Z0.1 F600
G1 X-14.5 Y25.56 Z0.1 F600
G1 X-16.2 Y25.56 Z0.1 F600
G1 X-17.28 Y25.56 Z0.1 F600
G1 X-17.36 Y25.56 Z0.1 F600
G1 X-17.6 Y25.56 Z0.1 F600
G1 X-17.7455 Y25.56 Z0.1 F600
G1 X-17.8 Y25.56 Z0.1 F600
G1 X-17.8588 Y25.56 Z0.1 F600
G1 X-17.88 Y25.56 Z0.1 F600
G1 X-17.913 Y25.56 Z0.1 F600
G1 X-17.9231 Y25.56 Z0.1 F600
G1 X-17.9448 Y25.56 Z0.1 F600
G1 X-17.95 Y25.56 Z0.1 F600
G1 X-17.9657 Y25.56 Z0.1 F600
G1 X-17.9684 Y25.56 Z0.1 F600
G1 X-17.9805 Y25.56 Z0.1 F600
G1 X-17.9818 Y25.56 Z0.1 F600
G1 X-17.9915 Y25.56 Z0.1 F600
G1 X-17.992 Y25.56 Z0.1 F600
G1 X-18.56 Y25.56 Z0.1 F600
G1 X-18.56 Y24.9623 Z0.1 F600
M108 R35  (snort)
M102
G1 X-18.56 Y24.8623 Z0.1 F2400
M103

(  path 1/2, 17 points,  )
G1 X-22.6 Y29.44 Z0.1 F600
M108 R35 (squirt)
M101
G1 X-22.5 Y29.44 Z0.1 F2400
M108 R0.7 (good to go)
G1 X22.5 Y29.44 Z0.1 F600
G1 X24.44 Y29.44 Z0.1 F600
G1 X24.44 Y29.2857 Z0.1 F600
G1 X24.44 Y28.625 Z0.1 F600
G1 X24.44 Y-29.44 Z0.1 F600
G1 X-20.3 Y-29.44 Z0.1 F600
G1 X-22.5 Y-29.44 Z0.1 F600
G1 X-24.44 Y-29.44 Z0.1 F600
G1 X-24.44 Y28.5 Z0.1 F600
G1 X-24.44 Y28.625 Z0.1 F600
G1 X-24.44 Y29.2143 Z0.1 F600
G1 X-24.44 Y29.2857 Z0.1 F600
G1 X-24.44 Y29.44 Z0.1 F600
G1 X-24.425 Y29.44 Z0.1 F600
G1 X-24.375 Y29.44 Z0.1 F600
G1 X-22.5 Y29.44 Z0.1 F600
M108 R35  (snort)
M102
G1 X-22.4 Y29.44 Z0.1 F2400
M103

(inset 1/2 )
(  path 0/2, 54 points,  )
G1 X-18.2 Y25.0623 Z0.1 F600
M108 R35 (squirt)
M101
G1 X-18.2 Y24.9623 Z0.1 F2400
M108 R0.7 (good to go)
G1 X-18.2 Y14.8 Z0.1 F600
G1 X-17.9915 Y14.8 Z0.1 F600
G1 X-16.2 Y14.8 Z0.1 F600
G1 X-16.2 Y9.8 Z0.1 F600
G1 X-15.9902 Y9.8 Z0.1 F600
G1 X-14.2 Y9.8 Z0.1 F600
G1 X-14.2 Y4.8 Z0.1 F600
G1 X-13.9886 Y4.8 Z0.1 F600
G1 X-12.2 Y4.8 Z0.1 F600
G1 X-12.2 Y-0.200002 Z0.1 F600
G1 X-11.9862 Y-0.200002 Z0.1 F600
G1 X-10.2 Y-0.200002 Z0.1 F600
G1 X-10.2 Y-5.2 Z0.1 F600
G1 X-9.98261 Y-5.2 Z0.1 F600
G1 X-8.2 Y-5.2 Z0.1 F600
G1 X-8.2 Y-10.2 Z0.1 F600
G1 X-7.97647 Y-10.2 Z0.1 F600
G1 X-6.2 Y-10.2 Z0.1 F600
G1 X-6.2 Y-15.2 Z0.1 F600
G1 X-5.96364 Y-15.2 Z0.1 F600
G1 X-4.2 Y-15.2 Z0.1 F600
G1 X-4.2 Y-20.2 Z0.1 F600
G1 X-3.92 Y-20.2 Z0.1 F600
G1 X-2.2 Y-20.2 Z0.1 F600
G1 X-2.2 Y-24.8 Z0.1 F600
G1 X-2.2 Y-25.2 Z0.1 F600
G1 X-1.92 Y-25.2 Z0.1 F600
G1 X-1.8 Y-25.2 Z0.1 F600
G1 X15.3 Y-25.2 Z0.1 F600
G1 X17.2 Y-25.2 Z0.1 F600
G1 X17.2 Y-20 Z0.1 F600
G1 X17.2 Y25.2 Z0.1 F600
G1 X-14.5 Y25.2 Z0.1 F600
G1 X-16.2 Y25.2 Z0.1 F600
G1 X-17.28 Y25.2 Z0.1 F600
G1 X-17.36 Y25.2 Z0.1 F600
G1 X-17.6 Y25.2 Z0.1 F600
G1 X-17.7455 Y25.2 Z0.1 F600
G1 X-17.8 Y25.2 Z0.1 F600
G1 X-17.8588 Y25.2 Z0.1 F600
G1 X-17.88 Y25.2 Z0.1 F600
G1 X-17.913 Y25.2 Z0.1 F600
G1 X-17.9231 Y25.2 Z0.1 F600
G1 X-17.9448 Y25.2 Z0.1 F600
G1 X-17.95 Y25.2 Z0.1 F600
G1 X-17.9657 Y25.2 Z0.1 F600
G1 X-17.9684 Y25.2 Z0.1 F600
G1 X-17.9805 Y25.2 Z0.1 F600
G1 X-17.9818 Y25.2 Z0.1 F600
G1 X-17.9915 Y25.2 Z0.1 F600
G1 X-17.992 Y25.2 Z0.1 F600
G1 X-18.2 Y25.2 Z0.1 F600
G1 X-18.2 Y24.9623 Z0.1 F600
M108 R35  (snort)
M102
G1 X-18.2 Y24.8623 Z0.1 F2400
M103

(  path 1/2, 31 points,  )
G1 X-22.6 Y29.8 Z0.1 F600
M108 R35 (squirt)
M101
G1 X-22.5 Y29.8 Z0.1 F2400
M108 R0.7 (good to go)
G1 X22.5 Y29.8 Z0.1 F600
G1 X24.7 Y29.8 Z0.1 F600
G1 X24.8 Y29.8 Z0.1 F600
G1 X24.8 Y29.7812 Z0.1 F600
G1 X24.8 Y29.6923 Z0.1 F600
G1 X24.8 Y29.6538 Z0.1 F600
G1 X24.8 Y29.55 Z0.1 F600
G1 X24.8 Y29.5 Z0.1 F600
G1 X24.8 Y29.2857 Z0.1 F600
G1 X24.8 Y28.625 Z0.1 F600
G1 X24.8 Y-29.8 Z0.1 F600
G1 X24.7 Y-29.8 Z0.1 F600
G1 X-20.3 Y-29.8 Z0.1 F600
G1 X-22.5 Y-29.8 Z0.1 F600
G1 X-24.8 Y-29.8 Z0.1 F600
G1 X-24.8 Y28.5 Z0.1 F600
G1 X-24.8 Y28.625 Z0.1 F600
G1 X-24.8 Y29.2143 Z0.1 F600
G1 X-24.8 Y29.2857 Z0.1 F600
G1 X-24.8 Y29.55 Z0.1 F600
G1 X-24.8 Y29.6923 Z0.1 F600
G1 X-24.8 Y29.75 Z0.1 F600
G1 X-24.8 Y29.7812 Z0.1 F600
G1 X-24.8 Y29.8 Z0.1 F600
G1 X-24.79 Y29.8 Z0.1 F600
G1 X-24.7 Y29.8 Z0.1 F600
G1 X-24.6714 Y29.8 Z0.1 F600
G1 X-24.425 Y29.8 Z0.1 F600
G1 X-24.375 Y29.8 Z0.1 F600
G1 X-22.5 Y29.8 Z0.1 F600
M108 R35  (snort)
M102
G1 X-22.4 Y29.8 Z0.1 F2400
M103

(  path 0/110, 2 points,  )
G1 X-22.6 Y-29.7555 Z0.1 F600
M108 R35 (squirt)
M101
G1 X-22.5 Y-29.7555 Z0.1 F2400
M108 R0.7 (good to go)
G1 X22.5 Y-29.7555 Z0.1 F600
M108 R35  (snort)
M102
G1 X22.6 Y-29.7555 Z0.1 F2400
M103

(  path 1/110, 2 points,  )
G1 X22.6 Y-28.7555 Z0.1 F600
M108 R35 (squirt)
M101
G1 X22.5 Y-28.7555 Z0.1 F2400
M108 R0.7 (good to go)
G1 X-22.5 Y-28.7555 Z0.1 F600
M108 R35  (snort)
M102
G1 X-22.6 Y-28.7555 Z0.1 F2400
M103

(  path 2/110, 2 points,  )
G1 X-22.6 Y-27.7555 Z0.1 F600
M108 R35 (squirt)
M101
G1 X-22.5 Y-27.7555 Z0.1 F2400
M108 R0.7 (good to go)
G1 X22.5 Y-27.7555 Z0.1 F600
M108 R35  (snort)
M102
G1 X22.6 Y-27.7555 Z0.1 F2400
M103

(  path 3/110, 2 points,  )
G1 X22.6 Y-26.7555 Z0.1 F600
M108 R35 (squirt)
M101
G1 X22.5 Y-26.7555 Z0.1 F2400
M108 R0.7 (good to go)
G1 X-22.5 Y-26.7555 Z0.1 F600
M108 R35  (snort)
M102
G1 X-22.6 Y-26.7555 Z0.1 F2400
M103

(  path 4/110, 2 points,  )
G1 X-22.6 Y-25.7555 Z0.1 F600
M108 R35 (squirt)
M101
G1 X-22.5 Y-25.7555 Z0.1 F2400
M108 R0.7 (good to go)
G1 X22.5 Y-25.7555 Z0.1 F600
M108 R35  (snort)
M102
G1 X22.6 Y-25.7555 Z0.1 F2400
M103

(  path 5/110, 2 points,  )
G1 X22.6 Y-24.7555 Z0.1 F600
M108 R35 (squirt)
M101
G1 X22.5 Y-24.7555 Z0.1 F2400
M108 R0.7 (good to go)
G1 X19.5 Y-24.7555 Z0.1 F600
M108 R35  (snort)
M102
G1 X19.4 Y-24.7555 Z0.1 F2400
M103

(  path 6/110, 2 points,  )
G1 X-4.4 Y-24.7555 Z0.1 F600
M108 R35 (squirt)
M101
G1 X-4.5 Y-24.7555 Z0.1 F2400
M108 R0.7 (good to go)
G1 X-22.5 Y-24.7555 Z0.1 F600
M108 R35  (snort)
M102
G1 X-22.6 Y-24.7555 Z0.1 F2400
M103

(  path 7/110, 2 points,  )
G1 X-22.6 Y-23.7555 Z0.1 F600
M108 R35 (squirt)
M101
G1 X-22.5 Y-23.7555 Z0.1 F2400
M108 R0.7 (good to go)
G1 X-4.5 Y-23.7555 Z0.1 F600
M108 R35  (snort)
M102
G1 X-4.4 Y-23.7555 Z0.1 F2400
M103

(  path 8/110, 2 points,  )
G1 X19.4 Y-23.7555 Z0.1 F600
M108 R35 (squirt)
M101
G1 X19.5 Y-23.7555 Z0.1 F2400
M108 R0.7 (good to go)
G1 X22.5 Y-23.7555 Z0.1 F600
M108 R35  (snort)
M102
G1 X22.6 Y-23.7555 Z0.1 F2400
M103

(  path 9/110, 2 points,  )
G1 X22.6 Y-22.7555 Z0.1 F600
M108 R35 (squirt)
M101
G1 X22.5 Y-22.7555 Z0.1 F2400
M108 R0.7 (good to go)
G1 X19.5 Y-22.7555 Z0.1 F600
M108 R35  (snort)
M102
G1 X19.4 Y-22.7555 Z0.1 F2400
M103

(  path 10/110, 2 points,  )
G1 X-4.4 Y-22.7555 Z0.1 F600
M108 R35 (squirt)
M101
G1 X-4.5 Y-22.7555 Z0.1 F2400
M108 R0.7 (good to go)
G1 X-22.5 Y-22.7555 Z0.1 F600
M108 R35  (snort)
M102
G1 X-22.6 Y-22.7555 Z0.1 F2400
M103

(  path 11/110, 2 points,  )
G1 X-22.6 Y-21.7555 Z0.1 F600
M108 R35 (squirt)
M101
G1 X-22.5 Y-21.7555 Z0.1 F2400
M108 R0.7 (good to go)
G1 X-4.5 Y-21.7555 Z0.1 F600
M108 R35  (snort)
M102
G1 X-4.4 Y-21.7555 Z0.1 F2400
M103

(  path 12/110, 2 points,  )
G1 X19.4 Y-21.7555 Z0.1 F600
M108 R35 (squirt)
M101
G1 X19.5 Y-21.7555 Z0.1 F2400
M108 R0.7 (good to go)
G1 X22.5 Y-21.7555 Z0.1 F600
M108 R35  (snort)
M102
G1 X22.6 Y-21.7555 Z0.1 F2400
M103

(  path 13/110, 2 points,  )
G1 X22.6 Y-20.7555 Z0.1 F600
M108 R35 (squirt)
M101
G1 X22.5 Y-20.7555 Z0.1 F2400
M108 R0.7 (good to go)
G1 X19.5 Y-20.7555 Z0.1 F600
M108 R35  (snort)
M102
G1 X19.4 Y-20.7555 Z0.1 F2400
M103

(  path 14/110, 2 points,  )
G1 X-4.4 Y-20.7555 Z0.1 F600
M108 R35 (squirt)
M101
G1 X-4.5 Y-20.7555 Z0.1 F2400
M108 R0.7 (good to go)
G1 X-22.5 Y-20.7555 Z0.1 F600
M108 R35  (snort)
M102
G1 X-22.6 Y-20.7555 Z0.1 F2400
M103

(  path 15/110, 2 points,  )
G1 X-22.6 Y-19.7555 Z0.1 F600
M108 R35 (squirt)
M101
G1 X-22.5 Y-19.7555 Z0.1 F2400
M108 R0.7 (good to go)
G1 X-6.5 Y-19.7555 Z0.1 F600
M108 R35  (snort)
M102
G1 X-6.4 Y-19.7555 Z0.1 F2400
M103

(  path 16/110, 2 points,  )
G1 X19.4 Y-19.7555 Z0.1 F600
M108 R35 (squirt)
M101
G1 X19.5 Y-19.7555 Z0.1 F2400
M108 R0.7 (good to go)
G1 X22.5 Y-19.7555 Z0.1 F600
M108 R35  (snort)
M102
G1 X22.6 Y-19.7555 Z0.1 F2400
M103

(  path 17/110, 2 points,  )
G1 X22.6 Y-18.7555 Z0.1 F600
M108 R35 (squirt)
M101
G1 X22.5 Y-18.7555 Z0.1 F2400
M108 R0.7 (good to go)
G1 X19.5 Y-18.7555 Z0.1 F600
M108 R35  (snort)
M102
G1 X19.4 Y-18.7555 Z0.1 F2400
M103

(  path 18/110, 2 points,  )
G1 X-6.4 Y-18.7555 Z0.1 F600
M108 R35 (squirt)
M101
G1 X-6.5 Y-18.7555 Z0.1 F2400
M108 R0.7 (good to go)
G1 X-22.5 Y-18.7555 Z0.1 F600
M108 R35  (snort)
M102
G1 X-22.6 Y-18.7555 Z0.1 F2400
M103

(  path 19/110, 2 points,  )
G1 X-22.6 Y-17.7555 Z0.1 F600
M108 R35 (squirt)
M101
G1 X-22.5 Y-17.7555 Z0.1 F2400
M108 R0.7 (good to go)
G1 X-6.5 Y-17.7555 Z0.1 F600
M108 R35  (snort)
M102
G1 X-6.4 Y-17.7555 Z0.1 F2400
M103

(  path 20/110, 2 points,  )
G1 X19.4 Y-17.7555 Z0.1 F600
M108 R35 (squirt)
M101
G1 X19.5 Y-17.7555 Z0.1 F2400
M108 R0.7 (good to go)
G1 X22.5 Y-17.7555 Z0.1 F600
M108 R35  (snort)
M102
G1 X22.6 Y-17.7555 Z0.1 F2400
M103

(  path 21/110, 2 points,  )
G1 X22.6 Y-16.7555 Z0.1 F600
M108 R35 (squirt)
M101
G1 X22.5 Y-16.7555 Z0.1 F2400
M108 R0.7 (good to go)
G1 X19.5 Y-16.7555 Z0.1 F600
M108 R35  (snort)
M102
G1 X19.4 Y-16.7555 Z0.1 F2400
M103

(  path 22/110, 2 points,  )
G1 X-6.4 Y-16.7555 Z0.1 F600
M108 R35 (squirt)
M101
G1 X-6.5 Y-16.7555 Z0.1 F2400
M108 R0.7 (good to go)
G1 X-22.5 Y-16.7555 Z0.1 F600
M108 R35  (snort)
M102
G1 X-22.6 Y-16.7555 Z0.1 F2400
M103

(  path 23/110, 2 points,  )
G1 X-22.6 Y-15.7555 Z0.1 F600
M108 R35 (squirt)
M101
G1 X-22.5 Y-15.7555 Z0.1 F2400
M108 R0.7 (good to go)
G1 X-6.5 Y-15.7555 Z0.1 F600
M108 R35  (snort)
M102
G1 X-6.4 Y-15.7555 Z0.1 F2400
M103

(  path 24/110, 2 points,  )
G1 X19.4 Y-15.7555 Z0.1 F600
M108 R35 (squirt)
M101
G1 X19.5 Y-15.7555 Z0.1 F2400
M108 R0.7 (good to go)
G1 X22.5 Y-15.7555 Z0.1 F600
M108 R35  (snort)
M102
G1 X22.6 Y-15.7555 Z0.1 F2400
M103

(  path 25/110, 2 points,  )
G1 X22.6 Y-14.7555 Z0.1 F600
M108 R35 (squirt)
M101
G1 X22.5 Y-14.7555 Z0.1 F2400
M108 R0.7 (good to go)
G1 X19.5 Y-14.7555 Z0.1 F600
M108 R35  (snort)
M102
G1 X19.4 Y-14.7555 Z0.1 F2400
M103

(  path 26/110, 2 points,  )
G1 X-8.4 Y-14.7555 Z0.1 F600
M108 R35 (squirt)
M101
G1 X-8.5 Y-14.7555 Z0.1 F2400
M108 R0.7 (good to go)
G1 X-22.5 Y-14.7555 Z0.1 F600
M108 R35  (snort)
M102
G1 X-22.6 Y-14.7555 Z0.1 F2400
M103

(  path 27/110, 2 points,  )
G1 X-22.6 Y-13.7555 Z0.1 F600
M108 R35 (squirt)
M101
G1 X-22.5 Y-13.7555 Z0.1 F2400
M108 R0.7 (good to go)
G1 X-8.5 Y-13.7555 Z0.1 F600
M108 R35  (snort)
M102
G1 X-8.4 Y-13.7555 Z0.1 F2400
M103

(  path 28/110, 2 points,  )
G1 X19.4 Y-13.7555 Z0.1 F600
M108 R35 (squirt)
M101
G1 X19.5 Y-13.7555 Z0.1 F2400
M108 R0.7 (good to go)
G1 X22.5 Y-13.7555 Z0.1 F600
M108 R35  (snort)
M102
G1 X22.6 Y-13.7555 Z0.1 F2400
M103

(  path 29/110, 2 points,  )
G1 X22.6 Y-12.7555 Z0.1 F600
M108 R35 (squirt)
M101
G1 X22.5 Y-12.7555 Z0.1 F2400
M108 R0.7 (good to go)
G1 X19.5 Y-12.7555 Z0.1 F600
M108 R35  (snort)
M102
G1 X19.4 Y-12.7555 Z0.1 F2400
M103

(  path 30/110, 2 points,  )
G1 X-8.4 Y-12.7555 Z0.1 F600
M108 R35 (squirt)
M101
G1 X-8.5 Y-12.7555 Z0.1 F2400
M108 R0.7 (good to go)
G1 X-22.5 Y-12.7555 Z0.1 F600
M108 R35  (snort)
M102
G1 X-22.6 Y-12.7555 Z0.1 F2400
M103

(  path 31/110, 2 points,  )
G1 X-22.6 Y-11.7555 Z0.1 F600
M108 R35 (squirt)
M101
G1 X-22.5 Y-11.7555 Z0.1 F2400
M108 R0.7 (good to go)
G1 X-8.5 Y-11.7555 Z0.1 F600
M108 R35  (snort)
M102
G1 X-8.4 Y-11.7555 Z0.1 F2400
M103

(  path 32/110, 2 points,  )
G1 X19.4 Y-11.7555 Z0.1 F600
M108 R35 (squirt)
M101
G1 X19.5 Y-11.7555 Z0.1 F2400
M108 R0.7 (good to go)
G1 X22.5 Y-11.7555 Z0.1 F600
M108 R35  (snort)
M102
G1 X22.6 Y-11.7555 Z0.1 F2400
M103

(  path 33/110, 2 points,  )
G1 X22.6 Y-10.7555 Z0.1 F600
M108 R35 (squirt)
M101
G1 X22.5 Y-10.7555 Z0.1 F2400
M108 R0.7 (good to go)
G1 X19.5 Y-10.7555 Z0.1 F600
M108 R35  (snort)
M102
G1 X19.4 Y-10.7555 Z0.1 F2400
M103

(  path 34/110, 2 points,  )
G1 X-8.4 Y-10.7555 Z0.1 F600
M108 R35 (squirt)
M101
G1 X-8.5 Y-10.7555 Z0.1 F2400
M108 R0.7 (good to go)
G1 X-22.5 Y-10.7555 Z0.1 F600
M108 R35  (snort)
M102
G1 X-22.6 Y-10.7555 Z0.1 F2400
M103

(  path 35/110, 2 points,  )
G1 X-22.6 Y-9.7555 Z0.1 F600
M108 R35 (squirt)
M101
G1 X-22.5 Y-9.7555 Z0.1 F2400
M108 R0.7 (good to go)
G1 X-10.5 Y-9.7555 Z0.1 F600
M108 R35  (snort)
M102
G1 X-10.4 Y-9.7555 Z0.1 F2400
M103

(  path 36/110, 2 points,  )
G1 X19.4 Y-9.7555 Z0.1 F600
M108 R35 (squirt)
M101
G1 X19.5 Y-9.7555 Z0.1 F2400
M108 R0.7 (good to go)
G1 X22.5 Y-9.7555 Z0.1 F600
M108 R35  (snort)
M102
G1 X22.6 Y-9.7555 Z0.1 F2400
M103

(  path 37/110, 2 points,  )
G1 X22.6 Y-8.7555 Z0.1 F600
M108 R35 (squirt)
M101
G1 X22.5 Y-8.7555 Z0.1 F2400
M108 R0.7 (good to go)
G1 X19.5 Y-8.7555 Z0.1 F600
M108 R35  (snort)
M102
G1 X19.4 Y-8.7555 Z0.1 F2400
M103

(  path 38/110, 2 points,  )
G1 X-10.4 Y-8.7555 Z0.1 F600
M108 R35 (squirt)
M101
G1 X-10.5 Y-8.7555 Z0.1 F2400
M108 R0.7 (good to go)
G1 X-22.5 Y-8.7555 Z0.1 F600
M108 R35  (snort)
M102
G1 X-22.6 Y-8.7555 Z0.1 F2400
M103

(  path 39/110, 2 points,  )
G1 X-22.6 Y-7.7555 Z0.1 F600
M108 R35 (squirt)
M101
G1 X-22.5 Y-7.7555 Z0.1 F2400
M108 R0.7 (good to go)
G1 X-10.5 Y-7.7555 Z0.1 F600
M108 R35  (snort)
M102
G1 X-10.4 Y-7.7555 Z0.1 F2400
M103

(  path 40/110, 2 points,  )
G1 X19.4 Y-7.7555 Z0.1 F600
M108 R35 (squirt)
M101
G1 X19.5 Y-7.7555 Z0.1 F2400
M108 R0.7 (good to go)
G1 X22.5 Y-7.7555 Z0.1 F600
M108 R35  (snort)
M102
G1 X22.6 Y-7.7555 Z0.1 F2400
M103

(  path 41/110, 2 points,  )
G1 X22.6 Y-6.7555 Z0.1 F600
M108 R35 (squirt)
M101
G1 X22.5 Y-6.7555 Z0.1 F2400
M108 R0.7 (good to go)
G1 X19.5 Y-6.7555 Z0.1 F600
M108 R35  (snort)
M102
G1 X19.4 Y-6.7555 Z0.1 F2400
M103

(  path 42/110, 2 points,  )
G1 X-10.4 Y-6.7555 Z0.1 F600
M108 R35 (squirt)
M101
G1 X-10.5 Y-6.7555 Z0.1 F2400
M108 R0.7 (good to go)
G1 X-22.5 Y-6.7555 Z0.1 F600
M108 R35  (snort)
M102
G1 X-22.6 Y-6.7555 Z0.1 F2400
M103

(  path 43/110, 2 points,  )
G1 X-22.6 Y-5.7555 Z0.1 F600
M108 R35 (squirt)
M101
G1 X-22.5 Y-5.7555 Z0.1 F2400
M108 R0.7 (good to go)
G1 X-10.5 Y-5.7555 Z0.1 F600
M108 R35  (snort)
M102
G1 X-10.4 Y-5.7555 Z0.1 F2400
M103

(  path 44/110, 2 points,  )
G1 X19.4 Y-5.7555 Z0.1 F600
M108 R35 (squirt)
M101
G1 X19.5 Y-5.7555 Z0.1 F2400
M108 R0.7 (good to go)
G1 X22.5 Y-5.7555 Z0.1 F600
M108 R35  (snort)
M102
G1 X22.6 Y-5.7555 Z0.1 F2400
M103

(  path 45/110, 2 points,  )
G1 X22.6 Y-4.7555 Z0.1 F600
M108 R35 (squirt)
M101
G1 X22.5 Y-4.7555 Z0.1 F2400
M108 R0.7 (good to go)
G1 X19.5 Y-4.7555 Z0.1 F600
M108 R35  (snort)
M102
G1 X19.4 Y-4.7555 Z0.1 F2400
M103

(  path 46/110, 2 points,  )
G1 X-12.4 Y-4.7555 Z0.1 F600
M108 R35 (squirt)
M101
G1 X-12.5 Y-4.7555 Z0.1 F2400
M108 R0.7 (good to go)
G1 X-22.5 Y-4.7555 Z0.1 F600
M108 R35  (snort)
M102
G1 X-22.6 Y-4.7555 Z0.1 F2400
M103

(  path 47/110, 2 points,  )
G1 X-22.6 Y-3.7555 Z0.1 F600
M108 R35 (squirt)
M101
G1 X-22.5 Y-3.7555 Z0.1 F2400
M108 R0.7 (good to go)
G1 X-12.5 Y-3.7555 Z0.1 F600
M108 R35  (snort)
M102
G1 X-12.4 Y-3.7555 Z0.1 F2400
M103

(  path 48/110, 2 points,  )
G1 X19.4 Y-3.7555 Z0.1 F600
M108 R35 (squirt)
M101
G1 X19.5 Y-3.7555 Z0.1 F2400
M108 R0.7 (good to go)
G1 X22.5 Y-3.7555 Z0.1 F600
M108 R35  (snort)
M102
G1 X22.6 Y-3.7555 Z0.1 F2400
M103

(  path 49/110, 2 points,  )
G1 X22.6 Y-2.7555 Z0.1 F600
M108 R35 (squirt)
M101
G1 X22.5 Y-2.7555 Z0.1 F2400
M108 R0.7 (good to go)
G1 X19.5 Y-2.7555 Z0.1 F600
M108 R35  (snort)
M102
G1 X19.4 Y-2.7555 Z0.1 F2400
M103

(  path 50/110, 2 points,  )
G1 X-12.4 Y-2.7555 Z0.1 F600
M108 R35 (squirt)
M101
G1 X-12.5 Y-2.7555 Z0.1 F2400
M108 R0.7 (good to go)
G1 X-22.5 Y-2.7555 Z0.1 F600
M108 R35  (snort)
M102
G1 X-22.6 Y-2.7555 Z0.1 F2400
M103

(  path 51/110, 2 points,  )
G1 X-22.6 Y-1.7555 Z0.1 F600
M108 R35 (squirt)
M101
G1 X-22.5 Y-1.7555 Z0.1 F2400
M108 R0.7 (good to go)
G1 X-12.5 Y-1.7555 Z0.1 F600
M108 R35  (snort)
M102
G1 X-12.4 Y-1.7555 Z0.1 F2400
M103

(  path 52/110, 2 points,  )
G1 X19.4 Y-1.7555 Z0.1 F600
M108 R35 (squirt)
M101
G1 X19.5 Y-1.7555 Z0.1 F2400
M108 R0.7 (good to go)
G1 X22.5 Y-1.7555 Z0.1 F600
M108 R35  (snort)
M102
G1 X22.6 Y-1.7555 Z0.1 F2400
M103

(  path 53/110, 2 points,  )
G1 X22.6 Y-0.755503 Z0.1 F600
M108 R35 (squirt)
M101
G1 X22.5 Y-0.755503 Z0.1 F2400
M108 R0.7 (good to go)
G1 X19.5 Y-0.755503 Z0.1 F600
M108 R35  (snort)
M102
G1 X19.4 Y-0.755503 Z0.1 F2400
M103

(  path 54/110, 2 points,  )
G1 X-12.4 Y-0.755503 Z0.1 F600
M108 R35 (squirt)
M101
G1 X-12.5 Y-0.755503 Z0.1 F2400
M108 R0.7 (good to go)
G1 X-22.5 Y-0.755503 Z0.1 F600
M108 R35  (snort)
M102
G1 X-22.6 Y-0.755503 Z0.1 F2400
M103

(  path 55/110, 2 points,  )
G1 X-22.6 Y0.244497 Z0.1 F600
M108 R35 (squirt)
M101
G1 X-22.5 Y0.244497 Z0.1 F2400
M108 R0.7 (good to go)
G1 X-14.5 Y0.244497 Z0.1 F600
M108 R35  (snort)
M102
G1 X-14.4 Y0.244497 Z0.1 F2400
M103

(  path 56/110, 2 points,  )
G1 X19.4 Y0.244497 Z0.1 F600
M108 R35 (squirt)
M101
G1 X19.5 Y0.244497 Z0.1 F2400
M108 R0.7 (good to go)
G1 X22.5 Y0.244497 Z0.1 F600
M108 R35  (snort)
M102
G1 X22.6 Y0.244497 Z0.1 F2400
M103

(  path 57/110, 2 points,  )
G1 X22.6 Y1.2445 Z0.1 F600
M108 R35 (squirt)
M101
G1 X22.5 Y1.2445 Z0.1 F2400
M108 R0.7 (good to go)
G1 X19.5 Y1.2445 Z0.1 F600
M108 R35  (snort)
M102
G1 X19.4 Y1.2445 Z0.1 F2400
M103

(  path 58/110, 2 points,  )
G1 X-14.4 Y1.2445 Z0.1 F600
M108 R35 (squirt)
M101
G1 X-14.5 Y1.2445 Z0.1 F2400
M108 R0.7 (good to go)
G1 X-22.5 Y1.2445 Z0.1 F600
M108 R35  (snort)
M102
G1 X-22.6 Y1.2445 Z0.1 F2400
M103

(  path 59/110, 2 points,  )
G1 X-22.6 Y2.2445 Z0.1 F600
M108 R35 (squirt)
M101
G1 X-22.5 Y2.2445 Z0.1 F2400
M108 R0.7 (good to go)
G1 X-14.5 Y2.2445 Z0.1 F600
M108 R35  (snort)
M102
G1 X-14.4 Y2.2445 Z0.1 F2400
M103

(  path 60/110, 2 points,  )
G1 X19.4 Y2.2445 Z0.1 F600
M108 R35 (squirt)
M101
G1 X19.5 Y2.2445 Z0.1 F2400
M108 R0.7 (good to go)
G1 X22.5 Y2.2445 Z0.1 F600
M108 R35  (snort)
M102
G1 X22.6 Y2.2445 Z0.1 F2400
M103

(  path 61/110, 2 points,  )
G1 X22.6 Y3.2445 Z0.1 F600
M108 R35 (squirt)
M101
G1 X22.5 Y3.2445 Z0.1 F2400
M108 R0.7 (good to go)
G1 X19.5 Y3.2445 Z0.1 F600
M108 R35  (snort)
M102
G1 X19.4 Y3.2445 Z0.1 F2400
M103

(  path 62/110, 2 points,  )
G1 X-14.4 Y3.2445 Z0.1 F600
M108 R35 (squirt)
M101
G1 X-14.5 Y3.2445 Z0.1 F2400
M108 R0.7 (good to go)
G1 X-22.5 Y3.2445 Z0.1 F600
M108 R35  (snort)
M102
G1 X-22.6 Y3.2445 Z0.1 F2400
M103

(  path 63/110, 2 points,  )
G1 X-22.6 Y4.2445 Z0.1 F600
M108 R35 (squirt)
M101
G1 X-22.5 Y4.2445 Z0.1 F2400
M108 R0.7 (good to go)
G1 X-14.5 Y4.2445 Z0.1 F600
M108 R35  (snort)
M102
G1 X-14.4 Y4.2445 Z0.1 F2400
M103

(  path 64/110, 2 points,  )
G1 X19.4 Y4.2445 Z0.1 F600
M108 R35 (squirt)
M101
G1 X19.5 Y4.2445 Z0.1 F2400
M108 R0.7 (good to go)
G1 X22.5 Y4.2445 Z0.1 F600
M108 R35  (snort)
M102
G1 X22.6 Y4.2445 Z0.1 F2400
M103

(  path 65/110, 2 points,  )
G1 X22.6 Y5.2445 Z0.1 F600
M108 R35 (squirt)
M101
G1 X22.5 Y5.2445 Z0.1 F2400
M108 R0.7 (good to go)
G1 X19.5 Y5.2445 Z0.1 F600
M108 R35  (snort)
M102
G1 X19.4 Y5.2445 Z0.1 F2400
M103

(  path 66/110, 2 points,  )
G1 X-16.4 Y5.2445 Z0.1 F600
M108 R35 (squirt)
M101
G1 X-16.5 Y5.2445 Z0.1 F2400
M108 R0.7 (good to go)
G1 X-22.5 Y5.2445 Z0.1 F600
M108 R35  (snort)
M102
G1 X-22.6 Y5.2445 Z0.1 F2400
M103

(  path 67/110, 2 points,  )
G1 X-22.6 Y6.2445 Z0.1 F600
M108 R35 (squirt)
M101
G1 X-22.5 Y6.2445 Z0.1 F2400
M108 R0.7 (good to go)
G1 X-16.5 Y6.2445 Z0.1 F600
M108 R35  (snort)
M102
G1 X-16.4 Y6.2445 Z0.1 F2400
M103

(  path 68/110, 2 points,  )
G1 X19.4 Y6.2445 Z0.1 F600
M108 R35 (squirt)
M101
G1 X19.5 Y6.2445 Z0.1 F2400
M108 R0.7 (good to go)
G1 X22.5 Y6.2445 Z0.1 F600
M108 R35  (snort)
M102
G1 X22.6 Y6.2445 Z0.1 F2400
M103

(  path 69/110, 2 points,  )
G1 X22.6 Y7.2445 Z0.1 F600
M108 R35 (squirt)
M101
G1 X22.5 Y7.2445 Z0.1 F2400
M108 R0.7 (good to go)
G1 X19.5 Y7.2445 Z0.1 F600
M108 R35  (snort)
M102
G1 X19.4 Y7.2445 Z0.1 F2400
M103

(  path 70/110, 2 points,  )
G1 X-16.4 Y7.2445 Z0.1 F600
M108 R35 (squirt)
M101
G1 X-16.5 Y7.2445 Z0.1 F2400
M108 R0.7 (good to go)
G1 X-22.5 Y7.2445 Z0.1 F600
M108 R35  (snort)
M102
G1 X-22.6 Y7.2445 Z0.1 F2400
M103

(  path 71/110, 2 points,  )
G1 X-22.6 Y8.2445 Z0.1 F600
M108 R35 (squirt)
M101
G1 X-22.5 Y8.2445 Z0.1 F2400
M108 R0.7 (good to go)
G1 X-16.5 Y8.2445 Z0.1 F600
M108 R35  (snort)
M102
G1 X-16.4 Y8.2445 Z0.1 F2400
M103

(  path 72/110, 2 points,  )
G1 X19.4 Y8.2445 Z0.1 F600
M108 R35 (squirt)
M101
G1 X19.5 Y8.2445 Z0.1 F2400
M108 R0.7 (good to go)
G1 X22.5 Y8.2445 Z0.1 F600
M108 R35  (snort)
M102
G1 X22.6 Y8.2445 Z0.1 F2400
M103

(  path 73/110, 2 points,  )
G1 X22.6 Y9.2445 Z0.1 F600
M108 R35 (squirt)
M101
G1 X22.5 Y9.2445 Z0.1 F2400
M108 R0.7 (good to go)
G1 X19.5 Y9.2445 Z0.1 F600
M108 R35  (snort)
M102
G1 X19.4 Y9.2445 Z0.1 F2400
M103

(  path 74/110, 2 points,  )
G1 X-16.4 Y9.2445 Z0.1 F600
M108 R35 (squirt)
M101
G1 X-16.5 Y9.2445 Z0.1 F2400
M108 R0.7 (good to go)
G1 X-22.5 Y9.2445 Z0.1 F600
M108 R35  (snort)
M102
G1 X-22.6 Y9.2445 Z0.1 F2400
M103

(  path 75/110, 2 points,  )
G1 X-22.6 Y10.2445 Z0.1 F600
M108 R35 (squirt)
M101
G1 X-22.5 Y10.2445 Z0.1 F2400
M108 R0.7 (good to go)
G1 X-18.5 Y10.2445 Z0.1 F600
M108 R35  (snort)
M102
G1 X-18.4 Y10.2445 Z0.1 F2400
M103

(  path 76/110, 2 points,  )
G1 X19.4 Y10.2445 Z0.1 F600
M108 R35 (squirt)
M101
G1 X19.5 Y10.2445 Z0.1 F2400
M108 R0.7 (good to go)
G1 X22.5 Y10.2445 Z0.1 F600
M108 R35  (snort)
M102
G1 X22.6 Y10.2445 Z0.1 F2400
M103

(  path 77/110, 2 points,  )
G1 X22.6 Y11.2445 Z0.1 F600
M108 R35 (squirt)
M101
G1 X22.5 Y11.2445 Z0.1 F2400
M108 R0.7 (good to go)
G1 X19.5 Y11.2445 Z0.1 F600
M108 R35  (snort)
M102
G1 X19.4 Y11.2445 Z0.1 F2400
M103

(  path 78/110, 2 points,  )
G1 X-18.4 Y11.2445 Z0.1 F600
M108 R35 (squirt)
M101
G1 X-18.5 Y11.2445 Z0.1 F2400
M108 R0.7 (good to go)
G1 X-22.5 Y11.2445 Z0.1 F600
M108 R35  (snort)
M102
G1 X-22.6 Y11.2445 Z0.1 F2400
M103

(  path 79/110, 2 points,  )
G1 X-22.6 Y12.2445 Z0.1 F600
M108 R35 (squirt)
M101
G1 X-22.5 Y12.2445 Z0.1 F2400
M108 R0.7 (good to go)
G1 X-18.5 Y12.2445 Z0.1 F600
M108 R35  (snort)
M102
G1 X-18.4 Y12.2445 Z0.1 F2400
M103

(  path 80/110, 2 points,  )
G1 X19.4 Y12.2445 Z0.1 F600
M108 R35 (squirt)
M101
G1 X19.5 Y12.2445 Z0.1 F2400
M108 R0.7 (good to go)
G1 X22.5 Y12.2445 Z0.1 F600
M108 R35  (snort)
M102
G1 X22.6 Y12.2445 Z0.1 F2400
M103

(  path 81/110, 2 points,  )
G1 X22.6 Y13.2445 Z0.1 F600
M108 R35 (squirt)
M101
G1 X22.5 Y13.2445 Z0.1 F2400
M108 R0.7 (good to go)
G1 X19.5 Y13.2445 Z0.1 F600
M108 R35  (snort)
M102
G1 X19.4 Y13.2445 Z0.1 F2400
M103

(  path 82/110, 2 points,  )
G1 X-18.4 Y13.2445 Z0.1 F600
M108 R35 (squirt)
M101
G1 X-18.5 Y13.2445 Z0.1 F2400
M108 R0.7 (good to go)
G1 X-22.5 Y13.2445 Z0.1 F600
M108 R35  (snort)
M102
G1 X-22.6 Y13.2445 Z0.1 F2400
M103

(  path 83/110, 2 points,  )
G1 X-22.6 Y14.2445 Z0.1 F600
M108 R35 (squirt)
M101
G1 X-22.5 Y14.2445 Z0.1 F2400
M108 R0.7 (good to go)
G1 X-18.5 Y14.2445 Z0.1 F600
M108 R35  (snort)
M102
G1 X-18.4 Y14.2445 Z0.1 F2400
M103

(  path 84/110, 2 points,  )
G1 X19.4 Y14.2445 Z0.1 F600
M108 R35 (squirt)
M101
G1 X19.5 Y14.2445 Z0.1 F2400
M108 R0.7 (good to go)
G1 X22.5 Y14.2445 Z0.1 F600
M108 R35  (snort)
M102
G1 X22.6 Y14.2445 Z0.1 F2400
M103

(  path 85/110, 2 points,  )
G1 X22.6 Y15.2445 Z0.1 F600
M108 R35 (squirt)
M101
G1 X22.5 Y15.2445 Z0.1 F2400
M108 R0.7 (good to go)
G1 X19.5 Y15.2445 Z0.1 F600
M108 R35  (snort)
M102
G1 X19.4 Y15.2445 Z0.1 F2400
M103

(  path 86/110, 2 points,  )
G1 X-20.4 Y15.2445 Z0.1 F600
M108 R35 (squirt)
M101
G1 X-20.5 Y15.2445 Z0.1 F2400
M108 R0.7 (good to go)
G1 X-22.5 Y15.2445 Z0.1 F600
M108 R35  (snort)
M102
G1 X-22.6 Y15.2445 Z0.1 F2400
M103

(  path 87/110, 2 points,  )
G1 X-22.6 Y16.2445 Z0.1 F600
M108 R35 (squirt)
M101
G1 X-22.5 Y16.2445 Z0.1 F2400
M108 R0.7 (good to go)
G1 X-20.5 Y16.2445 Z0.1 F600
M108 R35  (snort)
M102
G1 X-20.4 Y16.2445 Z0.1 F2400
M103

(  path 88/110, 2 points,  )
G1 X19.4 Y16.2445 Z0.1 F600
M108 R35 (squirt)
M101
G1 X19.5 Y16.2445 Z0.1 F2400
M108 R0.7 (good to go)
G1 X22.5 Y16.2445 Z0.1 F600
M108 R35  (snort)
M102
G1 X22.6 Y16.2445 Z0.1 F2400
M103

(  path 89/110, 2 points,  )
G1 X22.6 Y17.2445 Z0.1 F600
M108 R35 (squirt)
M101
G1 X22.5 Y17.2445 Z0.1 F2400
M108 R0.7 (good to go)
G1 X19.5 Y17.2445 Z0.1 F600
M108 R35  (snort)
M102
G1 X19.4 Y17.2445 Z0.1 F2400
M103

(  path 90/110, 2 points,  )
G1 X-20.4 Y17.2445 Z0.1 F600
M108 R35 (squirt)
M101
G1 X-20.5 Y17.2445 Z0.1 F2400
M108 R0.7 (good to go)
G1 X-22.5 Y17.2445 Z0.1 F600
M108 R35  (snort)
M102
G1 X-22.6 Y17.2445 Z0.1 F2400
M103

(  path 91/110, 2 points,  )
G1 X-22.6 Y18.2445 Z0.1 F600
M108 R35 (squirt)
M101
G1 X-22.5 Y18.2445 Z0.1 F2400
M108 R0.7 (good to go)
G1 X-20.5 Y18.2445 Z0.1 F600
M108 R35  (snort)
M102
G1 X-20.4 Y18.2445 Z0.1 F2400
M103

(  path 92/110, 2 points,  )
G1 X19.4 Y18.2445 Z0.1 F600
M108 R35 (squirt)
M101
G1 X19.5 Y18.2445 Z0.1 F2400
M108 R0.7 (good to go)
G1 X22.5 Y18.2445 Z0.1 F600
M108 R35  (snort)
M102
G1 X22.6 Y18.2445 Z0.1 F2400
M103

(  path 93/110, 2 points,  )
G1 X22.6 Y19.2445 Z0.1 F600
M108 R35 (squirt)
M101
G1 X22.5 Y19.2445 Z0.1 F2400
M108 R0.7 (good to go)
G1 X19.5 Y19.2445 Z0.1 F600
M108 R35  (snort)
M102
G1 X19.4 Y19.2445 Z0.1 F2400
M103

(  path 94/110, 2 points,  )
G1 X-20.4 Y19.2445 Z0.1 F600
M108 R35 (squirt)
M101
G1 X-20.5 Y19.2445 Z0.1 F2400
M108 R0.7 (good to go)
G1 X-22.5 Y19.2445 Z0.1 F600
M108 R35  (snort)
M102
G1 X-22.6 Y19.2445 Z0.1 F2400
M103

(  path 95/110, 2 points,  )
G1 X-22.6 Y20.2445 Z0.1 F600
M108 R35 (squirt)
M101
G1 X-22.5 Y20.2445 Z0.1 F2400
M108 R0.7 (good to go)
G1 X-20.5 Y20.2445 Z0.1 F600
M108 R35  (snort)
M102
G1 X-20.4 Y20.2445 Z0.1 F2400
M103

(  path 96/110, 2 points,  )
G1 X19.4 Y20.2445 Z0.1 F600
M108 R35 (squirt)
M101
G1 X19.5 Y20.2445 Z0.1 F2400
M108 R0.7 (good to go)
G1 X22.5 Y20.2445 Z0.1 F600
M108 R35  (snort)
M102
G1 X22.6 Y20.2445 Z0.1 F2400
M103

(  path 97/110, 2 points,  )
G1 X22.6 Y21.2445 Z0.1 F600
M108 R35 (squirt)
M101
G1 X22.5 Y21.2445 Z0.1 F2400
M108 R0.7 (good to go)
G1 X19.5 Y21.2445 Z0.1 F600
M108 R35  (snort)
M102
G1 X19.4 Y21.2445 Z0.1 F2400
M103

(  path 98/110, 2 points,  )
G1 X-20.4 Y21.2445 Z0.1 F600
M108 R35 (squirt)
M101
G1 X-20.5 Y21.2445 Z0.1 F2400
M108 R0.7 (good to go)
G1 X-22.5 Y21.2445 Z0.1 F600
M108 R35  (snort)
M102
G1 X-22.6 Y21.2445 Z0.1 F2400
M103

(  path 99/110, 2 points,  )
G1 X-22.6 Y22.2445 Z0.1 F600
M108 R35 (squirt)
M101
G1 X-22.5 Y22.2445 Z0.1 F2400
M108 R0.7 (good to go)
G1 X-20.5 Y22.2445 Z0.1 F600
M108 R35  (snort)
M102
G1 X-20.4 Y22.2445 Z0.1 F2400
M103

(  path 100/110, 2 points,  )
G1 X19.4 Y22.2445 Z0.1 F600
M108 R35 (squirt)
M101
G1 X19.5 Y22.2445 Z0.1 F2400
M108 R0.7 (good to go)
G1 X22.5 Y22.2445 Z0.1 F600
M108 R35  (snort)
M102
G1 X22.6 Y22.2445 Z0.1 F2400
M103

(  path 101/110, 2 points,  )
G1 X22.6 Y23.2445 Z0.1 F600
M108 R35 (squirt)
M101
G1 X22.5 Y23.2445 Z0.1 F2400
M108 R0.7 (good to go)
G1 X19.5 Y23.2445 Z0.1 F600
M108 R35  (snort)
M102
G1 X19.4 Y23.2445 Z0.1 F2400
M103

(  path 102/110, 2 points,  )
G1 X-20.4 Y23.2445 Z0.1 F600
M108 R35 (squirt)
M101
G1 X-20.5 Y23.2445 Z0.1 F2400
M108 R0.7 (good to go)
G1 X-22.5 Y23.2445 Z0.1 F600
M108 R35  (snort)
M102
G1 X-22.6 Y23.2445 Z0.1 F2400
M103

(  path 103/110, 2 points,  )
G1 X-22.6 Y24.2445 Z0.1 F600
M108 R35 (squirt)
M101
G1 X-22.5 Y24.2445 Z0.1 F2400
M108 R0.7 (good to go)
G1 X-20.5 Y24.2445 Z0.1 F600
M108 R35  (snort)
M102
G1 X-20.4 Y24.2445 Z0.1 F2400
M103

(  path 104/110, 2 points,  )
G1 X19.4 Y24.2445 Z0.1 F600
M108 R35 (squirt)
M101
G1 X19.5 Y24.2445 Z0.1 F2400
M108 R0.7 (good to go)
G1 X22.5 Y24.2445 Z0.1 F600
M108 R35  (snort)
M102
G1 X22.6 Y24.2445 Z0.1 F2400
M103

(  path 105/110, 2 points,  )
G1 X22.6 Y25.2445 Z0.1 F600
M108 R35 (squirt)
M101
G1 X22.5 Y25.2445 Z0.1 F2400
M108 R0.7 (good to go)
G1 X-22.5 Y25.2445 Z0.1 F600
M108 R35  (snort)
M102
G1 X-22.6 Y25.2445 Z0.1 F2400
M103

(  path 106/110, 2 points,  )
G1 X-22.6 Y26.2445 Z0.1 F600
M108 R35 (squirt)
M101
G1 X-22.5 Y26.2445 Z0.1 F2400
M108 R0.7 (good to go)
G1 X22.5 Y26.2445 Z0.1 F600
M108 R35  (snort)
M102
G1 X22.6 Y26.2445 Z0.1 F2400
M103

(  path 107/110, 2 points,  )
G1 X22.6 Y27.2445 Z0.1 F600
M108 R35 (squirt)
M101
G1 X22.5 Y27.2445 Z0.1 F2400
M108 R0.7 (good to go)
G1 X-22.5 Y27.2445 Z0.1 F600
M108 R35  (snort)
M102
G1 X-22.6 Y27.2445 Z0.1 F2400
M103

(  path 108/110, 2 points,  )
G1 X-22.6 Y28.2445 Z0.1 F600
M108 R35 (squirt)
M101
G1 X-22.5 Y28.2445 Z0.1 F2400
M108 R0.7 (good to go)
G1 X22.5 Y28.2445 Z0.1 F600
M108 R35  (snort)
M102
G1 X22.6 Y28.2445 Z0.1 F2400
M103

(  path 109/110, 2 points,  )
G1 X22.6 Y29.2445 Z0.1 F600
M108 R35 (squirt)
M101
G1 X22.5 Y29.2445 Z0.1 F2400
M108 R0.7 (good to go)
G1 X-22.5 Y29.2445 Z0.1 F600
M108 R35  (snort)
M102
G1 X-22.6 Y29.2445 Z0.1 F2400
M103

(Slice 1, 1 Extruder)
G1 Z0.37 F500 (move Z)
(   Extruder 0)
( extruder 0 )
( GSWITCH T0 )
( TODO: add offset management to Gantry )

(inset 0/2 )
(  path 0/2, 54 points,  )
G1 X-18.56 Y24.9604 Z0.37 F2400
M108 R35 (squirt)
M101
G1 X-18.56 Y24.8604 Z0.37 F2400
M108 R2.8 (good to go)
G1 X-18.56 Y14.44 Z0.37 F2400
G1 X-17.9685 Y14.44 Z0.37 F2400
G1 X-16.56 Y14.44 Z0.37 F2400
G1 X-16.56 Y9.44 Z0.37 F2400
G1 X-15.9639 Y9.44 Z0.37 F2400
G1 X-14.56 Y9.44 Z0.37 F2400
G1 X-14.56 Y4.44 Z0.37 F2400
G1 X-13.9577 Y4.44 Z0.37 F2400
G1 X-12.56 Y4.44 Z0.37 F2400
G1 X-12.56 Y-0.560002 Z0.37 F2400
G1 X-11.949 Y-0.560002 Z0.37 F2400
G1 X-10.56 Y-0.560002 Z0.37 F2400
G1 X-10.56 Y-5.56 Z0.37 F2400
G1 X-9.93565 Y-5.56 Z0.37 F2400
G1 X-8.56 Y-5.56 Z0.37 F2400
G1 X-8.56 Y-10.56 Z0.37 F2400
G1 X-7.91294 Y-10.56 Z0.37 F2400
G1 X-6.56 Y-10.56 Z0.37 F2400
G1 X-6.56 Y-15.56 Z0.37 F2400
G1 X-5.86545 Y-15.56 Z0.37 F2400
G1 X-4.56 Y-15.56 Z0.37 F2400
G1 X-4.56 Y-20.56 Z0.37 F2400
G1 X-3.704 Y-20.56 Z0.37 F2400
G1 X-2.56 Y-20.56 Z0.37 F2400
G1 X-2.56 Y-24.26 Z0.37 F2400
G1 X-2.56 Y-25.56 Z0.37 F2400
G1 X-1.704 Y-25.56 Z0.37 F2400
G1 X-1.26 Y-25.56 Z0.37 F2400
G1 X10.71 Y-25.56 Z0.37 F2400
G1 X17.56 Y-25.56 Z0.37 F2400
G1 X17.56 Y-6.50001 Z0.37 F2400
G1 X17.56 Y25.56 Z0.37 F2400
G1 X-5.05 Y25.56 Z0.37 F2400
G1 X-11.34 Y25.56 Z0.37 F2400
G1 X-15.336 Y25.56 Z0.37 F2400
G1 X-15.632 Y25.56 Z0.37 F2400
G1 X-16.52 Y25.56 Z0.37 F2400
G1 X-17.0582 Y25.56 Z0.37 F2400
G1 X-17.26 Y25.56 Z0.37 F2400
G1 X-17.4776 Y25.56 Z0.37 F2400
G1 X-17.556 Y25.56 Z0.37 F2400
G1 X-17.6783 Y25.56 Z0.37 F2400
G1 X-17.7154 Y25.56 Z0.37 F2400
G1 X-17.7959 Y25.56 Z0.37 F2400
G1 X-17.815 Y25.56 Z0.37 F2400
G1 X-17.8731 Y25.56 Z0.37 F2400
G1 X-17.8832 Y25.56 Z0.37 F2400
G1 X-17.9278 Y25.56 Z0.37 F2400
G1 X-17.9327 Y25.56 Z0.37 F2400
G1 X-17.9685 Y25.56 Z0.37 F2400
G1 X-17.9704 Y25.56 Z0.37 F2400
G1 X-18.56 Y25.56 Z0.37 F2400
G1 X-18.56 Y24.8604 Z0.37 F2400
M108 R35  (snort)
M102
G1 X-18.56 Y24.7604 Z0.37 F2400
M103

(  path 1/2, 36 points,  )
G1 X-15.85 Y29.44 Z0.37 F2400
M108 R35 (squirt)
M101
G1 X-15.75 Y29.44 Z0.37 F2400
M108 R2.8 (good to go)
G1 X15.75 Y29.44 Z0.37 F2400
G1 X23.89 Y29.44 Z0.37 F2400
G1 X24.44 Y29.44 Z0.37 F2400
G1 X24.44 Y29.4158 Z0.37 F2400
G1 X24.44 Y29.3184 Z0.37 F2400
G1 X24.44 Y29.1906 Z0.37 F2400
G1 X24.44 Y28.8615 Z0.37 F2400
G1 X24.44 Y28.7192 Z0.37 F2400
G1 X24.44 Y28.335 Z0.37 F2400
G1 X24.44 Y28.15 Z0.37 F2400
G1 X24.44 Y27.3571 Z0.37 F2400
G1 X24.44 Y24.9125 Z0.37 F2400
G1 X24.44 Y-29.44 Z0.37 F2400
G1 X23.89 Y-29.44 Z0.37 F2400
G1 X-7.61 Y-29.44 Z0.37 F2400
G1 X-15.75 Y-29.44 Z0.37 F2400
G1 X-24.44 Y-29.44 Z0.37 F2400
G1 X-24.44 Y24.45 Z0.37 F2400
G1 X-24.44 Y24.9125 Z0.37 F2400
G1 X-24.44 Y27.0929 Z0.37 F2400
G1 X-24.44 Y27.3571 Z0.37 F2400
G1 X-24.44 Y28.335 Z0.37 F2400
G1 X-24.44 Y28.8615 Z0.37 F2400
G1 X-24.44 Y29.075 Z0.37 F2400
G1 X-24.44 Y29.1906 Z0.37 F2400
G1 X-24.44 Y29.3184 Z0.37 F2400
G1 X-24.44 Y29.4158 Z0.37 F2400
G1 X-24.44 Y29.44 Z0.37 F2400
G1 X-24.297 Y29.44 Z0.37 F2400
G1 X-24.223 Y29.44 Z0.37 F2400
G1 X-23.89 Y29.44 Z0.37 F2400
G1 X-23.7843 Y29.44 Z0.37 F2400
G1 X-22.8725 Y29.44 Z0.37 F2400
G1 X-22.6875 Y29.44 Z0.37 F2400
G1 X-15.75 Y29.44 Z0.37 F2400
M108 R35  (snort)
M102
G1 X-15.65 Y29.44 Z0.37 F2400
M103

(inset 1/2 )
(  path 0/2, 56 points,  )
G1 X-18.2 Y24.9604 Z0.37 F2400
M108 R35 (squirt)
M101
G1 X-18.2 Y24.8604 Z0.37 F2400
M108 R2.8 (good to go)
G1 X-18.2 Y14.8 Z0.37 F2400
G1 X-17.9685 Y14.8 Z0.37 F2400
G1 X-16.2 Y14.8 Z0.37 F2400
G1 X-16.2 Y9.8 Z0.37 F2400
G1 X-15.9639 Y9.8 Z0.37 F2400
G1 X-14.2 Y9.8 Z0.37 F2400
G1 X-14.2 Y4.8 Z0.37 F2400
G1 X-13.9577 Y4.8 Z0.37 F2400
G1 X-12.2 Y4.8 Z0.37 F2400
G1 X-12.2 Y-0.200002 Z0.37 F2400
G1 X-11.949 Y-0.200002 Z0.37 F2400
G1 X-10.2 Y-0.200002 Z0.37 F2400
G1 X-10.2 Y-5.2 Z0.37 F2400
G1 X-9.93565 Y-5.2 Z0.37 F2400
G1 X-8.2 Y-5.2 Z0.37 F2400
G1 X-8.2 Y-10.2 Z0.37 F2400
G1 X-7.91294 Y-10.2 Z0.37 F2400
G1 X-6.2 Y-10.2 Z0.37 F2400
G1 X-6.2 Y-10.2176 Z0.37 F2400
G1 X-6.2 Y-15.2 Z0.37 F2400
G1 X-5.86545 Y-15.2 Z0.37 F2400
G1 X-4.2 Y-15.2 Z0.37 F2400
G1 X-4.2 Y-15.3364 Z0.37 F2400
G1 X-4.2 Y-20.2 Z0.37 F2400
G1 X-3.704 Y-20.2 Z0.37 F2400
G1 X-2.2 Y-20.2 Z0.37 F2400
G1 X-2.2 Y-24.26 Z0.37 F2400
G1 X-2.2 Y-25.2 Z0.37 F2400
G1 X-1.704 Y-25.2 Z0.37 F2400
G1 X-1.26 Y-25.2 Z0.37 F2400
G1 X10.71 Y-25.2 Z0.37 F2400
G1 X17.2 Y-25.2 Z0.37 F2400
G1 X17.2 Y-6.50001 Z0.37 F2400
G1 X17.2 Y25.2 Z0.37 F2400
G1 X-5.05 Y25.2 Z0.37 F2400
G1 X-11.34 Y25.2 Z0.37 F2400
G1 X-15.336 Y25.2 Z0.37 F2400
G1 X-15.632 Y25.2 Z0.37 F2400
G1 X-16.52 Y25.2 Z0.37 F2400
G1 X-17.0582 Y25.2 Z0.37 F2400
G1 X-17.26 Y25.2 Z0.37 F2400
G1 X-17.4776 Y25.2 Z0.37 F2400
G1 X-17.556 Y25.2 Z0.37 F2400
G1 X-17.6783 Y25.2 Z0.37 F2400
G1 X-17.7154 Y25.2 Z0.37 F2400
G1 X-17.7959 Y25.2 Z0.37 F2400
G1 X-17.815 Y25.2 Z0.37 F2400
G1 X-17.8731 Y25.2 Z0.37 F2400
G1 X-17.8832 Y25.2 Z0.37 F2400
G1 X-17.9278 Y25.2 Z0.37 F2400
G1 X-17.9327 Y25.2 Z0.37 F2400
G1 X-17.9685 Y25.2 Z0.37 F2400
G1 X-17.9704 Y25.2 Z0.37 F2400
G1 X-18.2 Y25.2 Z0.37 F2400
G1 X-18.2 Y24.8604 Z0.37 F2400
M108 R35  (snort)
M102
G1 X-18.2 Y24.7604 Z0.37 F2400
M103

(  path 1/2, 53 points,  )
G1 X-15.85 Y29.8 Z0.37 F2400
M108 R35 (squirt)
M101
G1 X-15.75 Y29.8 Z0.37 F2400
M108 R2.8 (good to go)
G1 X15.75 Y29.8 Z0.37 F2400
G1 X23.89 Y29.8 Z0.37 F2400
G1 X24.8 Y29.8 Z0.37 F2400
G1 X24.8 Y29.7357 Z0.37 F2400
G1 X24.8 Y29.704 Z0.37 F2400
G1 X24.8 Y29.5795 Z0.37 F2400
G1 X24.8 Y29.4955 Z0.37 F2400
G1 X24.8 Y29.4158 Z0.37 F2400
G1 X24.8 Y29.3184 Z0.37 F2400
G1 X24.8 Y29.1906 Z0.37 F2400
G1 X24.8 Y28.8615 Z0.37 F2400
G1 X24.8 Y28.7192 Z0.37 F2400
G1 X24.8 Y28.335 Z0.37 F2400
G1 X24.8 Y28.15 Z0.37 F2400
G1 X24.8 Y27.3571 Z0.37 F2400
G1 X24.8 Y24.9125 Z0.37 F2400
G1 X24.8 Y-29.5375 Z0.37 F2400
G1 X24.8 Y-29.8 Z0.37 F2400
G1 X24.7225 Y-29.8 Z0.37 F2400
G1 X23.89 Y-29.8 Z0.37 F2400
G1 X-7.61 Y-29.8 Z0.37 F2400
G1 X-15.75 Y-29.8 Z0.37 F2400
G1 X-24.8 Y-29.8 Z0.37 F2400
G1 X-24.8 Y24.45 Z0.37 F2400
G1 X-24.8 Y24.9125 Z0.37 F2400
G1 X-24.8 Y27.0929 Z0.37 F2400
G1 X-24.8 Y27.3571 Z0.37 F2400
G1 X-24.8 Y28.335 Z0.37 F2400
G1 X-24.8 Y28.8615 Z0.37 F2400
G1 X-24.8 Y29.075 Z0.37 F2400
G1 X-24.8 Y29.1906 Z0.37 F2400
G1 X-24.8 Y29.3184 Z0.37 F2400
G1 X-24.8 Y29.4158 Z0.37 F2400
G1 X-24.8 Y29.5795 Z0.37 F2400
G1 X-24.8 Y29.63 Z0.37 F2400
G1 X-24.8 Y29.704 Z0.37 F2400
G1 X-24.8 Y29.7357 Z0.37 F2400
G1 X-24.8 Y29.8 Z0.37 F2400
G1 X-24.7814 Y29.8 Z0.37 F2400
G1 X-24.7468 Y29.8 Z0.37 F2400
G1 X-24.7079 Y29.8 Z0.37 F2400
G1 X-24.6531 Y29.8 Z0.37 F2400
G1 X-24.6069 Y29.8 Z0.37 F2400
G1 X-24.5162 Y29.8 Z0.37 F2400
G1 X-24.4592 Y29.8 Z0.37 F2400
G1 X-24.297 Y29.8 Z0.37 F2400
G1 X-24.223 Y29.8 Z0.37 F2400
G1 X-23.89 Y29.8 Z0.37 F2400
G1 X-23.7843 Y29.8 Z0.37 F2400
G1 X-22.8725 Y29.8 Z0.37 F2400
G1 X-22.6875 Y29.8 Z0.37 F2400
G1 X-15.75 Y29.8 Z0.37 F2400
M108 R35  (snort)
M102
G1 X-15.65 Y29.8 Z0.37 F2400
M103

(  path 0/41, 2 points,  )
G1 X-24.7555 Y-27.6 Z0.37 F2400
M108 R35 (squirt)
M101
G1 X-24.7555 Y-27.5 Z0.37 F2400
M108 R2.8 (good to go)
G1 X-24.7555 Y27.5 Z0.37 F2400
M108 R35  (snort)
M102
G1 X-24.7555 Y27.6 Z0.37 F2400
M103

(  path 1/41, 2 points,  )
G1 X-23.7555 Y27.6 Z0.37 F2400
M108 R35 (squirt)
M101
G1 X-23.7555 Y27.5 Z0.37 F2400
M108 R2.8 (good to go)
G1 X-23.7555 Y-27.5 Z0.37 F2400
M108 R35  (snort)
M102
G1 X-23.7555 Y-27.6 Z0.37 F2400
M103

(  path 2/41, 2 points,  )
G1 X-22.7555 Y-27.6 Z0.37 F2400
M108 R35 (squirt)
M101
G1 X-22.7555 Y-27.5 Z0.37 F2400
M108 R2.8 (good to go)
G1 X-22.7555 Y27.5 Z0.37 F2400
M108 R35  (snort)
M102
G1 X-22.7555 Y27.6 Z0.37 F2400
M103

(  path 3/41, 2 points,  )
G1 X-21.7555 Y27.6 Z0.37 F2400
M108 R35 (squirt)
M101
G1 X-21.7555 Y27.5 Z0.37 F2400
M108 R2.8 (good to go)
G1 X-21.7555 Y-27.5 Z0.37 F2400
M108 R35  (snort)
M102
G1 X-21.7555 Y-27.6 Z0.37 F2400
M103

(  path 4/41, 2 points,  )
G1 X-20.7555 Y-27.6 Z0.37 F2400
M108 R35 (squirt)
M101
G1 X-20.7555 Y-27.5 Z0.37 F2400
M108 R2.8 (good to go)
G1 X-20.7555 Y27.5 Z0.37 F2400
M108 R35  (snort)
M102
G1 X-20.7555 Y27.6 Z0.37 F2400
M103

(  path 5/41, 2 points,  )
G1 X-19.7555 Y27.6 Z0.37 F2400
M108 R35 (squirt)
M101
G1 X-19.7555 Y27.5 Z0.37 F2400
M108 R2.8 (good to go)
G1 X-19.7555 Y-27.5 Z0.37 F2400
M108 R35  (snort)
M102
G1 X-19.7555 Y-27.6 Z0.37 F2400
M103

(  path 6/41, 2 points,  )
G1 X-18.7555 Y-27.6 Z0.37 F2400
M108 R35 (squirt)
M101
G1 X-18.7555 Y-27.5 Z0.37 F2400
M108 R2.8 (good to go)
G1 X-18.7555 Y27.5 Z0.37 F2400
M108 R35  (snort)
M102
G1 X-18.7555 Y27.6 Z0.37 F2400
M103

(  path 7/41, 2 points,  )
G1 X-17.7555 Y12.6 Z0.37 F2400
M108 R35 (squirt)
M101
G1 X-17.7555 Y12.5 Z0.37 F2400
M108 R2.8 (good to go)
G1 X-17.7555 Y-27.5 Z0.37 F2400
M108 R35  (snort)
M102
G1 X-17.7555 Y-27.6 Z0.37 F2400
M103

(  path 8/41, 2 points,  )
G1 X-16.7555 Y-27.6 Z0.37 F2400
M108 R35 (squirt)
M101
G1 X-16.7555 Y-27.5 Z0.37 F2400
M108 R2.8 (good to go)
G1 X-16.7555 Y12.5 Z0.37 F2400
M108 R35  (snort)
M102
G1 X-16.7555 Y12.6 Z0.37 F2400
M103

(  path 9/41, 2 points,  )
G1 X-15.7555 Y7.6 Z0.37 F2400
M108 R35 (squirt)
M101
G1 X-15.7555 Y7.5 Z0.37 F2400
M108 R2.8 (good to go)
G1 X-15.7555 Y-27.5 Z0.37 F2400
M108 R35  (snort)
M102
G1 X-15.7555 Y-27.6 Z0.37 F2400
M103

(  path 10/41, 2 points,  )
G1 X-14.7555 Y-27.6 Z0.37 F2400
M108 R35 (squirt)
M101
G1 X-14.7555 Y-27.5 Z0.37 F2400
M108 R2.8 (good to go)
G1 X-14.7555 Y7.5 Z0.37 F2400
M108 R35  (snort)
M102
G1 X-14.7555 Y7.6 Z0.37 F2400
M103

(  path 11/41, 2 points,  )
G1 X-13.7555 Y2.6 Z0.37 F2400
M108 R35 (squirt)
M101
G1 X-13.7555 Y2.5 Z0.37 F2400
M108 R2.8 (good to go)
G1 X-13.7555 Y-27.5 Z0.37 F2400
M108 R35  (snort)
M102
G1 X-13.7555 Y-27.6 Z0.37 F2400
M103

(  path 12/41, 2 points,  )
G1 X-12.7555 Y-27.6 Z0.37 F2400
M108 R35 (squirt)
M101
G1 X-12.7555 Y-27.5 Z0.37 F2400
M108 R2.8 (good to go)
G1 X-12.7555 Y2.5 Z0.37 F2400
M108 R35  (snort)
M102
G1 X-12.7555 Y2.6 Z0.37 F2400
M103

(  path 13/41, 2 points,  )
G1 X-11.7555 Y-2.4 Z0.37 F2400
M108 R35 (squirt)
M101
G1 X-11.7555 Y-2.5 Z0.37 F2400
M108 R2.8 (good to go)
G1 X-11.7555 Y-27.5 Z0.37 F2400
M108 R35  (snort)
M102
G1 X-11.7555 Y-27.6 Z0.37 F2400
M103

(  path 14/41, 2 points,  )
G1 X-10.7555 Y-27.6 Z0.37 F2400
M108 R35 (squirt)
M101
G1 X-10.7555 Y-27.5 Z0.37 F2400
M108 R2.8 (good to go)
G1 X-10.7555 Y-2.5 Z0.37 F2400
M108 R35  (snort)
M102
G1 X-10.7555 Y-2.4 Z0.37 F2400
M103

(  path 15/41, 2 points,  )
G1 X-9.7555 Y-7.4 Z0.37 F2400
M108 R35 (squirt)
M101
G1 X-9.7555 Y-7.5 Z0.37 F2400
M108 R2.8 (good to go)
G1 X-9.7555 Y-27.5 Z0.37 F2400
M108 R35  (snort)
M102
G1 X-9.7555 Y-27.6 Z0.37 F2400
M103

(  path 16/41, 2 points,  )
G1 X-8.7555 Y-27.6 Z0.37 F2400
M108 R35 (squirt)
M101
G1 X-8.7555 Y-27.5 Z0.37 F2400
M108 R2.8 (good to go)
G1 X-8.7555 Y-7.5 Z0.37 F2400
M108 R35  (snort)
M102
G1 X-8.7555 Y-7.4 Z0.37 F2400
M103

(  path 17/41, 2 points,  )
G1 X-7.7555 Y-12.4 Z0.37 F2400
M108 R35 (squirt)
M101
G1 X-7.7555 Y-12.5 Z0.37 F2400
M108 R2.8 (good to go)
G1 X-7.7555 Y-27.5 Z0.37 F2400
M108 R35  (snort)
M102
G1 X-7.7555 Y-27.6 Z0.37 F2400
M103

(  path 18/41, 2 points,  )
G1 X-6.7555 Y-27.6 Z0.37 F2400
M108 R35 (squirt)
M101
G1 X-6.7555 Y-27.5 Z0.37 F2400
M108 R2.8 (good to go)
G1 X-6.7555 Y-12.5 Z0.37 F2400
M108 R35  (snort)
M102
G1 X-6.7555 Y-12.4 Z0.37 F2400
M103

(  path 19/41, 2 points,  )
G1 X-5.7555 Y-17.4 Z0.37 F2400
M108 R35 (squirt)
M101
G1 X-5.7555 Y-17.5 Z0.37 F2400
M108 R2.8 (good to go)
G1 X-5.7555 Y-27.5 Z0.37 F2400
M108 R35  (snort)
M102
G1 X-5.7555 Y-27.6 Z0.37 F2400
M103

(  path 20/41, 2 points,  )
G1 X-4.7555 Y-27.6 Z0.37 F2400
M108 R35 (squirt)
M101
G1 X-4.7555 Y-27.5 Z0.37 F2400
M108 R2.8 (good to go)
G1 X-4.7555 Y-17.5 Z0.37 F2400
M108 R35  (snort)
M102
G1 X-4.7555 Y-17.4 Z0.37 F2400
M103

(  path 21/41, 2 points,  )
G1 X-4.7555 Y27.4 Z0.37 F2400
M108 R35 (squirt)
M101
G1 X-4.7555 Y27.5 Z0.37 F2400
M108 R2.8 (good to go)
G1 X-4.7555 Y27.5 Z0.37 F2400
M108 R35  (snort)
M102
G1 X-4.7555 Y27.6 Z0.37 F2400
M103

(  path 22/41, 2 points,  )
G1 X-3.7555 Y27.6 Z0.37 F2400
M108 R35 (squirt)
M101
G1 X-3.7555 Y27.5 Z0.37 F2400
M108 R2.8 (good to go)
G1 X-3.7555 Y27.5 Z0.37 F2400
M108 R35  (snort)
M102
G1 X-3.7555 Y27.4 Z0.37 F2400
M103

(  path 23/41, 2 points,  )
G1 X-3.7555 Y-22.4 Z0.37 F2400
M108 R35 (squirt)
M101
G1 X-3.7555 Y-22.5 Z0.37 F2400
M108 R2.8 (good to go)
G1 X-3.7555 Y-27.5 Z0.37 F2400
M108 R35  (snort)
M102
G1 X-3.7555 Y-27.6 Z0.37 F2400
M103

(  path 24/41, 2 points,  )
G1 X-2.7555 Y-27.6 Z0.37 F2400
M108 R35 (squirt)
M101
G1 X-2.7555 Y-27.5 Z0.37 F2400
M108 R2.8 (good to go)
G1 X-2.7555 Y-22.5 Z0.37 F2400
M108 R35  (snort)
M102
G1 X-2.7555 Y-22.4 Z0.37 F2400
M103

(  path 25/41, 2 points,  )
G1 X-2.7555 Y27.4 Z0.37 F2400
M108 R35 (squirt)
M101
G1 X-2.7555 Y27.5 Z0.37 F2400
M108 R2.8 (good to go)
G1 X-2.7555 Y27.5 Z0.37 F2400
M108 R35  (snort)
M102
G1 X-2.7555 Y27.6 Z0.37 F2400
M103

(  path 26/41, 2 points,  )
G1 X-1.7555 Y27.6 Z0.37 F2400
M108 R35 (squirt)
M101
G1 X-1.7555 Y27.5 Z0.37 F2400
M108 R2.8 (good to go)
G1 X-1.7555 Y27.5 Z0.37 F2400
M108 R35  (snort)
M102
G1 X-1.7555 Y27.4 Z0.37 F2400
M103

(  path 27/41, 2 points,  )
G1 X7.2445 Y27.4 Z0.37 F2400
M108 R35 (squirt)
M101
G1 X7.2445 Y27.5 Z0.37 F2400
M108 R2.8 (good to go)
G1 X7.2445 Y27.5 Z0.37 F2400
M108 R35  (snort)
M102
G1 X7.2445 Y27.6 Z0.37 F2400
M103

(  path 28/41, 2 points,  )
G1 X8.2445 Y27.6 Z0.37 F2400
M108 R35 (squirt)
M101
G1 X8.2445 Y27.5 Z0.37 F2400
M108 R2.8 (good to go)
G1 X8.2445 Y27.5 Z0.37 F2400
M108 R35  (snort)
M102
G1 X8.2445 Y27.4 Z0.37 F2400
M103

(  path 29/41, 2 points,  )
G1 X11.2445 Y27.4 Z0.37 F2400
M108 R35 (squirt)
M101
G1 X11.2445 Y27.5 Z0.37 F2400
M108 R2.8 (good to go)
G1 X11.2445 Y27.5 Z0.37 F2400
M108 R35  (snort)
M102
G1 X11.2445 Y27.6 Z0.37 F2400
M103

(  path 30/41, 2 points,  )
G1 X12.2445 Y27.6 Z0.37 F2400
M108 R35 (squirt)
M101
G1 X12.2445 Y27.5 Z0.37 F2400
M108 R2.8 (good to go)
G1 X12.2445 Y27.5 Z0.37 F2400
M108 R35  (snort)
M102
G1 X12.2445 Y27.4 Z0.37 F2400
M103

(  path 31/41, 2 points,  )
G1 X13.2445 Y27.4 Z0.37 F2400
M108 R35 (squirt)
M101
G1 X13.2445 Y27.5 Z0.37 F2400
M108 R2.8 (good to go)
G1 X13.2445 Y27.5 Z0.37 F2400
M108 R35  (snort)
M102
G1 X13.2445 Y27.6 Z0.37 F2400
M103

(  path 32/41, 2 points,  )
G1 X14.2445 Y27.6 Z0.37 F2400
M108 R35 (squirt)
M101
G1 X14.2445 Y27.5 Z0.37 F2400
M108 R2.8 (good to go)
G1 X14.2445 Y27.5 Z0.37 F2400
M108 R35  (snort)
M102
G1 X14.2445 Y27.4 Z0.37 F2400
M103

(  path 33/41, 2 points,  )
G1 X17.2445 Y-27.6 Z0.37 F2400
M108 R35 (squirt)
M101
G1 X17.2445 Y-27.5 Z0.37 F2400
M108 R2.8 (good to go)
G1 X17.2445 Y27.5 Z0.37 F2400
M108 R35  (snort)
M102
G1 X17.2445 Y27.6 Z0.37 F2400
M103

(  path 34/41, 2 points,  )
G1 X18.2445 Y27.6 Z0.37 F2400
M108 R35 (squirt)
M101
G1 X18.2445 Y27.5 Z0.37 F2400
M108 R2.8 (good to go)
G1 X18.2445 Y-27.5 Z0.37 F2400
M108 R35  (snort)
M102
G1 X18.2445 Y-27.6 Z0.37 F2400
M103

(  path 35/41, 2 points,  )
G1 X19.2445 Y-27.6 Z0.37 F2400
M108 R35 (squirt)
M101
G1 X19.2445 Y-27.5 Z0.37 F2400
M108 R2.8 (good to go)
G1 X19.2445 Y27.5 Z0.37 F2400
M108 R35  (snort)
M102
G1 X19.2445 Y27.6 Z0.37 F2400
M103

(  path 36/41, 2 points,  )
G1 X20.2445 Y27.6 Z0.37 F2400
M108 R35 (squirt)
M101
G1 X20.2445 Y27.5 Z0.37 F2400
M108 R2.8 (good to go)
G1 X20.2445 Y-27.5 Z0.37 F2400
M108 R35  (snort)
M102
G1 X20.2445 Y-27.6 Z0.37 F2400
M103

(  path 37/41, 2 points,  )
G1 X21.2445 Y-27.6 Z0.37 F2400
M108 R35 (squirt)
M101
G1 X21.2445 Y-27.5 Z0.37 F2400
M108 R2.8 (good to go)
G1 X21.2445 Y27.5 Z0.37 F2400
M108 R35  (snort)
M102
G1 X21.2445 Y27.6 Z0.37 F2400
M103

(  path 38/41, 2 points,  )
G1 X22.2445 Y27.6 Z0.37 F2400
M108 R35 (squirt)
M101
G1 X22.2445 Y27.5 Z0.37 F2400
M108 R2.8 (good to go)
G1 X22.2445 Y-27.5 Z0.37 F2400
M108 R35  (snort)
M102
G1 X22.2445 Y-27.6 Z0.37 F2400
M103

(  path 39/41, 2 points,  )
G1 X23.2445 Y-27.6 Z0.37 F2400
M108 R35 (squirt)
M101
G1 X23.2445 Y-27.5 Z0.37 F2400
M108 R2.8 (good to go)
G1 X23.2445 Y27.5 Z0.37 F2400
M108 R35  (snort)
M102
G1 X23.2445 Y27.6 Z0.37 F2400
M103

(  path 40/41, 2 points,  )
G1 X24.2445 Y27.6 Z0.37 F2400
M108 R35 (squirt)
M101
G1 X24.2445 Y27.5 Z0.37 F2400
M108 R2.8 (good to go)
G1 X24.2445 Y-27.5 Z0.37 F2400
M108 R35  (snort)
M102
G1 X24.2445 Y-27.6 Z0.37 F2400
M103

(Slice 2, 1 Extruder)
G1 Z0.64 F500 (move Z)
(   Extruder 0)
( extruder 0 )
( GSWITCH T0 )
( TODO: add offset management to Gantry )

(inset 0/2 )
(  path 0/2, 55 points,  )
G1 X-18.56 Y24.8585 Z0.64 F2400
M108 R35 (squirt)
M101
G1 X-18.56 Y24.7585 Z0.64 F2400
M108 R2.8 (good to go)
G1 X-18.56 Y14.44 Z0.64 F2400
G1 X-17.9455 Y14.44 Z0.64 F2400
G1 X-16.56 Y14.44 Z0.64 F2400
G1 X-16.56 Y9.44 Z0.64 F2400
G1 X-15.9376 Y9.44 Z0.64 F2400
G1 X-14.56 Y9.44 Z0.64 F2400
G1 X-14.56 Y4.44 Z0.64 F2400
G1 X-13.9269 Y4.44 Z0.64 F2400
G1 X-12.56 Y4.44 Z0.64 F2400
G1 X-12.56 Y-0.560002 Z0.64 F2400
G1 X-11.9117 Y-0.560002 Z0.64 F2400
G1 X-10.56 Y-0.560002 Z0.64 F2400
G1 X-10.56 Y-5.56 Z0.64 F2400
G1 X-9.8887 Y-5.56 Z0.64 F2400
G1 X-8.56 Y-5.56 Z0.64 F2400
G1 X-8.56 Y-10.56 Z0.64 F2400
G1 X-7.84941 Y-10.56 Z0.64 F2400
G1 X-6.56 Y-10.56 Z0.64 F2400
G1 X-6.56 Y-15.56 Z0.64 F2400
G1 X-5.76727 Y-15.56 Z0.64 F2400
G1 X-4.56 Y-15.56 Z0.64 F2400
G1 X-4.56 Y-15.5818 Z0.64 F2400
G1 X-4.56 Y-20.56 Z0.64 F2400
G1 X-3.488 Y-20.56 Z0.64 F2400
G1 X-2.56 Y-20.56 Z0.64 F2400
G1 X-2.56 Y-23.72 Z0.64 F2400
G1 X-2.56 Y-25.56 Z0.64 F2400
G1 X-1.488 Y-25.56 Z0.64 F2400
G1 X-0.72 Y-25.56 Z0.64 F2400
G1 X6.12 Y-25.56 Z0.64 F2400
G1 X17.56 Y-25.56 Z0.64 F2400
G1 X17.56 Y7 Z0.64 F2400
G1 X17.56 Y25.56 Z0.64 F2400
G1 X4.4 Y25.56 Z0.64 F2400
G1 X-6.48 Y25.56 Z0.64 F2400
G1 X-13.392 Y25.56 Z0.64 F2400
G1 X-13.904 Y25.56 Z0.64 F2400
G1 X-15.44 Y25.56 Z0.64 F2400
G1 X-16.3709 Y25.56 Z0.64 F2400
G1 X-16.72 Y25.56 Z0.64 F2400
G1 X-17.0965 Y25.56 Z0.64 F2400
G1 X-17.232 Y25.56 Z0.64 F2400
G1 X-17.4435 Y25.56 Z0.64 F2400
G1 X-17.5077 Y25.56 Z0.64 F2400
G1 X-17.6469 Y25.56 Z0.64 F2400
G1 X-17.68 Y25.56 Z0.64 F2400
G1 X-17.7806 Y25.56 Z0.64 F2400
G1 X-17.7979 Y25.56 Z0.64 F2400
G1 X-17.8751 Y25.56 Z0.64 F2400
G1 X-17.8836 Y25.56 Z0.64 F2400
G1 X-17.9455 Y25.56 Z0.64 F2400
G1 X-17.9488 Y25.56 Z0.64 F2400
G1 X-18.56 Y25.56 Z0.64 F2400
G1 X-18.56 Y24.7585 Z0.64 F2400
M108 R35  (snort)
M102
G1 X-18.56 Y24.6585 Z0.64 F2400
M103

(  path 1/2, 45 points,  )
G1 X-21.1 Y29.44 Z0.64 F2400
M108 R35 (squirt)
M101
G1 X-21 Y29.44 Z0.64 F2400
M108 R2.8 (good to go)
G1 X-9 Y29.44 Z0.64 F2400
G1 X9 Y29.44 Z0.64 F2400
G1 X23.08 Y29.44 Z0.64 F2400
G1 X24.44 Y29.44 Z0.64 F2400
G1 X24.44 Y29.2727 Z0.64 F2400
G1 X24.44 Y29.1273 Z0.64 F2400
G1 X24.44 Y28.9895 Z0.64 F2400
G1 X24.44 Y28.8211 Z0.64 F2400
G1 X24.44 Y28.6 Z0.64 F2400
G1 X24.44 Y28.0308 Z0.64 F2400
G1 X24.44 Y27.7846 Z0.64 F2400
G1 X24.44 Y27.12 Z0.64 F2400
G1 X24.44 Y26.8 Z0.64 F2400
G1 X24.44 Y25.4286 Z0.64 F2400
G1 X24.44 Y21.2 Z0.64 F2400
G1 X24.44 Y-29.2 Z0.64 F2400
G1 X24.44 Y-29.44 Z0.64 F2400
G1 X23.08 Y-29.44 Z0.64 F2400
G1 X5.08 Y-29.44 Z0.64 F2400
G1 X-9 Y-29.44 Z0.64 F2400
G1 X-24.44 Y-29.44 Z0.64 F2400
G1 X-24.44 Y20.4 Z0.64 F2400
G1 X-24.44 Y21.2 Z0.64 F2400
G1 X-24.44 Y24.9714 Z0.64 F2400
G1 X-24.44 Y25.4286 Z0.64 F2400
G1 X-24.44 Y27.12 Z0.64 F2400
G1 X-24.44 Y28.0308 Z0.64 F2400
G1 X-24.44 Y28.4 Z0.64 F2400
G1 X-24.44 Y28.6 Z0.64 F2400
G1 X-24.44 Y28.8211 Z0.64 F2400
G1 X-24.44 Y28.9895 Z0.64 F2400
G1 X-24.44 Y29.2727 Z0.64 F2400
G1 X-24.44 Y29.36 Z0.64 F2400
G1 X-24.44 Y29.44 Z0.64 F2400
G1 X-24.4 Y29.44 Z0.64 F2400
G1 X-24.32 Y29.44 Z0.64 F2400
G1 X-24.1631 Y29.44 Z0.64 F2400
G1 X-24.0646 Y29.44 Z0.64 F2400
G1 X-23.784 Y29.44 Z0.64 F2400
G1 X-23.656 Y29.44 Z0.64 F2400
G1 X-23.08 Y29.44 Z0.64 F2400
G1 X-22.8971 Y29.44 Z0.64 F2400
G1 X-21.32 Y29.44 Z0.64 F2400
G1 X-21 Y29.44 Z0.64 F2400
M108 R35  (snort)
M102
G1 X-20.9 Y29.44 Z0.64 F2400
M103

(inset 1/2 )
(  path 0/2, 58 points,  )
G1 X-18.2 Y24.8585 Z0.64 F2400
M108 R35 (squirt)
M101
G1 X-18.2 Y24.7585 Z0.64 F2400
M108 R2.8 (good to go)
G1 X-18.2 Y14.8 Z0.64 F2400
G1 X-17.9455 Y14.8 Z0.64 F2400
G1 X-16.2 Y14.8 Z0.64 F2400
G1 X-16.2 Y9.8 Z0.64 F2400
G1 X-15.9376 Y9.8 Z0.64 F2400
G1 X-14.2 Y9.8 Z0.64 F2400
G1 X-14.2 Y4.8 Z0.64 F2400
G1 X-13.9269 Y4.8 Z0.64 F2400
G1 X-12.2 Y4.8 Z0.64 F2400
G1 X-12.2 Y-0.200002 Z0.64 F2400
G1 X-11.9117 Y-0.200002 Z0.64 F2400
G1 X-10.2 Y-0.200002 Z0.64 F2400
G1 X-10.2 Y-0.220691 Z0.64 F2400
G1 X-10.2 Y-5.2 Z0.64 F2400
G1 X-9.8887 Y-5.2 Z0.64 F2400
G1 X-8.2 Y-5.2 Z0.64 F2400
G1 X-8.2 Y-5.27826 Z0.64 F2400
G1 X-8.2 Y-10.2 Z0.64 F2400
G1 X-7.84941 Y-10.2 Z0.64 F2400
G1 X-6.2 Y-10.2 Z0.64 F2400
G1 X-6.2 Y-10.3765 Z0.64 F2400
G1 X-6.2 Y-15.2 Z0.64 F2400
G1 X-5.76727 Y-15.2 Z0.64 F2400
G1 X-4.2 Y-15.2 Z0.64 F2400
G1 X-4.2 Y-15.5818 Z0.64 F2400
G1 X-4.2 Y-20.2 Z0.64 F2400
G1 X-3.488 Y-20.2 Z0.64 F2400
G1 X-2.2 Y-20.2 Z0.64 F2400
G1 X-2.2 Y-23.72 Z0.64 F2400
G1 X-2.2 Y-25.2 Z0.64 F2400
G1 X-1.488 Y-25.2 Z0.64 F2400
G1 X-0.72 Y-25.2 Z0.64 F2400
G1 X6.12 Y-25.2 Z0.64 F2400
G1 X17.2 Y-25.2 Z0.64 F2400
G1 X17.2 Y7 Z0.64 F2400
G1 X17.2 Y25.2 Z0.64 F2400
G1 X4.4 Y25.2 Z0.64 F2400
G1 X-6.48 Y25.2 Z0.64 F2400
G1 X-13.392 Y25.2 Z0.64 F2400
G1 X-13.904 Y25.2 Z0.64 F2400
G1 X-15.44 Y25.2 Z0.64 F2400
G1 X-16.3709 Y25.2 Z0.64 F2400
G1 X-16.72 Y25.2 Z0.64 F2400
G1 X-17.0965 Y25.2 Z0.64 F2400
G1 X-17.232 Y25.2 Z0.64 F2400
G1 X-17.4435 Y25.2 Z0.64 F2400
G1 X-17.5077 Y25.2 Z0.64 F2400
G1 X-17.6469 Y25.2 Z0.64 F2400
G1 X-17.68 Y25.2 Z0.64 F2400
G1 X-17.7806 Y25.2 Z0.64 F2400
G1 X-17.7979 Y25.2 Z0.64 F2400
G1 X-17.8751 Y25.2 Z0.64 F2400
G1 X-17.8836 Y25.2 Z0.64 F2400
G1 X-17.9455 Y25.2 Z0.64 F2400
G1 X-17.9488 Y25.2 Z0.64 F2400
G1 X-18.2 Y25.2 Z0.64 F2400
G1 X-18.2 Y24.7585 Z0.64 F2400
M108 R35  (snort)
M102
G1 X-18.2 Y24.6585 Z0.64 F2400
M103

(  path 1/2, 60 points,  )
G1 X-21.1 Y29.8 Z0.64 F2400
M108 R35 (squirt)
M101
G1 X-21 Y29.8 Z0.64 F2400
M108 R2.8 (good to go)
G1 X-9 Y29.8 Z0.64 F2400
G1 X9 Y29.8 Z0.64 F2400
G1 X23.08 Y29.8 Z0.64 F2400
G1 X24.8 Y29.8 Z0.64 F2400
G1 X24.8 Y29.6903 Z0.64 F2400
G1 X24.8 Y29.6571 Z0.64 F2400
G1 X24.8 Y29.5429 Z0.64 F2400
G1 X24.8 Y29.488 Z0.64 F2400
G1 X24.8 Y29.2727 Z0.64 F2400
G1 X24.8 Y29.1273 Z0.64 F2400
G1 X24.8 Y28.9895 Z0.64 F2400
G1 X24.8 Y28.8211 Z0.64 F2400
G1 X24.8 Y28.6 Z0.64 F2400
G1 X24.8 Y28.0308 Z0.64 F2400
G1 X24.8 Y27.7846 Z0.64 F2400
G1 X24.8 Y27.12 Z0.64 F2400
G1 X24.8 Y26.8 Z0.64 F2400
G1 X24.8 Y25.4286 Z0.64 F2400
G1 X24.8 Y21.2 Z0.64 F2400
G1 X24.8 Y-29.2 Z0.64 F2400
G1 X24.8 Y-29.8 Z0.64 F2400
G1 X24.52 Y-29.8 Z0.64 F2400
G1 X23.08 Y-29.8 Z0.64 F2400
G1 X5.08 Y-29.8 Z0.64 F2400
G1 X-9 Y-29.8 Z0.64 F2400
G1 X-24.8 Y-29.8 Z0.64 F2400
G1 X-24.8 Y20.4 Z0.64 F2400
G1 X-24.8 Y21.2 Z0.64 F2400
G1 X-24.8 Y24.9714 Z0.64 F2400
G1 X-24.8 Y25.4286 Z0.64 F2400
G1 X-24.8 Y27.12 Z0.64 F2400
G1 X-24.8 Y28.0308 Z0.64 F2400
G1 X-24.8 Y28.4 Z0.64 F2400
G1 X-24.8 Y28.6 Z0.64 F2400
G1 X-24.8 Y28.8211 Z0.64 F2400
G1 X-24.8 Y28.9895 Z0.64 F2400
G1 X-24.8 Y29.2727 Z0.64 F2400
G1 X-24.8 Y29.36 Z0.64 F2400
G1 X-24.8 Y29.488 Z0.64 F2400
G1 X-24.8 Y29.5429 Z0.64 F2400
G1 X-24.8 Y29.6571 Z0.64 F2400
G1 X-24.8 Y29.8 Z0.64 F2400
G1 X-24.7943 Y29.8 Z0.64 F2400
G1 X-24.7696 Y29.8 Z0.64 F2400
G1 X-24.7184 Y29.8 Z0.64 F2400
G1 X-24.68 Y29.8 Z0.64 F2400
G1 X-24.6218 Y29.8 Z0.64 F2400
G1 X-24.5621 Y29.8 Z0.64 F2400
G1 X-24.4947 Y29.8 Z0.64 F2400
G1 X-24.4 Y29.8 Z0.64 F2400
G1 X-24.32 Y29.8 Z0.64 F2400
G1 X-24.1631 Y29.8 Z0.64 F2400
G1 X-24.0646 Y29.8 Z0.64 F2400
G1 X-23.784 Y29.8 Z0.64 F2400
G1 X-23.656 Y29.8 Z0.64 F2400
G1 X-23.08 Y29.8 Z0.64 F2400
G1 X-22.8971 Y29.8 Z0.64 F2400
G1 X-21.32 Y29.8 Z0.64 F2400
G1 X-21 Y29.8 Z0.64 F2400
M108 R35  (snort)
M102
G1 X-20.9 Y29.8 Z0.64 F2400
M103

(  path 0/110, 2 points,  )
G1 X22.6 Y29.7555 Z0.64 F2400
M108 R35 (squirt)
M101
G1 X22.5 Y29.7555 Z0.64 F2400
M108 R2.8 (good to go)
G1 X-22.5 Y29.7555 Z0.64 F2400
M108 R35  (snort)
M102
G1 X-22.6 Y29.7555 Z0.64 F2400
M103

(  path 1/110, 2 points,  )
G1 X-22.6 Y28.7555 Z0.64 F2400
M108 R35 (squirt)
M101
G1 X-22.5 Y28.7555 Z0.64 F2400
M108 R2.8 (good to go)
G1 X22.5 Y28.7555 Z0.64 F2400
M108 R35  (snort)
M102
G1 X22.6 Y28.7555 Z0.64 F2400
M103

(  path 2/110, 2 points,  )
G1 X22.6 Y27.7555 Z0.64 F2400
M108 R35 (squirt)
M101
G1 X22.5 Y27.7555 Z0.64 F2400
M108 R2.8 (good to go)
G1 X-22.5 Y27.7555 Z0.64 F2400
M108 R35  (snort)
M102
G1 X-22.6 Y27.7555 Z0.64 F2400
M103

(  path 3/110, 2 points,  )
G1 X-22.6 Y26.7555 Z0.64 F2400
M108 R35 (squirt)
M101
G1 X-22.5 Y26.7555 Z0.64 F2400
M108 R2.8 (good to go)
G1 X22.5 Y26.7555 Z0.64 F2400
M108 R35  (snort)
M102
G1 X22.6 Y26.7555 Z0.64 F2400
M103

(  path 4/110, 2 points,  )
G1 X22.6 Y25.7555 Z0.64 F2400
M108 R35 (squirt)
M101
G1 X22.5 Y25.7555 Z0.64 F2400
M108 R2.8 (good to go)
G1 X-22.5 Y25.7555 Z0.64 F2400
M108 R35  (snort)
M102
G1 X-22.6 Y25.7555 Z0.64 F2400
M103

(  path 5/110, 2 points,  )
G1 X-22.6 Y24.7555 Z0.64 F2400
M108 R35 (squirt)
M101
G1 X-22.5 Y24.7555 Z0.64 F2400
M108 R2.8 (good to go)
G1 X-20.5 Y24.7555 Z0.64 F2400
M108 R35  (snort)
M102
G1 X-20.4 Y24.7555 Z0.64 F2400
M103

(  path 6/110, 2 points,  )
G1 X19.4 Y24.7555 Z0.64 F2400
M108 R35 (squirt)
M101
G1 X19.5 Y24.7555 Z0.64 F2400
M108 R2.8 (good to go)
G1 X22.5 Y24.7555 Z0.64 F2400
M108 R35  (snort)
M102
G1 X22.6 Y24.7555 Z0.64 F2400
M103

(  path 7/110, 2 points,  )
G1 X22.6 Y23.7555 Z0.64 F2400
M108 R35 (squirt)
M101
G1 X22.5 Y23.7555 Z0.64 F2400
M108 R2.8 (good to go)
G1 X19.5 Y23.7555 Z0.64 F2400
M108 R35  (snort)
M102
G1 X19.4 Y23.7555 Z0.64 F2400
M103

(  path 8/110, 2 points,  )
G1 X-20.4 Y23.7555 Z0.64 F2400
M108 R35 (squirt)
M101
G1 X-20.5 Y23.7555 Z0.64 F2400
M108 R2.8 (good to go)
G1 X-22.5 Y23.7555 Z0.64 F2400
M108 R35  (snort)
M102
G1 X-22.6 Y23.7555 Z0.64 F2400
M103

(  path 9/110, 2 points,  )
G1 X-22.6 Y22.7555 Z0.64 F2400
M108 R35 (squirt)
M101
G1 X-22.5 Y22.7555 Z0.64 F2400
M108 R2.8 (good to go)
G1 X-20.5 Y22.7555 Z0.64 F2400
M108 R35  (snort)
M102
G1 X-20.4 Y22.7555 Z0.64 F2400
M103

(  path 10/110, 2 points,  )
G1 X19.4 Y22.7555 Z0.64 F2400
M108 R35 (squirt)
M101
G1 X19.5 Y22.7555 Z0.64 F2400
M108 R2.8 (good to go)
G1 X22.5 Y22.7555 Z0.64 F2400
M108 R35  (snort)
M102
G1 X22.6 Y22.7555 Z0.64 F2400
M103

(  path 11/110, 2 points,  )
G1 X22.6 Y21.7555 Z0.64 F2400
M108 R35 (squirt)
M101
G1 X22.5 Y21.7555 Z0.64 F2400
M108 R2.8 (good to go)
G1 X19.5 Y21.7555 Z0.64 F2400
M108 R35  (snort)
M102
G1 X19.4 Y21.7555 Z0.64 F2400
M103

(  path 12/110, 2 points,  )
G1 X-20.4 Y21.7555 Z0.64 F2400
M108 R35 (squirt)
M101
G1 X-20.5 Y21.7555 Z0.64 F2400
M108 R2.8 (good to go)
G1 X-22.5 Y21.7555 Z0.64 F2400
M108 R35  (snort)
M102
G1 X-22.6 Y21.7555 Z0.64 F2400
M103

(  path 13/110, 2 points,  )
G1 X-22.6 Y20.7555 Z0.64 F2400
M108 R35 (squirt)
M101
G1 X-22.5 Y20.7555 Z0.64 F2400
M108 R2.8 (good to go)
G1 X-20.5 Y20.7555 Z0.64 F2400
M108 R35  (snort)
M102
G1 X-20.4 Y20.7555 Z0.64 F2400
M103

(  path 14/110, 2 points,  )
G1 X19.4 Y20.7555 Z0.64 F2400
M108 R35 (squirt)
M101
G1 X19.5 Y20.7555 Z0.64 F2400
M108 R2.8 (good to go)
G1 X22.5 Y20.7555 Z0.64 F2400
M108 R35  (snort)
M102
G1 X22.6 Y20.7555 Z0.64 F2400
M103

(  path 15/110, 2 points,  )
G1 X22.6 Y19.7555 Z0.64 F2400
M108 R35 (squirt)
M101
G1 X22.5 Y19.7555 Z0.64 F2400
M108 R2.8 (good to go)
G1 X19.5 Y19.7555 Z0.64 F2400
M108 R35  (snort)
M102
G1 X19.4 Y19.7555 Z0.64 F2400
M103

(  path 16/110, 2 points,  )
G1 X-20.4 Y19.7555 Z0.64 F2400
M108 R35 (squirt)
M101
G1 X-20.5 Y19.7555 Z0.64 F2400
M108 R2.8 (good to go)
G1 X-22.5 Y19.7555 Z0.64 F2400
M108 R35  (snort)
M102
G1 X-22.6 Y19.7555 Z0.64 F2400
M103

(  path 17/110, 2 points,  )
G1 X-22.6 Y18.7555 Z0.64 F2400
M108 R35 (squirt)
M101
G1 X-22.5 Y18.7555 Z0.64 F2400
M108 R2.8 (good to go)
G1 X-20.5 Y18.7555 Z0.64 F2400
M108 R35  (snort)
M102
G1 X-20.4 Y18.7555 Z0.64 F2400
M103

(  path 18/110, 2 points,  )
G1 X19.4 Y18.7555 Z0.64 F2400
M108 R35 (squirt)
M101
G1 X19.5 Y18.7555 Z0.64 F2400
M108 R2.8 (good to go)
G1 X22.5 Y18.7555 Z0.64 F2400
M108 R35  (snort)
M102
G1 X22.6 Y18.7555 Z0.64 F2400
M103

(  path 19/110, 2 points,  )
G1 X22.6 Y17.7555 Z0.64 F2400
M108 R35 (squirt)
M101
G1 X22.5 Y17.7555 Z0.64 F2400
M108 R2.8 (good to go)
G1 X19.5 Y17.7555 Z0.64 F2400
M108 R35  (snort)
M102
G1 X19.4 Y17.7555 Z0.64 F2400
M103

(  path 20/110, 2 points,  )
G1 X-20.4 Y17.7555 Z0.64 F2400
M108 R35 (squirt)
M101
G1 X-20.5 Y17.7555 Z0.64 F2400
M108 R2.8 (good to go)
G1 X-22.5 Y17.7555 Z0.64 F2400
M108 R35  (snort)
M102
G1 X-22.6 Y17.7555 Z0.64 F2400
M103

(  path 21/110, 2 points,  )
G1 X-22.6 Y16.7555 Z0.64 F2400
M108 R35 (squirt)
M101
G1 X-22.5 Y16.7555 Z0.64 F2400
M108 R2.8 (good to go)
G1 X-20.5 Y16.7555 Z0.64 F2400
M108 R35  (snort)
M102
G1 X-20.4 Y16.7555 Z0.64 F2400
M103

(  path 22/110, 2 points,  )
G1 X19.4 Y16.7555 Z0.64 F2400
M108 R35 (squirt)
M101
G1 X19.5 Y16.7555 Z0.64 F2400
M108 R2.8 (good to go)
G1 X22.5 Y16.7555 Z0.64 F2400
M108 R35  (snort)
M102
G1 X22.6 Y16.7555 Z0.64 F2400
M103

(  path 23/110, 2 points,  )
G1 X22.6 Y15.7555 Z0.64 F2400
M108 R35 (squirt)
M101
G1 X22.5 Y15.7555 Z0.64 F2400
M108 R2.8 (good to go)
G1 X19.5 Y15.7555 Z0.64 F2400
M108 R35  (snort)
M102
G1 X19.4 Y15.7555 Z0.64 F2400
M103

(  path 24/110, 2 points,  )
G1 X-20.4 Y15.7555 Z0.64 F2400
M108 R35 (squirt)
M101
G1 X-20.5 Y15.7555 Z0.64 F2400
M108 R2.8 (good to go)
G1 X-22.5 Y15.7555 Z0.64 F2400
M108 R35  (snort)
M102
G1 X-22.6 Y15.7555 Z0.64 F2400
M103

(  path 25/110, 2 points,  )
G1 X-22.6 Y14.7555 Z0.64 F2400
M108 R35 (squirt)
M101
G1 X-22.5 Y14.7555 Z0.64 F2400
M108 R2.8 (good to go)
G1 X-18.5 Y14.7555 Z0.64 F2400
M108 R35  (snort)
M102
G1 X-18.4 Y14.7555 Z0.64 F2400
M103

(  path 26/110, 2 points,  )
G1 X19.4 Y14.7555 Z0.64 F2400
M108 R35 (squirt)
M101
G1 X19.5 Y14.7555 Z0.64 F2400
M108 R2.8 (good to go)
G1 X22.5 Y14.7555 Z0.64 F2400
M108 R35  (snort)
M102
G1 X22.6 Y14.7555 Z0.64 F2400
M103

(  path 27/110, 2 points,  )
G1 X22.6 Y13.7555 Z0.64 F2400
M108 R35 (squirt)
M101
G1 X22.5 Y13.7555 Z0.64 F2400
M108 R2.8 (good to go)
G1 X19.5 Y13.7555 Z0.64 F2400
M108 R35  (snort)
M102
G1 X19.4 Y13.7555 Z0.64 F2400
M103

(  path 28/110, 2 points,  )
G1 X-18.4 Y13.7555 Z0.64 F2400
M108 R35 (squirt)
M101
G1 X-18.5 Y13.7555 Z0.64 F2400
M108 R2.8 (good to go)
G1 X-22.5 Y13.7555 Z0.64 F2400
M108 R35  (snort)
M102
G1 X-22.6 Y13.7555 Z0.64 F2400
M103

(  path 29/110, 2 points,  )
G1 X-22.6 Y12.7555 Z0.64 F2400
M108 R35 (squirt)
M101
G1 X-22.5 Y12.7555 Z0.64 F2400
M108 R2.8 (good to go)
G1 X-18.5 Y12.7555 Z0.64 F2400
M108 R35  (snort)
M102
G1 X-18.4 Y12.7555 Z0.64 F2400
M103

(  path 30/110, 2 points,  )
G1 X19.4 Y12.7555 Z0.64 F2400
M108 R35 (squirt)
M101
G1 X19.5 Y12.7555 Z0.64 F2400
M108 R2.8 (good to go)
G1 X22.5 Y12.7555 Z0.64 F2400
M108 R35  (snort)
M102
G1 X22.6 Y12.7555 Z0.64 F2400
M103

(  path 31/110, 2 points,  )
G1 X22.6 Y11.7555 Z0.64 F2400
M108 R35 (squirt)
M101
G1 X22.5 Y11.7555 Z0.64 F2400
M108 R2.8 (good to go)
G1 X19.5 Y11.7555 Z0.64 F2400
M108 R35  (snort)
M102
G1 X19.4 Y11.7555 Z0.64 F2400
M103

(  path 32/110, 2 points,  )
G1 X-18.4 Y11.7555 Z0.64 F2400
M108 R35 (squirt)
M101
G1 X-18.5 Y11.7555 Z0.64 F2400
M108 R2.8 (good to go)
G1 X-22.5 Y11.7555 Z0.64 F2400
M108 R35  (snort)
M102
G1 X-22.6 Y11.7555 Z0.64 F2400
M103

(  path 33/110, 2 points,  )
G1 X-22.6 Y10.7555 Z0.64 F2400
M108 R35 (squirt)
M101
G1 X-22.5 Y10.7555 Z0.64 F2400
M108 R2.8 (good to go)
G1 X-18.5 Y10.7555 Z0.64 F2400
M108 R35  (snort)
M102
G1 X-18.4 Y10.7555 Z0.64 F2400
M103

(  path 34/110, 2 points,  )
G1 X19.4 Y10.7555 Z0.64 F2400
M108 R35 (squirt)
M101
G1 X19.5 Y10.7555 Z0.64 F2400
M108 R2.8 (good to go)
G1 X22.5 Y10.7555 Z0.64 F2400
M108 R35  (snort)
M102
G1 X22.6 Y10.7555 Z0.64 F2400
M103

(  path 35/110, 2 points,  )
G1 X22.6 Y9.7555 Z0.64 F2400
M108 R35 (squirt)
M101
G1 X22.5 Y9.7555 Z0.64 F2400
M108 R2.8 (good to go)
G1 X19.5 Y9.7555 Z0.64 F2400
M108 R35  (snort)
M102
G1 X19.4 Y9.7555 Z0.64 F2400
M103

(  path 36/110, 2 points,  )
G1 X-16.4 Y9.7555 Z0.64 F2400
M108 R35 (squirt)
M101
G1 X-16.5 Y9.7555 Z0.64 F2400
M108 R2.8 (good to go)
G1 X-22.5 Y9.7555 Z0.64 F2400
M108 R35  (snort)
M102
G1 X-22.6 Y9.7555 Z0.64 F2400
M103

(  path 37/110, 2 points,  )
G1 X-22.6 Y8.7555 Z0.64 F2400
M108 R35 (squirt)
M101
G1 X-22.5 Y8.7555 Z0.64 F2400
M108 R2.8 (good to go)
G1 X-16.5 Y8.7555 Z0.64 F2400
M108 R35  (snort)
M102
G1 X-16.4 Y8.7555 Z0.64 F2400
M103

(  path 38/110, 2 points,  )
G1 X19.4 Y8.7555 Z0.64 F2400
M108 R35 (squirt)
M101
G1 X19.5 Y8.7555 Z0.64 F2400
M108 R2.8 (good to go)
G1 X22.5 Y8.7555 Z0.64 F2400
M108 R35  (snort)
M102
G1 X22.6 Y8.7555 Z0.64 F2400
M103

(  path 39/110, 2 points,  )
G1 X22.6 Y7.7555 Z0.64 F2400
M108 R35 (squirt)
M101
G1 X22.5 Y7.7555 Z0.64 F2400
M108 R2.8 (good to go)
G1 X19.5 Y7.7555 Z0.64 F2400
M108 R35  (snort)
M102
G1 X19.4 Y7.7555 Z0.64 F2400
M103

(  path 40/110, 2 points,  )
G1 X-16.4 Y7.7555 Z0.64 F2400
M108 R35 (squirt)
M101
G1 X-16.5 Y7.7555 Z0.64 F2400
M108 R2.8 (good to go)
G1 X-22.5 Y7.7555 Z0.64 F2400
M108 R35  (snort)
M102
G1 X-22.6 Y7.7555 Z0.64 F2400
M103

(  path 41/110, 2 points,  )
G1 X-22.6 Y6.7555 Z0.64 F2400
M108 R35 (squirt)
M101
G1 X-22.5 Y6.7555 Z0.64 F2400
M108 R2.8 (good to go)
G1 X-16.5 Y6.7555 Z0.64 F2400
M108 R35  (snort)
M102
G1 X-16.4 Y6.7555 Z0.64 F2400
M103

(  path 42/110, 2 points,  )
G1 X19.4 Y6.7555 Z0.64 F2400
M108 R35 (squirt)
M101
G1 X19.5 Y6.7555 Z0.64 F2400
M108 R2.8 (good to go)
G1 X22.5 Y6.7555 Z0.64 F2400
M108 R35  (snort)
M102
G1 X22.6 Y6.7555 Z0.64 F2400
M103

(  path 43/110, 2 points,  )
G1 X22.6 Y5.7555 Z0.64 F2400
M108 R35 (squirt)
M101
G1 X22.5 Y5.7555 Z0.64 F2400
M108 R2.8 (good to go)
G1 X19.5 Y5.7555 Z0.64 F2400
M108 R35  (snort)
M102
G1 X19.4 Y5.7555 Z0.64 F2400
M103

(  path 44/110, 2 points,  )
G1 X-16.4 Y5.7555 Z0.64 F2400
M108 R35 (squirt)
M101
G1 X-16.5 Y5.7555 Z0.64 F2400
M108 R2.8 (good to go)
G1 X-22.5 Y5.7555 Z0.64 F2400
M108 R35  (snort)
M102
G1 X-22.6 Y5.7555 Z0.64 F2400
M103

(  path 45/110, 2 points,  )
G1 X-22.6 Y4.7555 Z0.64 F2400
M108 R35 (squirt)
M101
G1 X-22.5 Y4.7555 Z0.64 F2400
M108 R2.8 (good to go)
G1 X-14.5 Y4.7555 Z0.64 F2400
M108 R35  (snort)
M102
G1 X-14.4 Y4.7555 Z0.64 F2400
M103

(  path 46/110, 2 points,  )
G1 X19.4 Y4.7555 Z0.64 F2400
M108 R35 (squirt)
M101
G1 X19.5 Y4.7555 Z0.64 F2400
M108 R2.8 (good to go)
G1 X22.5 Y4.7555 Z0.64 F2400
M108 R35  (snort)
M102
G1 X22.6 Y4.7555 Z0.64 F2400
M103

(  path 47/110, 2 points,  )
G1 X22.6 Y3.7555 Z0.64 F2400
M108 R35 (squirt)
M101
G1 X22.5 Y3.7555 Z0.64 F2400
M108 R2.8 (good to go)
G1 X19.5 Y3.7555 Z0.64 F2400
M108 R35  (snort)
M102
G1 X19.4 Y3.7555 Z0.64 F2400
M103

(  path 48/110, 2 points,  )
G1 X-14.4 Y3.7555 Z0.64 F2400
M108 R35 (squirt)
M101
G1 X-14.5 Y3.7555 Z0.64 F2400
M108 R2.8 (good to go)
G1 X-22.5 Y3.7555 Z0.64 F2400
M108 R35  (snort)
M102
G1 X-22.6 Y3.7555 Z0.64 F2400
M103

(  path 49/110, 2 points,  )
G1 X-22.6 Y2.7555 Z0.64 F2400
M108 R35 (squirt)
M101
G1 X-22.5 Y2.7555 Z0.64 F2400
M108 R2.8 (good to go)
G1 X-14.5 Y2.7555 Z0.64 F2400
M108 R35  (snort)
M102
G1 X-14.4 Y2.7555 Z0.64 F2400
M103

(  path 50/110, 2 points,  )
G1 X19.4 Y2.7555 Z0.64 F2400
M108 R35 (squirt)
M101
G1 X19.5 Y2.7555 Z0.64 F2400
M108 R2.8 (good to go)
G1 X22.5 Y2.7555 Z0.64 F2400
M108 R35  (snort)
M102
G1 X22.6 Y2.7555 Z0.64 F2400
M103

(  path 51/110, 2 points,  )
G1 X22.6 Y1.7555 Z0.64 F2400
M108 R35 (squirt)
M101
G1 X22.5 Y1.7555 Z0.64 F2400
M108 R2.8 (good to go)
G1 X19.5 Y1.7555 Z0.64 F2400
M108 R35  (snort)
M102
G1 X19.4 Y1.7555 Z0.64 F2400
M103

(  path 52/110, 2 points,  )
G1 X-14.4 Y1.7555 Z0.64 F2400
M108 R35 (squirt)
M101
G1 X-14.5 Y1.7555 Z0.64 F2400
M108 R2.8 (good to go)
G1 X-22.5 Y1.7555 Z0.64 F2400
M108 R35  (snort)
M102
G1 X-22.6 Y1.7555 Z0.64 F2400
M103

(  path 53/110, 2 points,  )
G1 X-22.6 Y0.755503 Z0.64 F2400
M108 R35 (squirt)
M101
G1 X-22.5 Y0.755503 Z0.64 F2400
M108 R2.8 (good to go)
G1 X-14.5 Y0.755503 Z0.64 F2400
M108 R35  (snort)
M102
G1 X-14.4 Y0.755503 Z0.64 F2400
M103

(  path 54/110, 2 points,  )
G1 X19.4 Y0.755503 Z0.64 F2400
M108 R35 (squirt)
M101
G1 X19.5 Y0.755503 Z0.64 F2400
M108 R2.8 (good to go)
G1 X22.5 Y0.755503 Z0.64 F2400
M108 R35  (snort)
M102
G1 X22.6 Y0.755503 Z0.64 F2400
M103

(  path 55/110, 2 points,  )
G1 X22.6 Y-0.244497 Z0.64 F2400
M108 R35 (squirt)
M101
G1 X22.5 Y-0.244497 Z0.64 F2400
M108 R2.8 (good to go)
G1 X19.5 Y-0.244497 Z0.64 F2400
M108 R35  (snort)
M102
G1 X19.4 Y-0.244497 Z0.64 F2400
M103

(  path 56/110, 2 points,  )
G1 X-12.4 Y-0.244497 Z0.64 F2400
M108 R35 (squirt)
M101
G1 X-12.5 Y-0.244497 Z0.64 F2400
M108 R2.8 (good to go)
G1 X-22.5 Y-0.244497 Z0.64 F2400
M108 R35  (snort)
M102
G1 X-22.6 Y-0.244497 Z0.64 F2400
M103

(  path 57/110, 2 points,  )
G1 X-22.6 Y-1.2445 Z0.64 F2400
M108 R35 (squirt)
M101
G1 X-22.5 Y-1.2445 Z0.64 F2400
M108 R2.8 (good to go)
G1 X-12.5 Y-1.2445 Z0.64 F2400
M108 R35  (snort)
M102
G1 X-12.4 Y-1.2445 Z0.64 F2400
M103

(  path 58/110, 2 points,  )
G1 X19.4 Y-1.2445 Z0.64 F2400
M108 R35 (squirt)
M101
G1 X19.5 Y-1.2445 Z0.64 F2400
M108 R2.8 (good to go)
G1 X22.5 Y-1.2445 Z0.64 F2400
M108 R35  (snort)
M102
G1 X22.6 Y-1.2445 Z0.64 F2400
M103

(  path 59/110, 2 points,  )
G1 X22.6 Y-2.2445 Z0.64 F2400
M108 R35 (squirt)
M101
G1 X22.5 Y-2.2445 Z0.64 F2400
M108 R2.8 (good to go)
G1 X19.5 Y-2.2445 Z0.64 F2400
M108 R35  (snort)
M102
G1 X19.4 Y-2.2445 Z0.64 F2400
M103

(  path 60/110, 2 points,  )
G1 X-12.4 Y-2.2445 Z0.64 F2400
M108 R35 (squirt)
M101
G1 X-12.5 Y-2.2445 Z0.64 F2400
M108 R2.8 (good to go)
G1 X-22.5 Y-2.2445 Z0.64 F2400
M108 R35  (snort)
M102
G1 X-22.6 Y-2.2445 Z0.64 F2400
M103

(  path 61/110, 2 points,  )
G1 X-22.6 Y-3.2445 Z0.64 F2400
M108 R35 (squirt)
M101
G1 X-22.5 Y-3.2445 Z0.64 F2400
M108 R2.8 (good to go)
G1 X-12.5 Y-3.2445 Z0.64 F2400
M108 R35  (snort)
M102
G1 X-12.4 Y-3.2445 Z0.64 F2400
M103

(  path 62/110, 2 points,  )
G1 X19.4 Y-3.2445 Z0.64 F2400
M108 R35 (squirt)
M101
G1 X19.5 Y-3.2445 Z0.64 F2400
M108 R2.8 (good to go)
G1 X22.5 Y-3.2445 Z0.64 F2400
M108 R35  (snort)
M102
G1 X22.6 Y-3.2445 Z0.64 F2400
M103

(  path 63/110, 2 points,  )
G1 X22.6 Y-4.2445 Z0.64 F2400
M108 R35 (squirt)
M101
G1 X22.5 Y-4.2445 Z0.64 F2400
M108 R2.8 (good to go)
G1 X19.5 Y-4.2445 Z0.64 F2400
M108 R35  (snort)
M102
G1 X19.4 Y-4.2445 Z0.64 F2400
M103

(  path 64/110, 2 points,  )
G1 X-12.4 Y-4.2445 Z0.64 F2400
M108 R35 (squirt)
M101
G1 X-12.5 Y-4.2445 Z0.64 F2400
M108 R2.8 (good to go)
G1 X-22.5 Y-4.2445 Z0.64 F2400
M108 R35  (snort)
M102
G1 X-22.6 Y-4.2445 Z0.64 F2400
M103

(  path 65/110, 2 points,  )
G1 X-22.6 Y-5.2445 Z0.64 F2400
M108 R35 (squirt)
M101
G1 X-22.5 Y-5.2445 Z0.64 F2400
M108 R2.8 (good to go)
G1 X-10.5 Y-5.2445 Z0.64 F2400
M108 R35  (snort)
M102
G1 X-10.4 Y-5.2445 Z0.64 F2400
M103

(  path 66/110, 2 points,  )
G1 X19.4 Y-5.2445 Z0.64 F2400
M108 R35 (squirt)
M101
G1 X19.5 Y-5.2445 Z0.64 F2400
M108 R2.8 (good to go)
G1 X22.5 Y-5.2445 Z0.64 F2400
M108 R35  (snort)
M102
G1 X22.6 Y-5.2445 Z0.64 F2400
M103

(  path 67/110, 2 points,  )
G1 X22.6 Y-6.2445 Z0.64 F2400
M108 R35 (squirt)
M101
G1 X22.5 Y-6.2445 Z0.64 F2400
M108 R2.8 (good to go)
G1 X19.5 Y-6.2445 Z0.64 F2400
M108 R35  (snort)
M102
G1 X19.4 Y-6.2445 Z0.64 F2400
M103

(  path 68/110, 2 points,  )
G1 X-10.4 Y-6.2445 Z0.64 F2400
M108 R35 (squirt)
M101
G1 X-10.5 Y-6.2445 Z0.64 F2400
M108 R2.8 (good to go)
G1 X-22.5 Y-6.2445 Z0.64 F2400
M108 R35  (snort)
M102
G1 X-22.6 Y-6.2445 Z0.64 F2400
M103

(  path 69/110, 2 points,  )
G1 X-22.6 Y-7.2445 Z0.64 F2400
M108 R35 (squirt)
M101
G1 X-22.5 Y-7.2445 Z0.64 F2400
M108 R2.8 (good to go)
G1 X-10.5 Y-7.2445 Z0.64 F2400
M108 R35  (snort)
M102
G1 X-10.4 Y-7.2445 Z0.64 F2400
M103

(  path 70/110, 2 points,  )
G1 X19.4 Y-7.2445 Z0.64 F2400
M108 R35 (squirt)
M101
G1 X19.5 Y-7.2445 Z0.64 F2400
M108 R2.8 (good to go)
G1 X22.5 Y-7.2445 Z0.64 F2400
M108 R35  (snort)
M102
G1 X22.6 Y-7.2445 Z0.64 F2400
M103

(  path 71/110, 2 points,  )
G1 X22.6 Y-8.2445 Z0.64 F2400
M108 R35 (squirt)
M101
G1 X22.5 Y-8.2445 Z0.64 F2400
M108 R2.8 (good to go)
G1 X19.5 Y-8.2445 Z0.64 F2400
M108 R35  (snort)
M102
G1 X19.4 Y-8.2445 Z0.64 F2400
M103

(  path 72/110, 2 points,  )
G1 X-10.4 Y-8.2445 Z0.64 F2400
M108 R35 (squirt)
M101
G1 X-10.5 Y-8.2445 Z0.64 F2400
M108 R2.8 (good to go)
G1 X-22.5 Y-8.2445 Z0.64 F2400
M108 R35  (snort)
M102
G1 X-22.6 Y-8.2445 Z0.64 F2400
M103

(  path 73/110, 2 points,  )
G1 X-22.6 Y-9.2445 Z0.64 F2400
M108 R35 (squirt)
M101
G1 X-22.5 Y-9.2445 Z0.64 F2400
M108 R2.8 (good to go)
G1 X-10.5 Y-9.2445 Z0.64 F2400
M108 R35  (snort)
M102
G1 X-10.4 Y-9.2445 Z0.64 F2400
M103

(  path 74/110, 2 points,  )
G1 X19.4 Y-9.2445 Z0.64 F2400
M108 R35 (squirt)
M101
G1 X19.5 Y-9.2445 Z0.64 F2400
M108 R2.8 (good to go)
G1 X22.5 Y-9.2445 Z0.64 F2400
M108 R35  (snort)
M102
G1 X22.6 Y-9.2445 Z0.64 F2400
M103

(  path 75/110, 2 points,  )
G1 X22.6 Y-10.2445 Z0.64 F2400
M108 R35 (squirt)
M101
G1 X22.5 Y-10.2445 Z0.64 F2400
M108 R2.8 (good to go)
G1 X19.5 Y-10.2445 Z0.64 F2400
M108 R35  (snort)
M102
G1 X19.4 Y-10.2445 Z0.64 F2400
M103

(  path 76/110, 2 points,  )
G1 X-8.4 Y-10.2445 Z0.64 F2400
M108 R35 (squirt)
M101
G1 X-8.5 Y-10.2445 Z0.64 F2400
M108 R2.8 (good to go)
G1 X-22.5 Y-10.2445 Z0.64 F2400
M108 R35  (snort)
M102
G1 X-22.6 Y-10.2445 Z0.64 F2400
M103

(  path 77/110, 2 points,  )
G1 X-22.6 Y-11.2445 Z0.64 F2400
M108 R35 (squirt)
M101
G1 X-22.5 Y-11.2445 Z0.64 F2400
M108 R2.8 (good to go)
G1 X-8.5 Y-11.2445 Z0.64 F2400
M108 R35  (snort)
M102
G1 X-8.4 Y-11.2445 Z0.64 F2400
M103

(  path 78/110, 2 points,  )
G1 X19.4 Y-11.2445 Z0.64 F2400
M108 R35 (squirt)
M101
G1 X19.5 Y-11.2445 Z0.64 F2400
M108 R2.8 (good to go)
G1 X22.5 Y-11.2445 Z0.64 F2400
M108 R35  (snort)
M102
G1 X22.6 Y-11.2445 Z0.64 F2400
M103

(  path 79/110, 2 points,  )
G1 X22.6 Y-12.2445 Z0.64 F2400
M108 R35 (squirt)
M101
G1 X22.5 Y-12.2445 Z0.64 F2400
M108 R2.8 (good to go)
G1 X19.5 Y-12.2445 Z0.64 F2400
M108 R35  (snort)
M102
G1 X19.4 Y-12.2445 Z0.64 F2400
M103

(  path 80/110, 2 points,  )
G1 X-8.4 Y-12.2445 Z0.64 F2400
M108 R35 (squirt)
M101
G1 X-8.5 Y-12.2445 Z0.64 F2400
M108 R2.8 (good to go)
G1 X-22.5 Y-12.2445 Z0.64 F2400
M108 R35  (snort)
M102
G1 X-22.6 Y-12.2445 Z0.64 F2400
M103

(  path 81/110, 2 points,  )
G1 X-22.6 Y-13.2445 Z0.64 F2400
M108 R35 (squirt)
M101
G1 X-22.5 Y-13.2445 Z0.64 F2400
M108 R2.8 (good to go)
G1 X-8.5 Y-13.2445 Z0.64 F2400
M108 R35  (snort)
M102
G1 X-8.4 Y-13.2445 Z0.64 F2400
M103

(  path 82/110, 2 points,  )
G1 X19.4 Y-13.2445 Z0.64 F2400
M108 R35 (squirt)
M101
G1 X19.5 Y-13.2445 Z0.64 F2400
M108 R2.8 (good to go)
G1 X22.5 Y-13.2445 Z0.64 F2400
M108 R35  (snort)
M102
G1 X22.6 Y-13.2445 Z0.64 F2400
M103

(  path 83/110, 2 points,  )
G1 X22.6 Y-14.2445 Z0.64 F2400
M108 R35 (squirt)
M101
G1 X22.5 Y-14.2445 Z0.64 F2400
M108 R2.8 (good to go)
G1 X19.5 Y-14.2445 Z0.64 F2400
M108 R35  (snort)
M102
G1 X19.4 Y-14.2445 Z0.64 F2400
M103

(  path 84/110, 2 points,  )
G1 X-8.4 Y-14.2445 Z0.64 F2400
M108 R35 (squirt)
M101
G1 X-8.5 Y-14.2445 Z0.64 F2400
M108 R2.8 (good to go)
G1 X-22.5 Y-14.2445 Z0.64 F2400
M108 R35  (snort)
M102
G1 X-22.6 Y-14.2445 Z0.64 F2400
M103

(  path 85/110, 2 points,  )
G1 X-22.6 Y-15.2445 Z0.64 F2400
M108 R35 (squirt)
M101
G1 X-22.5 Y-15.2445 Z0.64 F2400
M108 R2.8 (good to go)
G1 X-6.5 Y-15.2445 Z0.64 F2400
M108 R35  (snort)
M102
G1 X-6.4 Y-15.2445 Z0.64 F2400
M103

(  path 86/110, 2 points,  )
G1 X19.4 Y-15.2445 Z0.64 F2400
M108 R35 (squirt)
M101
G1 X19.5 Y-15.2445 Z0.64 F2400
M108 R2.8 (good to go)
G1 X22.5 Y-15.2445 Z0.64 F2400
M108 R35  (snort)
M102
G1 X22.6 Y-15.2445 Z0.64 F2400
M103

(  path 87/110, 2 points,  )
G1 X22.6 Y-16.2445 Z0.64 F2400
M108 R35 (squirt)
M101
G1 X22.5 Y-16.2445 Z0.64 F2400
M108 R2.8 (good to go)
G1 X19.5 Y-16.2445 Z0.64 F2400
M108 R35  (snort)
M102
G1 X19.4 Y-16.2445 Z0.64 F2400
M103

(  path 88/110, 2 points,  )
G1 X-6.4 Y-16.2445 Z0.64 F2400
M108 R35 (squirt)
M101
G1 X-6.5 Y-16.2445 Z0.64 F2400
M108 R2.8 (good to go)
G1 X-22.5 Y-16.2445 Z0.64 F2400
M108 R35  (snort)
M102
G1 X-22.6 Y-16.2445 Z0.64 F2400
M103

(  path 89/110, 2 points,  )
G1 X-22.6 Y-17.2445 Z0.64 F2400
M108 R35 (squirt)
M101
G1 X-22.5 Y-17.2445 Z0.64 F2400
M108 R2.8 (good to go)
G1 X-6.5 Y-17.2445 Z0.64 F2400
M108 R35  (snort)
M102
G1 X-6.4 Y-17.2445 Z0.64 F2400
M103

(  path 90/110, 2 points,  )
G1 X19.4 Y-17.2445 Z0.64 F2400
M108 R35 (squirt)
M101
G1 X19.5 Y-17.2445 Z0.64 F2400
M108 R2.8 (good to go)
G1 X22.5 Y-17.2445 Z0.64 F2400
M108 R35  (snort)
M102
G1 X22.6 Y-17.2445 Z0.64 F2400
M103

(  path 91/110, 2 points,  )
G1 X22.6 Y-18.2445 Z0.64 F2400
M108 R35 (squirt)
M101
G1 X22.5 Y-18.2445 Z0.64 F2400
M108 R2.8 (good to go)
G1 X19.5 Y-18.2445 Z0.64 F2400
M108 R35  (snort)
M102
G1 X19.4 Y-18.2445 Z0.64 F2400
M103

(  path 92/110, 2 points,  )
G1 X-6.4 Y-18.2445 Z0.64 F2400
M108 R35 (squirt)
M101
G1 X-6.5 Y-18.2445 Z0.64 F2400
M108 R2.8 (good to go)
G1 X-22.5 Y-18.2445 Z0.64 F2400
M108 R35  (snort)
M102
G1 X-22.6 Y-18.2445 Z0.64 F2400
M103

(  path 93/110, 2 points,  )
G1 X-22.6 Y-19.2445 Z0.64 F2400
M108 R35 (squirt)
M101
G1 X-22.5 Y-19.2445 Z0.64 F2400
M108 R2.8 (good to go)
G1 X-6.5 Y-19.2445 Z0.64 F2400
M108 R35  (snort)
M102
G1 X-6.4 Y-19.2445 Z0.64 F2400
M103

(  path 94/110, 2 points,  )
G1 X19.4 Y-19.2445 Z0.64 F2400
M108 R35 (squirt)
M101
G1 X19.5 Y-19.2445 Z0.64 F2400
M108 R2.8 (good to go)
G1 X22.5 Y-19.2445 Z0.64 F2400
M108 R35  (snort)
M102
G1 X22.6 Y-19.2445 Z0.64 F2400
M103

(  path 95/110, 2 points,  )
G1 X22.6 Y-20.2445 Z0.64 F2400
M108 R35 (squirt)
M101
G1 X22.5 Y-20.2445 Z0.64 F2400
M108 R2.8 (good to go)
G1 X19.5 Y-20.2445 Z0.64 F2400
M108 R35  (snort)
M102
G1 X19.4 Y-20.2445 Z0.64 F2400
M103

(  path 96/110, 2 points,  )
G1 X-4.4 Y-20.2445 Z0.64 F2400
M108 R35 (squirt)
M101
G1 X-4.5 Y-20.2445 Z0.64 F2400
M108 R2.8 (good to go)
G1 X-22.5 Y-20.2445 Z0.64 F2400
M108 R35  (snort)
M102
G1 X-22.6 Y-20.2445 Z0.64 F2400
M103

(  path 97/110, 2 points,  )
G1 X-22.6 Y-21.2445 Z0.64 F2400
M108 R35 (squirt)
M101
G1 X-22.5 Y-21.2445 Z0.64 F2400
M108 R2.8 (good to go)
G1 X-4.5 Y-21.2445 Z0.64 F2400
M108 R35  (snort)
M102
G1 X-4.4 Y-21.2445 Z0.64 F2400
M103

(  path 98/110, 2 points,  )
G1 X19.4 Y-21.2445 Z0.64 F2400
M108 R35 (squirt)
M101
G1 X19.5 Y-21.2445 Z0.64 F2400
M108 R2.8 (good to go)
G1 X22.5 Y-21.2445 Z0.64 F2400
M108 R35  (snort)
M102
G1 X22.6 Y-21.2445 Z0.64 F2400
M103

(  path 99/110, 2 points,  )
G1 X22.6 Y-22.2445 Z0.64 F2400
M108 R35 (squirt)
M101
G1 X22.5 Y-22.2445 Z0.64 F2400
M108 R2.8 (good to go)
G1 X19.5 Y-22.2445 Z0.64 F2400
M108 R35  (snort)
M102
G1 X19.4 Y-22.2445 Z0.64 F2400
M103

(  path 100/110, 2 points,  )
G1 X-4.4 Y-22.2445 Z0.64 F2400
M108 R35 (squirt)
M101
G1 X-4.5 Y-22.2445 Z0.64 F2400
M108 R2.8 (good to go)
G1 X-22.5 Y-22.2445 Z0.64 F2400
M108 R35  (snort)
M102
G1 X-22.6 Y-22.2445 Z0.64 F2400
M103

(  path 101/110, 2 points,  )
G1 X-22.6 Y-23.2445 Z0.64 F2400
M108 R35 (squirt)
M101
G1 X-22.5 Y-23.2445 Z0.64 F2400
M108 R2.8 (good to go)
G1 X-4.5 Y-23.2445 Z0.64 F2400
M108 R35  (snort)
M102
G1 X-4.4 Y-23.2445 Z0.64 F2400
M103

(  path 102/110, 2 points,  )
G1 X19.4 Y-23.2445 Z0.64 F2400
M108 R35 (squirt)
M101
G1 X19.5 Y-23.2445 Z0.64 F2400
M108 R2.8 (good to go)
G1 X22.5 Y-23.2445 Z0.64 F2400
M108 R35  (snort)
M102
G1 X22.6 Y-23.2445 Z0.64 F2400
M103

(  path 103/110, 2 points,  )
G1 X22.6 Y-24.2445 Z0.64 F2400
M108 R35 (squirt)
M101
G1 X22.5 Y-24.2445 Z0.64 F2400
M108 R2.8 (good to go)
G1 X19.5 Y-24.2445 Z0.64 F2400
M108 R35  (snort)
M102
G1 X19.4 Y-24.2445 Z0.64 F2400
M103

(  path 104/110, 2 points,  )
G1 X-4.4 Y-24.2445 Z0.64 F2400
M108 R35 (squirt)
M101
G1 X-4.5 Y-24.2445 Z0.64 F2400
M108 R2.8 (good to go)
G1 X-22.5 Y-24.2445 Z0.64 F2400
M108 R35  (snort)
M102
G1 X-22.6 Y-24.2445 Z0.64 F2400
M103

(  path 105/110, 2 points,  )
G1 X-22.6 Y-25.2445 Z0.64 F2400
M108 R35 (squirt)
M101
G1 X-22.5 Y-25.2445 Z0.64 F2400
M108 R2.8 (good to go)
G1 X22.5 Y-25.2445 Z0.64 F2400
M108 R35  (snort)
M102
G1 X22.6 Y-25.2445 Z0.64 F2400
M103

(  path 106/110, 2 points,  )
G1 X22.6 Y-26.2445 Z0.64 F2400
M108 R35 (squirt)
M101
G1 X22.5 Y-26.2445 Z0.64 F2400
M108 R2.8 (good to go)
G1 X-22.5 Y-26.2445 Z0.64 F2400
M108 R35  (snort)
M102
G1 X-22.6 Y-26.2445 Z0.64 F2400
M103

(  path 107/110, 2 points,  )
G1 X-22.6 Y-27.2445 Z0.64 F2400
M108 R35 (squirt)
M101
G1 X-22.5 Y-27.2445 Z0.64 F2400
M108 R2.8 (good to go)
G1 X22.5 Y-27.2445 Z0.64 F2400
M108 R35  (snort)
M102
G1 X22.6 Y-27.2445 Z0.64 F2400
M103

(  path 108/110, 2 points,  )
G1 X22.6 Y-28.2445 Z0.64 F2400
M108 R35 (squirt)
M101
G1 X22.5 Y-28.2445 Z0.64 F2400
M108 R2.8 (good to go)
G1 X-22.5 Y-28.2445 Z0.64 F2400
M108 R35  (snort)
M102
G1 X-22.6 Y-28.2445 Z0.64 F2400
M103

(  path 109/110, 2 points,  )
G1 X-22.6 Y-29.2445 Z0.64 F2400
M108 R35 (squirt)
M101
G1 X-22.5 Y-29.2445 Z0.64 F2400
M108 R2.8 (good to go)
G1 X22.5 Y-29.2445 Z0.64 F2400
M108 R35  (snort)
M102
G1 X22.6 Y-29.2445 Z0.64 F2400
M103

(Slice 3, 1 Extruder)
G1 Z0.91 F500 (move Z)
(   Extruder 0)
( extruder 0 )
( GSWITCH T0 )
( TODO: add offset management to Gantry )

(inset 0/2 )
(  path 0/2, 55 points,  )
G1 X-18.56 Y24.7566 Z0.91 F2400
M108 R35 (squirt)
M101
G1 X-18.56 Y24.6566 Z0.91 F2400
M108 R2.8 (good to go)
G1 X-18.56 Y14.44 Z0.91 F2400
G1 X-17.9226 Y14.44 Z0.91 F2400
G1 X-16.56 Y14.44 Z0.91 F2400
G1 X-16.56 Y9.44 Z0.91 F2400
G1 X-15.9112 Y9.44 Z0.91 F2400
G1 X-14.56 Y9.44 Z0.91 F2400
G1 X-14.56 Y4.44 Z0.91 F2400
G1 X-13.896 Y4.44 Z0.91 F2400
G1 X-12.56 Y4.44 Z0.91 F2400
G1 X-12.56 Y-0.560002 Z0.91 F2400
G1 X-11.8745 Y-0.560002 Z0.91 F2400
G1 X-10.56 Y-0.560002 Z0.91 F2400
G1 X-10.56 Y-5.56 Z0.91 F2400
G1 X-9.84174 Y-5.56 Z0.91 F2400
G1 X-8.56 Y-5.56 Z0.91 F2400
G1 X-8.56 Y-10.56 Z0.91 F2400
G1 X-7.78588 Y-10.56 Z0.91 F2400
G1 X-6.56 Y-10.56 Z0.91 F2400
G1 X-6.56 Y-15.56 Z0.91 F2400
G1 X-5.66909 Y-15.56 Z0.91 F2400
G1 X-4.56 Y-15.56 Z0.91 F2400
G1 X-4.56 Y-15.8273 Z0.91 F2400
G1 X-4.56 Y-20.56 Z0.91 F2400
G1 X-3.272 Y-20.56 Z0.91 F2400
G1 X-2.56 Y-20.56 Z0.91 F2400
G1 X-2.56 Y-23.18 Z0.91 F2400
G1 X-2.56 Y-25.56 Z0.91 F2400
G1 X-1.272 Y-25.56 Z0.91 F2400
G1 X-0.18 Y-25.56 Z0.91 F2400
G1 X1.53 Y-25.56 Z0.91 F2400
G1 X17.56 Y-25.56 Z0.91 F2400
G1 X17.56 Y20.5 Z0.91 F2400
G1 X17.56 Y25.56 Z0.91 F2400
G1 X13.85 Y25.56 Z0.91 F2400
G1 X-1.62 Y25.56 Z0.91 F2400
G1 X-11.448 Y25.56 Z0.91 F2400
G1 X-12.176 Y25.56 Z0.91 F2400
G1 X-14.36 Y25.56 Z0.91 F2400
G1 X-15.6836 Y25.56 Z0.91 F2400
G1 X-16.18 Y25.56 Z0.91 F2400
G1 X-16.7153 Y25.56 Z0.91 F2400
G1 X-16.908 Y25.56 Z0.91 F2400
G1 X-17.2087 Y25.56 Z0.91 F2400
G1 X-17.3 Y25.56 Z0.91 F2400
G1 X-17.4979 Y25.56 Z0.91 F2400
G1 X-17.545 Y25.56 Z0.91 F2400
G1 X-17.688 Y25.56 Z0.91 F2400
G1 X-17.7126 Y25.56 Z0.91 F2400
G1 X-17.8224 Y25.56 Z0.91 F2400
G1 X-17.8345 Y25.56 Z0.91 F2400
G1 X-17.9226 Y25.56 Z0.91 F2400
G1 X-17.9272 Y25.56 Z0.91 F2400
G1 X-18.56 Y25.56 Z0.91 F2400
G1 X-18.56 Y24.6566 Z0.91 F2400
M108 R35  (snort)
M102
G1 X-18.56 Y24.5566 Z0.91 F2400
M103

(  path 1/2, 52 points,  )
G1 X-19.4125 Y29.44 Z0.91 F2400
M108 R35 (squirt)
M101
G1 X-19.3125 Y29.44 Z0.91 F2400
M108 R2.8 (good to go)
G1 X-2.25 Y29.44 Z0.91 F2400
G1 X2.25 Y29.44 Z0.91 F2400
G1 X22.27 Y29.44 Z0.91 F2400
G1 X24.44 Y29.44 Z0.91 F2400
G1 X24.44 Y29.35 Z0.91 F2400
G1 X24.44 Y29.272 Z0.91 F2400
G1 X24.44 Y28.9659 Z0.91 F2400
G1 X24.44 Y28.7591 Z0.91 F2400
G1 X24.44 Y28.5632 Z0.91 F2400
G1 X24.44 Y28.3237 Z0.91 F2400
G1 X24.44 Y28.0094 Z0.91 F2400
G1 X24.44 Y27.2 Z0.91 F2400
G1 X24.44 Y26.85 Z0.91 F2400
G1 X24.44 Y25.905 Z0.91 F2400
G1 X24.44 Y25.45 Z0.91 F2400
G1 X24.44 Y23.5 Z0.91 F2400
G1 X24.44 Y17.4875 Z0.91 F2400
G1 X24.44 Y-28.8625 Z0.91 F2400
G1 X24.44 Y-29.44 Z0.91 F2400
G1 X24.3175 Y-29.44 Z0.91 F2400
G1 X22.27 Y-29.44 Z0.91 F2400
G1 X17.77 Y-29.44 Z0.91 F2400
G1 X-2.25 Y-29.44 Z0.91 F2400
G1 X-24.44 Y-29.44 Z0.91 F2400
G1 X-24.44 Y16.35 Z0.91 F2400
G1 X-24.44 Y17.4875 Z0.91 F2400
G1 X-24.44 Y22.85 Z0.91 F2400
G1 X-24.44 Y23.5 Z0.91 F2400
G1 X-24.44 Y25.905 Z0.91 F2400
G1 X-24.44 Y27.2 Z0.91 F2400
G1 X-24.44 Y27.725 Z0.91 F2400
G1 X-24.44 Y28.0094 Z0.91 F2400
G1 X-24.44 Y28.3237 Z0.91 F2400
G1 X-24.44 Y28.5632 Z0.91 F2400
G1 X-24.44 Y28.9659 Z0.91 F2400
G1 X-24.44 Y29.09 Z0.91 F2400
G1 X-24.44 Y29.272 Z0.91 F2400
G1 X-24.44 Y29.35 Z0.91 F2400
G1 X-24.44 Y29.44 Z0.91 F2400
G1 X-24.3774 Y29.44 Z0.91 F2400
G1 X-24.2816 Y29.44 Z0.91 F2400
G1 X-24.1469 Y29.44 Z0.91 F2400
G1 X-24.0331 Y29.44 Z0.91 F2400
G1 X-23.81 Y29.44 Z0.91 F2400
G1 X-23.67 Y29.44 Z0.91 F2400
G1 X-23.271 Y29.44 Z0.91 F2400
G1 X-23.089 Y29.44 Z0.91 F2400
G1 X-22.27 Y29.44 Z0.91 F2400
G1 X-22.01 Y29.44 Z0.91 F2400
G1 X-19.7675 Y29.44 Z0.91 F2400
G1 X-19.3125 Y29.44 Z0.91 F2400
M108 R35  (snort)
M102
G1 X-19.2125 Y29.44 Z0.91 F2400
M103

(inset 1/2 )
(  path 0/2, 60 points,  )
G1 X-18.2 Y24.7566 Z0.91 F2400
M108 R35 (squirt)
M101
G1 X-18.2 Y24.6566 Z0.91 F2400
M108 R2.8 (good to go)
G1 X-18.2 Y14.8 Z0.91 F2400
G1 X-17.9226 Y14.8 Z0.91 F2400
G1 X-16.2 Y14.8 Z0.91 F2400
G1 X-16.2 Y9.8 Z0.91 F2400
G1 X-15.9112 Y9.8 Z0.91 F2400
G1 X-14.2 Y9.8 Z0.91 F2400
G1 X-14.2 Y9.77805 Z0.91 F2400
G1 X-14.2 Y4.8 Z0.91 F2400
G1 X-13.896 Y4.8 Z0.91 F2400
G1 X-12.2 Y4.8 Z0.91 F2400
G1 X-12.2 Y4.74 Z0.91 F2400
G1 X-12.2 Y-0.200002 Z0.91 F2400
G1 X-11.8745 Y-0.200002 Z0.91 F2400
G1 X-10.2 Y-0.200002 Z0.91 F2400
G1 X-10.2 Y-0.313795 Z0.91 F2400
G1 X-10.2 Y-5.2 Z0.91 F2400
G1 X-9.84174 Y-5.2 Z0.91 F2400
G1 X-8.2 Y-5.2 Z0.91 F2400
G1 X-8.2 Y-5.39565 Z0.91 F2400
G1 X-8.2 Y-10.2 Z0.91 F2400
G1 X-7.78588 Y-10.2 Z0.91 F2400
G1 X-6.2 Y-10.2 Z0.91 F2400
G1 X-6.2 Y-10.5353 Z0.91 F2400
G1 X-6.2 Y-15.2 Z0.91 F2400
G1 X-5.66909 Y-15.2 Z0.91 F2400
G1 X-4.2 Y-15.2 Z0.91 F2400
G1 X-4.2 Y-15.8273 Z0.91 F2400
G1 X-4.2 Y-20.2 Z0.91 F2400
G1 X-3.272 Y-20.2 Z0.91 F2400
G1 X-2.2 Y-20.2 Z0.91 F2400
G1 X-2.2 Y-23.18 Z0.91 F2400
G1 X-2.2 Y-25.2 Z0.91 F2400
G1 X-1.272 Y-25.2 Z0.91 F2400
G1 X-0.18 Y-25.2 Z0.91 F2400
G1 X1.53 Y-25.2 Z0.91 F2400
G1 X17.2 Y-25.2 Z0.91 F2400
G1 X17.2 Y20.5 Z0.91 F2400
G1 X17.2 Y25.2 Z0.91 F2400
G1 X13.85 Y25.2 Z0.91 F2400
G1 X-1.62 Y25.2 Z0.91 F2400
G1 X-11.448 Y25.2 Z0.91 F2400
G1 X-12.176 Y25.2 Z0.91 F2400
G1 X-14.36 Y25.2 Z0.91 F2400
G1 X-15.6836 Y25.2 Z0.91 F2400
G1 X-16.18 Y25.2 Z0.91 F2400
G1 X-16.7153 Y25.2 Z0.91 F2400
G1 X-16.908 Y25.2 Z0.91 F2400
G1 X-17.2087 Y25.2 Z0.91 F2400
G1 X-17.3 Y25.2 Z0.91 F2400
G1 X-17.4979 Y25.2 Z0.91 F2400
G1 X-17.545 Y25.2 Z0.91 F2400
G1 X-17.688 Y25.2 Z0.91 F2400
G1 X-17.7126 Y25.2 Z0.91 F2400
G1 X-17.8224 Y25.2 Z0.91 F2400
G1 X-17.8345 Y25.2 Z0.91 F2400
G1 X-17.9226 Y25.2 Z0.91 F2400
G1 X-17.9272 Y25.2 Z0.91 F2400
G1 X-18.2 Y25.2 Z0.91 F2400
G1 X-18.2 Y24.6566 Z0.91 F2400
M108 R35  (snort)
M102
G1 X-18.2 Y24.5566 Z0.91 F2400
M103

(  path 1/2, 62 points,  )
G1 X-19.4125 Y29.8 Z0.91 F2400
M108 R35 (squirt)
M101
G1 X-19.3125 Y29.8 Z0.91 F2400
M108 R2.8 (good to go)
G1 X-2.25 Y29.8 Z0.91 F2400
G1 X2.25 Y29.8 Z0.91 F2400
G1 X22.27 Y29.8 Z0.91 F2400
G1 X24.8 Y29.8 Z0.91 F2400
G1 X24.8 Y29.5597 Z0.91 F2400
G1 X24.8 Y29.5125 Z0.91 F2400
G1 X24.8 Y29.35 Z0.91 F2400
G1 X24.8 Y29.272 Z0.91 F2400
G1 X24.8 Y28.9659 Z0.91 F2400
G1 X24.8 Y28.7591 Z0.91 F2400
G1 X24.8 Y28.5632 Z0.91 F2400
G1 X24.8 Y28.3237 Z0.91 F2400
G1 X24.8 Y28.0094 Z0.91 F2400
G1 X24.8 Y27.2 Z0.91 F2400
G1 X24.8 Y26.85 Z0.91 F2400
G1 X24.8 Y25.905 Z0.91 F2400
G1 X24.8 Y25.45 Z0.91 F2400
G1 X24.8 Y23.5 Z0.91 F2400
G1 X24.8 Y17.4875 Z0.91 F2400
G1 X24.8 Y-28.8625 Z0.91 F2400
G1 X24.8 Y-29.8 Z0.91 F2400
G1 X24.3175 Y-29.8 Z0.91 F2400
G1 X22.27 Y-29.8 Z0.91 F2400
G1 X17.77 Y-29.8 Z0.91 F2400
G1 X-2.25 Y-29.8 Z0.91 F2400
G1 X-24.8 Y-29.8 Z0.91 F2400
G1 X-24.8 Y16.35 Z0.91 F2400
G1 X-24.8 Y17.4875 Z0.91 F2400
G1 X-24.8 Y22.85 Z0.91 F2400
G1 X-24.8 Y23.5 Z0.91 F2400
G1 X-24.8 Y25.905 Z0.91 F2400
G1 X-24.8 Y27.2 Z0.91 F2400
G1 X-24.8 Y27.725 Z0.91 F2400
G1 X-24.8 Y28.0094 Z0.91 F2400
G1 X-24.8 Y28.3237 Z0.91 F2400
G1 X-24.8 Y28.5632 Z0.91 F2400
G1 X-24.8 Y28.9659 Z0.91 F2400
G1 X-24.8 Y29.09 Z0.91 F2400
G1 X-24.8 Y29.272 Z0.91 F2400
G1 X-24.8 Y29.35 Z0.91 F2400
G1 X-24.8 Y29.5125 Z0.91 F2400
G1 X-24.8 Y29.8 Z0.91 F2400
G1 X-24.7945 Y29.8 Z0.91 F2400
G1 X-24.7725 Y29.8 Z0.91 F2400
G1 X-24.7075 Y29.8 Z0.91 F2400
G1 X-24.6724 Y29.8 Z0.91 F2400
G1 X-24.5996 Y29.8 Z0.91 F2400
G1 X-24.545 Y29.8 Z0.91 F2400
G1 X-24.4623 Y29.8 Z0.91 F2400
G1 X-24.3774 Y29.8 Z0.91 F2400
G1 X-24.2816 Y29.8 Z0.91 F2400
G1 X-24.1469 Y29.8 Z0.91 F2400
G1 X-24.0331 Y29.8 Z0.91 F2400
G1 X-23.81 Y29.8 Z0.91 F2400
G1 X-23.67 Y29.8 Z0.91 F2400
G1 X-23.271 Y29.8 Z0.91 F2400
G1 X-23.089 Y29.8 Z0.91 F2400
G1 X-22.27 Y29.8 Z0.91 F2400
G1 X-22.01 Y29.8 Z0.91 F2400
G1 X-19.7675 Y29.8 Z0.91 F2400
G1 X-19.3125 Y29.8 Z0.91 F2400
M108 R35  (snort)
M102
G1 X-19.2125 Y29.8 Z0.91 F2400
M103

(  path 0/41, 2 points,  )
G1 X24.7555 Y27.6 Z0.91 F2400
M108 R35 (squirt)
M101
G1 X24.7555 Y27.5 Z0.91 F2400
M108 R2.8 (good to go)
G1 X24.7555 Y-27.5 Z0.91 F2400
M108 R35  (snort)
M102
G1 X24.7555 Y-27.6 Z0.91 F2400
M103

(  path 1/41, 2 points,  )
G1 X23.7555 Y-27.6 Z0.91 F2400
M108 R35 (squirt)
M101
G1 X23.7555 Y-27.5 Z0.91 F2400
M108 R2.8 (good to go)
G1 X23.7555 Y27.5 Z0.91 F2400
M108 R35  (snort)
M102
G1 X23.7555 Y27.6 Z0.91 F2400
M103

(  path 2/41, 2 points,  )
G1 X22.7555 Y27.6 Z0.91 F2400
M108 R35 (squirt)
M101
G1 X22.7555 Y27.5 Z0.91 F2400
M108 R2.8 (good to go)
G1 X22.7555 Y-27.5 Z0.91 F2400
M108 R35  (snort)
M102
G1 X22.7555 Y-27.6 Z0.91 F2400
M103

(  path 3/41, 2 points,  )
G1 X21.7555 Y-27.6 Z0.91 F2400
M108 R35 (squirt)
M101
G1 X21.7555 Y-27.5 Z0.91 F2400
M108 R2.8 (good to go)
G1 X21.7555 Y27.5 Z0.91 F2400
M108 R35  (snort)
M102
G1 X21.7555 Y27.6 Z0.91 F2400
M103

(  path 4/41, 2 points,  )
G1 X20.7555 Y27.6 Z0.91 F2400
M108 R35 (squirt)
M101
G1 X20.7555 Y27.5 Z0.91 F2400
M108 R2.8 (good to go)
G1 X20.7555 Y-27.5 Z0.91 F2400
M108 R35  (snort)
M102
G1 X20.7555 Y-27.6 Z0.91 F2400
M103

(  path 5/41, 2 points,  )
G1 X19.7555 Y-27.6 Z0.91 F2400
M108 R35 (squirt)
M101
G1 X19.7555 Y-27.5 Z0.91 F2400
M108 R2.8 (good to go)
G1 X19.7555 Y27.5 Z0.91 F2400
M108 R35  (snort)
M102
G1 X19.7555 Y27.6 Z0.91 F2400
M103

(  path 6/41, 2 points,  )
G1 X18.7555 Y27.6 Z0.91 F2400
M108 R35 (squirt)
M101
G1 X18.7555 Y27.5 Z0.91 F2400
M108 R2.8 (good to go)
G1 X18.7555 Y-27.5 Z0.91 F2400
M108 R35  (snort)
M102
G1 X18.7555 Y-27.6 Z0.91 F2400
M103

(  path 7/41, 2 points,  )
G1 X17.7555 Y-27.6 Z0.91 F2400
M108 R35 (squirt)
M101
G1 X17.7555 Y-27.5 Z0.91 F2400
M108 R2.8 (good to go)
G1 X17.7555 Y27.5 Z0.91 F2400
M108 R35  (snort)
M102
G1 X17.7555 Y27.6 Z0.91 F2400
M103

(  path 8/41, 2 points,  )
G1 X10.7555 Y27.6 Z0.91 F2400
M108 R35 (squirt)
M101
G1 X10.7555 Y27.5 Z0.91 F2400
M108 R2.8 (good to go)
G1 X10.7555 Y27.5 Z0.91 F2400
M108 R35  (snort)
M102
G1 X10.7555 Y27.4 Z0.91 F2400
M103

(  path 9/41, 2 points,  )
G1 X9.7555 Y27.4 Z0.91 F2400
M108 R35 (squirt)
M101
G1 X9.7555 Y27.5 Z0.91 F2400
M108 R2.8 (good to go)
G1 X9.7555 Y27.5 Z0.91 F2400
M108 R35  (snort)
M102
G1 X9.7555 Y27.6 Z0.91 F2400
M103

(  path 10/41, 2 points,  )
G1 X8.7555 Y27.6 Z0.91 F2400
M108 R35 (squirt)
M101
G1 X8.7555 Y27.5 Z0.91 F2400
M108 R2.8 (good to go)
G1 X8.7555 Y27.5 Z0.91 F2400
M108 R35  (snort)
M102
G1 X8.7555 Y27.4 Z0.91 F2400
M103

(  path 11/41, 2 points,  )
G1 X7.7555 Y27.4 Z0.91 F2400
M108 R35 (squirt)
M101
G1 X7.7555 Y27.5 Z0.91 F2400
M108 R2.8 (good to go)
G1 X7.7555 Y27.5 Z0.91 F2400
M108 R35  (snort)
M102
G1 X7.7555 Y27.6 Z0.91 F2400
M103

(  path 12/41, 2 points,  )
G1 X6.7555 Y27.6 Z0.91 F2400
M108 R35 (squirt)
M101
G1 X6.7555 Y27.5 Z0.91 F2400
M108 R2.8 (good to go)
G1 X6.7555 Y27.5 Z0.91 F2400
M108 R35  (snort)
M102
G1 X6.7555 Y27.4 Z0.91 F2400
M103

(  path 13/41, 2 points,  )
G1 X1.7555 Y27.4 Z0.91 F2400
M108 R35 (squirt)
M101
G1 X1.7555 Y27.5 Z0.91 F2400
M108 R2.8 (good to go)
G1 X1.7555 Y27.5 Z0.91 F2400
M108 R35  (snort)
M102
G1 X1.7555 Y27.6 Z0.91 F2400
M103

(  path 14/41, 2 points,  )
G1 X0.755503 Y27.6 Z0.91 F2400
M108 R35 (squirt)
M101
G1 X0.755503 Y27.5 Z0.91 F2400
M108 R2.8 (good to go)
G1 X0.755503 Y27.5 Z0.91 F2400
M108 R35  (snort)
M102
G1 X0.755503 Y27.4 Z0.91 F2400
M103

(  path 15/41, 2 points,  )
G1 X-0.244497 Y27.4 Z0.91 F2400
M108 R35 (squirt)
M101
G1 X-0.244497 Y27.5 Z0.91 F2400
M108 R2.8 (good to go)
G1 X-0.244497 Y27.5 Z0.91 F2400
M108 R35  (snort)
M102
G1 X-0.244497 Y27.6 Z0.91 F2400
M103

(  path 16/41, 2 points,  )
G1 X-1.2445 Y27.6 Z0.91 F2400
M108 R35 (squirt)
M101
G1 X-1.2445 Y27.5 Z0.91 F2400
M108 R2.8 (good to go)
G1 X-1.2445 Y27.5 Z0.91 F2400
M108 R35  (snort)
M102
G1 X-1.2445 Y27.4 Z0.91 F2400
M103

(  path 17/41, 2 points,  )
G1 X-2.2445 Y-27.6 Z0.91 F2400
M108 R35 (squirt)
M101
G1 X-2.2445 Y-27.5 Z0.91 F2400
M108 R2.8 (good to go)
G1 X-2.2445 Y-22.5 Z0.91 F2400
M108 R35  (snort)
M102
G1 X-2.2445 Y-22.4 Z0.91 F2400
M103

(  path 18/41, 2 points,  )
G1 X-2.2445 Y27.4 Z0.91 F2400
M108 R35 (squirt)
M101
G1 X-2.2445 Y27.5 Z0.91 F2400
M108 R2.8 (good to go)
G1 X-2.2445 Y27.5 Z0.91 F2400
M108 R35  (snort)
M102
G1 X-2.2445 Y27.6 Z0.91 F2400
M103

(  path 19/41, 2 points,  )
G1 X-3.2445 Y-22.4 Z0.91 F2400
M108 R35 (squirt)
M101
G1 X-3.2445 Y-22.5 Z0.91 F2400
M108 R2.8 (good to go)
G1 X-3.2445 Y-27.5 Z0.91 F2400
M108 R35  (snort)
M102
G1 X-3.2445 Y-27.6 Z0.91 F2400
M103

(  path 20/41, 2 points,  )
G1 X-4.2445 Y-27.6 Z0.91 F2400
M108 R35 (squirt)
M101
G1 X-4.2445 Y-27.5 Z0.91 F2400
M108 R2.8 (good to go)
G1 X-4.2445 Y-17.5 Z0.91 F2400
M108 R35  (snort)
M102
G1 X-4.2445 Y-17.4 Z0.91 F2400
M103

(  path 21/41, 2 points,  )
G1 X-5.2445 Y-17.4 Z0.91 F2400
M108 R35 (squirt)
M101
G1 X-5.2445 Y-17.5 Z0.91 F2400
M108 R2.8 (good to go)
G1 X-5.2445 Y-27.5 Z0.91 F2400
M108 R35  (snort)
M102
G1 X-5.2445 Y-27.6 Z0.91 F2400
M103

(  path 22/41, 2 points,  )
G1 X-6.2445 Y-27.6 Z0.91 F2400
M108 R35 (squirt)
M101
G1 X-6.2445 Y-27.5 Z0.91 F2400
M108 R2.8 (good to go)
G1 X-6.2445 Y-12.5 Z0.91 F2400
M108 R35  (snort)
M102
G1 X-6.2445 Y-12.4 Z0.91 F2400
M103

(  path 23/41, 2 points,  )
G1 X-7.2445 Y-12.4 Z0.91 F2400
M108 R35 (squirt)
M101
G1 X-7.2445 Y-12.5 Z0.91 F2400
M108 R2.8 (good to go)
G1 X-7.2445 Y-27.5 Z0.91 F2400
M108 R35  (snort)
M102
G1 X-7.2445 Y-27.6 Z0.91 F2400
M103

(  path 24/41, 2 points,  )
G1 X-8.2445 Y-27.6 Z0.91 F2400
M108 R35 (squirt)
M101
G1 X-8.2445 Y-27.5 Z0.91 F2400
M108 R2.8 (good to go)
G1 X-8.2445 Y-7.5 Z0.91 F2400
M108 R35  (snort)
M102
G1 X-8.2445 Y-7.4 Z0.91 F2400
M103

(  path 25/41, 2 points,  )
G1 X-9.2445 Y-7.4 Z0.91 F2400
M108 R35 (squirt)
M101
G1 X-9.2445 Y-7.5 Z0.91 F2400
M108 R2.8 (good to go)
G1 X-9.2445 Y-27.5 Z0.91 F2400
M108 R35  (snort)
M102
G1 X-9.2445 Y-27.6 Z0.91 F2400
M103

(  path 26/41, 2 points,  )
G1 X-10.2445 Y-27.6 Z0.91 F2400
M108 R35 (squirt)
M101
G1 X-10.2445 Y-27.5 Z0.91 F2400
M108 R2.8 (good to go)
G1 X-10.2445 Y-2.5 Z0.91 F2400
M108 R35  (snort)
M102
G1 X-10.2445 Y-2.4 Z0.91 F2400
M103

(  path 27/41, 2 points,  )
G1 X-11.2445 Y-2.4 Z0.91 F2400
M108 R35 (squirt)
M101
G1 X-11.2445 Y-2.5 Z0.91 F2400
M108 R2.8 (good to go)
G1 X-11.2445 Y-27.5 Z0.91 F2400
M108 R35  (snort)
M102
G1 X-11.2445 Y-27.6 Z0.91 F2400
M103

(  path 28/41, 2 points,  )
G1 X-12.2445 Y-27.6 Z0.91 F2400
M108 R35 (squirt)
M101
G1 X-12.2445 Y-27.5 Z0.91 F2400
M108 R2.8 (good to go)
G1 X-12.2445 Y2.5 Z0.91 F2400
M108 R35  (snort)
M102
G1 X-12.2445 Y2.6 Z0.91 F2400
M103

(  path 29/41, 2 points,  )
G1 X-13.2445 Y2.6 Z0.91 F2400
M108 R35 (squirt)
M101
G1 X-13.2445 Y2.5 Z0.91 F2400
M108 R2.8 (good to go)
G1 X-13.2445 Y-27.5 Z0.91 F2400
M108 R35  (snort)
M102
G1 X-13.2445 Y-27.6 Z0.91 F2400
M103

(  path 30/41, 2 points,  )
G1 X-14.2445 Y-27.6 Z0.91 F2400
M108 R35 (squirt)
M101
G1 X-14.2445 Y-27.5 Z0.91 F2400
M108 R2.8 (good to go)
G1 X-14.2445 Y7.5 Z0.91 F2400
M108 R35  (snort)
M102
G1 X-14.2445 Y7.6 Z0.91 F2400
M103

(  path 31/41, 2 points,  )
G1 X-15.2445 Y7.6 Z0.91 F2400
M108 R35 (squirt)
M101
G1 X-15.2445 Y7.5 Z0.91 F2400
M108 R2.8 (good to go)
G1 X-15.2445 Y-27.5 Z0.91 F2400
M108 R35  (snort)
M102
G1 X-15.2445 Y-27.6 Z0.91 F2400
M103

(  path 32/41, 2 points,  )
G1 X-16.2445 Y-27.6 Z0.91 F2400
M108 R35 (squirt)
M101
G1 X-16.2445 Y-27.5 Z0.91 F2400
M108 R2.8 (good to go)
G1 X-16.2445 Y12.5 Z0.91 F2400
M108 R35  (snort)
M102
G1 X-16.2445 Y12.6 Z0.91 F2400
M103

(  path 33/41, 2 points,  )
G1 X-17.2445 Y12.6 Z0.91 F2400
M108 R35 (squirt)
M101
G1 X-17.2445 Y12.5 Z0.91 F2400
M108 R2.8 (good to go)
G1 X-17.2445 Y-27.5 Z0.91 F2400
M108 R35  (snort)
M102
G1 X-17.2445 Y-27.6 Z0.91 F2400
M103

(  path 34/41, 2 points,  )
G1 X-18.2445 Y-27.6 Z0.91 F2400
M108 R35 (squirt)
M101
G1 X-18.2445 Y-27.5 Z0.91 F2400
M108 R2.8 (good to go)
G1 X-18.2445 Y27.5 Z0.91 F2400
M108 R35  (snort)
M102
G1 X-18.2445 Y27.6 Z0.91 F2400
M103

(  path 35/41, 2 points,  )
G1 X-19.2445 Y27.6 Z0.91 F2400
M108 R35 (squirt)
M101
G1 X-19.2445 Y27.5 Z0.91 F2400
M108 R2.8 (good to go)
G1 X-19.2445 Y-27.5 Z0.91 F2400
M108 R35  (snort)
M102
G1 X-19.2445 Y-27.6 Z0.91 F2400
M103

(  path 36/41, 2 points,  )
G1 X-20.2445 Y-27.6 Z0.91 F2400
M108 R35 (squirt)
M101
G1 X-20.2445 Y-27.5 Z0.91 F2400
M108 R2.8 (good to go)
G1 X-20.2445 Y27.5 Z0.91 F2400
M108 R35  (snort)
M102
G1 X-20.2445 Y27.6 Z0.91 F2400
M103

(  path 37/41, 2 points,  )
G1 X-21.2445 Y27.6 Z0.91 F2400
M108 R35 (squirt)
M101
G1 X-21.2445 Y27.5 Z0.91 F2400
M108 R2.8 (good to go)
G1 X-21.2445 Y-27.5 Z0.91 F2400
M108 R35  (snort)
M102
G1 X-21.2445 Y-27.6 Z0.91 F2400
M103

(  path 38/41, 2 points,  )
G1 X-22.2445 Y-27.6 Z0.91 F2400
M108 R35 (squirt)
M101
G1 X-22.2445 Y-27.5 Z0.91 F2400
M108 R2.8 (good to go)
G1 X-22.2445 Y27.5 Z0.91 F2400
M108 R35  (snort)
M102
G1 X-22.2445 Y27.6 Z0.91 F2400
M103

(  path 39/41, 2 points,  )
G1 X-23.2445 Y27.6 Z0.91 F2400
M108 R35 (squirt)
M101
G1 X-23.2445 Y27.5 Z0.91 F2400
M108 R2.8 (good to go)
G1 X-23.2445 Y-27.5 Z0.91 F2400
M108 R35  (snort)
M102
G1 X-23.2445 Y-27.6 Z0.91 F2400
M103

(  path 40/41, 2 points,  )
G1 X-24.2445 Y-27.6 Z0.91 F2400
M108 R35 (squirt)
M101
G1 X-24.2445 Y-27.5 Z0.91 F2400
M108 R2.8 (good to go)
G1 X-24.2445 Y27.5 Z0.91 F2400
M108 R35  (snort)
M102
G1 X-24.2445 Y27.6 Z0.91 F2400
M103

(Slice 4, 1 Extruder)
G1 Z1.18 F500 (move Z)
(   Extruder 0)
( extruder 0 )
( GSWITCH T0 )
( TODO: add offset management to Gantry )

(inset 0/2 )
(  path 0/2, 86 points,  )
G1 X-18.56 Y24.6547 Z1.18 F2400
M108 R35 (squirt)
M101
G1 X-18.56 Y24.5547 Z1.18 F2400
M108 R2.8 (good to go)
G1 X-18.56 Y14.44 Z1.18 F2400
G1 X-17.8996 Y14.44 Z1.18 F2400
G1 X-16.56 Y14.44 Z1.18 F2400
G1 X-16.56 Y9.44 Z1.18 F2400
G1 X-15.8849 Y9.44 Z1.18 F2400
G1 X-14.56 Y9.44 Z1.18 F2400
G1 X-14.56 Y4.44 Z1.18 F2400
G1 X-13.8651 Y4.44 Z1.18 F2400
G1 X-12.56 Y4.44 Z1.18 F2400
G1 X-12.56 Y-0.560002 Z1.18 F2400
G1 X-11.8372 Y-0.560002 Z1.18 F2400
G1 X-10.56 Y-0.560002 Z1.18 F2400
G1 X-10.56 Y-5.56 Z1.18 F2400
G1 X-9.79478 Y-5.56 Z1.18 F2400
G1 X-8.56 Y-5.56 Z1.18 F2400
G1 X-8.56 Y-10.56 Z1.18 F2400
G1 X-7.72235 Y-10.56 Z1.18 F2400
G1 X-6.56 Y-10.56 Z1.18 F2400
G1 X-6.56 Y-10.6941 Z1.18 F2400
G1 X-6.56 Y-15.56 Z1.18 F2400
G1 X-5.57091 Y-15.56 Z1.18 F2400
G1 X-4.56 Y-15.56 Z1.18 F2400
G1 X-4.56 Y-16.0727 Z1.18 F2400
G1 X-4.56 Y-20.56 Z1.18 F2400
G1 X-3.056 Y-20.56 Z1.18 F2400
G1 X-2.56 Y-20.56 Z1.18 F2400
G1 X-2.56 Y-22.64 Z1.18 F2400
G1 X-2.56 Y-25.56 Z1.18 F2400
G1 X-1.056 Y-25.56 Z1.18 F2400
G1 X-0.56 Y-25.56 Z1.18 F2400
G1 X-0.56 Y-29.44 Z1.18 F2400
G1 X-1.5 Y-29.44 Z1.18 F2400
G1 X-24.44 Y-29.44 Z1.18 F2400
G1 X-24.44 Y12.3 Z1.18 F2400
G1 X-24.44 Y13.775 Z1.18 F2400
G1 X-24.44 Y20.7286 Z1.18 F2400
G1 X-24.44 Y21.5714 Z1.18 F2400
G1 X-24.44 Y24.69 Z1.18 F2400
G1 X-24.44 Y26.3692 Z1.18 F2400
G1 X-24.44 Y27.05 Z1.18 F2400
G1 X-24.44 Y27.4187 Z1.18 F2400
G1 X-24.44 Y27.8263 Z1.18 F2400
G1 X-24.44 Y28.1368 Z1.18 F2400
G1 X-24.44 Y28.6591 Z1.18 F2400
G1 X-24.44 Y28.82 Z1.18 F2400
G1 X-24.44 Y29.056 Z1.18 F2400
G1 X-24.44 Y29.1571 Z1.18 F2400
G1 X-24.44 Y29.3679 Z1.18 F2400
G1 X-24.44 Y29.44 Z1.18 F2400
G1 X-24.41 Y29.44 Z1.18 F2400
G1 X-24.3027 Y29.44 Z1.18 F2400
G1 X-24.1926 Y29.44 Z1.18 F2400
G1 X-24.0684 Y29.44 Z1.18 F2400
G1 X-23.8938 Y29.44 Z1.18 F2400
G1 X-23.7463 Y29.44 Z1.18 F2400
G1 X-23.4569 Y29.44 Z1.18 F2400
G1 X-23.2754 Y29.44 Z1.18 F2400
G1 X-22.758 Y29.44 Z1.18 F2400
G1 X-22.522 Y29.44 Z1.18 F2400
G1 X-21.46 Y29.44 Z1.18 F2400
G1 X-21.1229 Y29.44 Z1.18 F2400
G1 X-18.215 Y29.44 Z1.18 F2400
G1 X-17.625 Y29.44 Z1.18 F2400
G1 X-0.56 Y29.44 Z1.18 F2400
G1 X-0.56 Y29.4 Z1.18 F2400
G1 X-0.56 Y25.56 Z1.18 F2400
G1 X-9.504 Y25.56 Z1.18 F2400
G1 X-10.448 Y25.56 Z1.18 F2400
G1 X-13.28 Y25.56 Z1.18 F2400
G1 X-14.9964 Y25.56 Z1.18 F2400
G1 X-15.64 Y25.56 Z1.18 F2400
G1 X-16.3341 Y25.56 Z1.18 F2400
G1 X-16.584 Y25.56 Z1.18 F2400
G1 X-16.9739 Y25.56 Z1.18 F2400
G1 X-17.0923 Y25.56 Z1.18 F2400
G1 X-17.349 Y25.56 Z1.18 F2400
G1 X-17.41 Y25.56 Z1.18 F2400
G1 X-17.5954 Y25.56 Z1.18 F2400
G1 X-17.6274 Y25.56 Z1.18 F2400
G1 X-17.7698 Y25.56 Z1.18 F2400
G1 X-17.7855 Y25.56 Z1.18 F2400
G1 X-17.8996 Y25.56 Z1.18 F2400
G1 X-17.9056 Y25.56 Z1.18 F2400
G1 X-18.56 Y25.56 Z1.18 F2400
G1 X-18.56 Y24.5547 Z1.18 F2400
M108 R35  (snort)
M102
G1 X-18.56 Y24.4547 Z1.18 F2400
M103

(  path 1/2, 28 points,  )
G1 X22.56 Y26.3 Z1.18 F2400
M108 R35 (squirt)
M101
G1 X22.56 Y26.4 Z1.18 F2400
M108 R2.8 (good to go)
G1 X22.56 Y26.7 Z1.18 F2400
G1 X22.56 Y28.35 Z1.18 F2400
G1 X22.56 Y28.5 Z1.18 F2400
G1 X22.56 Y29.1 Z1.18 F2400
G1 X22.56 Y29.4 Z1.18 F2400
G1 X22.56 Y29.44 Z1.18 F2400
G1 X24.44 Y29.44 Z1.18 F2400
G1 X24.44 Y29.429 Z1.18 F2400
G1 X24.44 Y29.3679 Z1.18 F2400
G1 X24.44 Y29.1571 Z1.18 F2400
G1 X24.44 Y29.056 Z1.18 F2400
G1 X24.44 Y28.6591 Z1.18 F2400
G1 X24.44 Y28.3909 Z1.18 F2400
G1 X24.44 Y28.1368 Z1.18 F2400
G1 X24.44 Y27.8263 Z1.18 F2400
G1 X24.44 Y27.4187 Z1.18 F2400
G1 X24.44 Y26.3692 Z1.18 F2400
G1 X24.44 Y25.9154 Z1.18 F2400
G1 X24.44 Y24.69 Z1.18 F2400
G1 X24.44 Y24.1 Z1.18 F2400
G1 X24.44 Y21.5714 Z1.18 F2400
G1 X24.44 Y13.775 Z1.18 F2400
G1 X24.44 Y-28.525 Z1.18 F2400
G1 X24.44 Y-29.44 Z1.18 F2400
G1 X24.115 Y-29.44 Z1.18 F2400
G1 X22.56 Y-29.44 Z1.18 F2400
G1 X22.56 Y26.4 Z1.18 F2400
M108 R35  (snort)
M102
G1 X22.56 Y26.5 Z1.18 F2400
M103

(inset 1/2 )
(  path 0/2, 97 points,  )
